/* XPM */
static char * code_xpm[] = {
"256 256 198 2",
"   c None",
"aa c #ffffff",
"ab c #fffffe",
"ac c #feffff",
"ad c #fdffff",
"ae c #fefeff",
"af c #fefefe",
"ag c #fffefd",
"ah c #fdfeff",
"ai c #fdfefe",
"aj c #fdfcf9",
"ak c #fcfeff",
"al c #fcfdfd",
"am c #fafdff",
"an c #fcfcfd",
"ao c #fbfcfc",
"ap c #fafcfe",
"aq c #fafafa",
"ar c #f6fbfe",
"as c #f6f6f7",
"at c #eef7fd",
"au c #e6f5fd",
"av c #f0f0f0",
"aw c #eeeeee",
"ax c #f0ede7",
"ay c #ebeef1",
"az c #ebebeb",
"aA c #eaeaea",
"aC c #e8e8e8",
"aD c #e7e7e8",
"aE c #f3d8a6",
"aF c #f1cc87",
"aG c #f1ca83",
"aH c #e2f1fb",
"aI c #daf0fb",
"aJ c #dde7ef",
"aK c #cde8f9",
"aL c #bee5f9",
"aM c #c2def2",
"aN c #bed2e3",
"aO c #a8def8",
"aP c #a7d8f4",
"aQ c #a4cfee",
"aR c #97d7f6",
"aS c #92d4f4",
"aT c #91d4f4",
"aU c #92d3f4",
"aV c #91d3f4",
"aW c #90d3f4",
"aX c #8ed3f5",
"aY c #90d1f3",
"aZ c #8cd1f3",
"a0 c #8ad1f3",
"a1 c #89d0f3",
"a2 c #89cef2",
"a3 c #88cdf1",
"a4 c #92c8ed",
"a5 c #87ccf1",
"a6 c #86cbf0",
"a7 c #85caf0",
"a8 c #85c9ef",
"a9 c #83caf0",
"a+ c #84c8ee",
"a- c #83c7ee",
"a* c #82c6ee",
"a/ c #81c6ee",
"a< c #81c5ed",
"a> c #7fc5ed",
"a= c #bfbfbf",
"a! c #8bc2e8",
"a@ c #81c4ed",
"a# c #80c4ec",
"a$ c #81c0ea",
"a% c #7fc3ec",
"a^ c #7fc2eb",
"a& c #7ec2ec",
"a( c #7ec2eb",
"a) c #7fc0ea",
"a[ c #7cc3ed",
"a] c #7dc1eb",
"a{ c #79c1ec",
"a} c #7dc0ea",
"a| c #7cc0eb",
"a; c #7cc0ea",
"a: c #79c0ec",
"a, c #7cbfea",
"a~ c #7bbfea",
"a` c #79bfeb",
"a_ c #8abde2",
"a? c #7abeea",
"ba c #79bdea",
"bb c #79bde9",
"bc c #79bce8",
"bd c #78beea",
"be c #78bce9",
"bf c #78bce8",
"bg c #7ebbe5",
"bh c #77bbe8",
"bi c #77bbe7",
"bj c #93afc8",
"bk c #75bdea",
"bl c #76bae7",
"bm c #75bae7",
"bn c #75bae6",
"bo c #74bae8",
"bp c #75b9e6",
"bq c #74b9e6",
"br c #71b9e8",
"bs c #73b8e6",
"bt c #72b7e5",
"bu c #71b6e5",
"bv c #6fb6e5",
"bw c #6fb5e4",
"bx c #6eb3e3",
"by c #6cb3e3",
"bz c #6bb3e3",
"bA c #6ab4e5",
"bB c #6ab2e2",
"bC c #6cafe0",
"bD c #69b3e4",
"bE c #69b2e2",
"bF c #69b1e2",
"bG c #68b1e3",
"bH c #68b1e2",
"bI c #68b1e1",
"bJ c #68afe0",
"bK c #66b0e2",
"bL c #64afe1",
"bM c #64aee1",
"bN c #61aee1",
"bO c #63ade0",
"bP c #5fade1",
"bQ c #64abde",
"bR c #60abdf",
"bS c #5eace0",
"bT c #5dace0",
"bU c #5dabdf",
"bV c #61a8dc",
"bW c #5ea7dc",
"bX c #5da5da",
"bY c #5aa4da",
"bZ c #58a2d9",
"b0 c #56a1d8",
"b1 c #569ed6",
"b2 c #539dd5",
"b3 c #529ed6",
"b4 c #519bd5",
"b5 c #6a97c1",
"b6 c #529ad3",
"b7 c #5298d2",
"b8 c #5199d3",
"b9 c #5198d2",
"b+ c #5197d2",
"b- c #5197d1",
"b* c #5197d0",
"b/ c #5193cf",
"b< c #5097d1",
"b> c #5096d1",
"b= c #5096d0",
"b! c #5095d0",
"b@ c #5094d0",
"b# c #5092ce",
"b$ c #4c97d3",
"b% c #4f95d0",
"b^ c #4a95d1",
"b& c #4f94cf",
"b( c #4994d0",
"b) c #4f93cf",
"b[ c #4f93ce",
"b] c #4693d0",
"b{ c #4f92ce",
"b} c #4e92ce",
"b| c #4f91cd",
"b; c #4e91cd",
"b: c #4c91cd",
"b~ c #4d90cd",
"b` c #4d8fcd",
"b_ c #4d8fcc",
"b? c #4d8fcb",
"ca c #4d8cca",
"cb c #4c8fcc",
"cc c #4c8ecc",
"cd c #4c8ecb",
"ce c #4c8dcb",
"cf c #4c8bca",
"cg c #498dcb",
"ch c #4a8bca",
"ci c #5f87b0",
"cj c #4a8ac9",
"ck c #4386c7",
"cl c #3e5376",
"cm c #1c345d",
"cn c #1a335c",
"co c #19325b",
"cp c #18315a",
"cq c #132c56",
"cr c #0d2752",
"cs c #07214d",
"                                                                                                                                                                                                                                                                                                                                                                                                                                                                                                                                ",
"                                                                                                                                                                                                                                                                                                                                                                                                                                                                                                                                ",
"                                                                                                                                                                                                                                                                                                                                                                                                                                                                                                                                ",
"                                                                                                                                                                                                                                                                                                                                                                                                                                                                                                                                ",
"                                                                                                                                                                                                                                                                                                                                                                                                                                                                                                                                ",
"                                                                                                                                                                                                                                                                                                                                                                                                                                                                                                                                ",
"                                                                                                                                                                                                                                                                                                                                                                                                                                                                                                                                ",
"                                                                                                                                                                                                                                                                                                                                                                                                                                                                                                                                ",
"                                                                                                                                                  aAaAazazaAawawawawavasasasasaqaoaoaoananaoalaaaaaaaaaaaaaaaaaaaaaaaaaaaaaaaaaaaaaaaaaaaaaaaaaaaaaaaaaaaaaaaaaaaaaaaaaaaaaaaaaaaaaaaaaaaaaaaaaaaaaaaaaaaaaaaaaaaaaaaaaaaaaaaaaaaaalaoananaoaoaoaqasasasasavawawawawaAazazaAaA                                                                                                                                                  ",
"                                                                                                                      aCaCaAawawawavavaoaaaaaaaaaaaaaaaaaaaaaaaaaaaaaaaaaaaaaaaaaaaaaaaaaaaaaaaaaaaaaaaaaaaaaaaaaaaaaaaaaaaaaaaaaaaaaaaaaaaaaaaaaaaaaaaaaaaaaaaaaaaaaaaaaaaaaaaaaaaaaaaaaaaaaaaaaaaaaaaaaaaaaaaaaaaaaaaaaaaaaaaaaaaaaaaaaaaaaaaaaaaaaaaaaaaaaaaaaaaaaaaaaaaaaaaaaaaaaaaaaoavavawawawaAaCaC                                                                                                                      ",
"                                                                                                        aCazazawavanaaaaaaaaaaaaaaaaaaaaaaaaaaaaaaaaaaaaaaaaaaaaaaaaaaaaaaaaaaaaaaaaaaaaaaaaaaaaaaaaaaaaaaaaaaaaaaaaaaaaaaaaaaaaaaaaaaaaaaaaaaaaaaaaaaaaaaaaaaaaaaaaaaaaaaaaaaaaaaaaaaaaaaaaaaaaaaaaaaaaaaaaaaaaaaaaaaaaaaaaaaaaaaaaaaaaaaaaaaaaaaaaaaaaaaaaaaaaaaaaaaaaaaaaaaaaaaaaaaaaaaaaaaaaaaaaaaaaaaaaanavawazazaC                                                                                                        ",
"                                                                                              aCaAawavaaaaaaaaaaaaaaaaaaaaaaaaaaaaaaaaafaaaaaaaaaaaaaaaaaaaaaaaaaaaaaaaaaaaaaaaaaaaaaaaaaaaaaaaaaaaaaaaaaaaaaaaaaaaaaaaaaaaaaaaaaaaaaaaaaaaaaaaaaaaaaaaaaaaaaaaaaaaaaaaaaaaaaaaaaaaaaaaaaaaaaaaaaaaaaaaaaaaaaaaaaaaaaaaaaaaaaaaaaaaaaaaaaaaaaaaaaaaaaaaaaaaaaaaaaaaaaaaaaaaaaaaaaaaaaaaaafaaaaaaaaaaaaaaaaaaaaaaaaaaaaaaaaavawaAaC                                                                                              ",
"                                                                                      azazawafaaaaaaaaaaaaaaaaaaaaaaaaaaaaaaaaaaaaaaaaaaaaaaaaaaaaaaaaaaaaaaaaaaaaaaaaaaaaaaaaaaaaaaaaaaaaaaaaaaaaaaaaaaaaaaaaaaaaaaaaaaaaaaaaaaaaaaaaaaaaaaaaaaaaaaaaaaaaaaaaaaaaaaaaaaaaaaaaaaaaaaaaaaaaaaaaaaaaaaaaaaaaaaaaaaaaaaaaaaaaaaaaaaaaaaaaaaaaaaaaaaaaaaaaaaaaaaaaaaaaaaaaaaaaaaaaaaaaaaaaaaaaaaaaaaaaaaaaaaaaaaaaaaaaaaaaaaaaaaaaaaaaafawazaz                                                                                      ",
"                                                                                azawasaaaaaaaaaaaaaaafaaaaaaaaaaaaaaaaaaaaaaaaaaaaaaaaaaaaaaaaaaaaaaaaaaaaaaaaaaaaaaaaaaaaaaaaaaaaaaaaaaaaaaaaaaaaaaaaaaaaaaaaaaaaaaaaaaaaaaaaaaaaaaaaaaaaaaaaaaaaaaaaaaaaaaaaaaaaaaaaaaaaaaaaaaaaaaaaaaaaaaaaaaaaaaaaaaaaaaaaaaaaaaaaaaaaaaaaaaaaaaaaaaaaaaaaaaaaaaaaaaaaaaaaaaaaaaaaaaaaaaaaaaaaaaaaaaaaaaaaaaaaaaaaaaaaaaaaaaaaaaaaaaaaafaaaaaaaaaaaaaaasawaz                                                                                ",
"                                                                            awasaaaaaaaaaaaaaaaaaaaaaaaaaaaaaaaaaaaaaaaaaaaaaaaaaaaaaaaaaaaaaaaaaaaaaaaaaaaaaaaaaaaaaaaaaaaaaaaaaaaaaaaaaaaaaaaaaaaaaaaaaaaaaaaaaaaaaaaaaaaaaaaaaaaaaaaaaaaaaaaaaaaaaaaaaaaaaaaaaaaaaaaaaaaaaaaaaaaaaaaaaaaaaaaaaaaaaaaaaaaaaaaaaaaaaaaaaaaaaaaaaaaaaaaaaaaaaaaaaaaaaaaaaaaaaaaaaaaaaaaaaaaaaaaaaaaaaaaaaaaaaaaaaaaaaaaaaaaaaaaaaaaaaaaaaaaaaaaaaaaaaaaaaaaaaaaaasaw                                                                            ",
"                                                                      awavaaaaaaaaaaaaaaaaaaaaaaaaaaaaaaaaaaaaaaaaaaaaaaaaaaaaaaaaaaaaaaaaaaaaaaaaaaaaaaaaaaaaaaaaaaaaaaaaaaaaaaaaaaaaaaaaaaaaaaaaaaaaaaaaaaaaaaaaaaaaaaaaaaaaaaaaaaaaaaaaaaaaaaaaaaaaaaaaaaaaaaaaaaaaaaaaaaaaaaaaaaaaaaaaaaaaaaaaaaaaaaaaaaaaaaaaaaaaaaaaaaaaaaaaaaaaaaaaaaaaaaaaaaaaaaaaaaaaaaaaaaaaaaaaaaaaaaaaaaaaaaaaaaaaaaaaaaaaaaaaaaaaaaaaaaaaaaaaaaaaaaaaaaaaaaaaaaaaaaaaaaaaavaw                                                                      ",
"                                                                  awavaaaaaaaaaaaaaaaaaaaaaaaaaaaaaaaaaaaaaaaaaaaaaaaaaaaaaaaaaaaaaaaaaaaaaaaaaaaaaaaaaaaaaaaaaaaaaaaaaaaaaaaaaaaaaaaaaaaaaaaaaaaaaaaaaaaaaaaaaaaaaaaaaaaaaaaaaaaaaaaaaaaaaaaaaaaaaaaaaaaaaaaaaaaaaaaaaaaaaaaaaaaaaaaaaaaaaaaaaaaaaaaaaaaaaaaaaaaaaaaaaaaaaaaaaaaaaaaaaaaaaaaaaaaaaaaaaaaaaaaaaaaaaaaaaaaaaaaaaaaaaaaaaaaaaaaaaaaaaaaaaaaaaaaaaaaaaaaaaaaaaaaaaaaaaaaaaaaaaaaaaaaaaaaaaaaaavaw                                                                  ",
"                                                              awavaaalaaaaaaaaaaaaaaaaaaaaaaaaaaaaaaaaaaaaaaaaaaaaaaaaaaaaaaaaaaaaaaaaaaaaaaaaaaaaaaaaaaaaaaaaaaaaaaaaaaaaaaaaaaaaaaaaaaaaaaaaaaaaaaaaaaaaaaaaaaaaaaaaaaaaaaaaaaaaaaaaaaaaaaaaaaaaaaaaaaaaaaaaaaaaaaaaaaaaaaaaaaaaaaaaaaaaaaaaaaaaaaaaaaaaaaaaaaaaaaaaaaaaaaaaaaaaaaaaaaaaaaaaaaaaaaaaaaaaaaaaaaaaaaaaaaaaaaaaaaaaaaaaaaaaaaaaaaaaaaaaaaaaaaaaaaaaaaaaaaaaaaaaaaaaaaaaaaaaaaaaaaaaaaaaaaaaalaaavaw                                                              ",
"                                                            avaaalaaaaaaaaaaaaaaaaaaaaaaaaaaaaaaaaaaaaaaaaaaaaaaaaaaaaaaaaaaaaaaaaaaaaaaaaaaaaaaaaaaaaaaaaaaaaaaaaaaaaaaaaaaaaaaaaaaaaaaaaaaaaaaaaaaaaaaaaaaaaaaaaaaaaaaaaaaaaaaaaaaaaaaaaaaaaaaaaaaaaaaaaaaaaaaaaaaaaaaaaaaaaaaaaaaaaaaaaaaaaaaaaaaaaaaaaaaaaaaaaaaaaaaaaaaaaaaaaaaaaaaaaaaaaaaaaaaaaaaaaaaaaaaaaaaaaaaaaaaaaaaaaaaaaaaaaaaaaaaaaaaaaaaaaaaaaaaaaaaaaaaaaaaaaaaaaaaaaaaaaaaaaaaaaaaaaaaaaaaaaalaaav                                                            ",
"                                                        awaqaaaaaaaaaaaaaaaaaaaaaaaaaaaaaaaaaaaaaaaaaaaaaaaaaaaaaaaaaaaaaaaaaaaaaaaaaaaaaaaaaaaaaaaaaaaaaaaaaaaaaaaaaaaaaaaaaaaaaaaaaaaaaaaaaaaaaaaaaaaaaaaaaaaaaaaaaaaaaaaaaaaaaaaaaaaaaaaaaaaaaaaaaaaaaaaaaaaaaaaaaaaaaaaaaaaaaaaaaaaaaaaaaaaaaaaaaaaaaaaaaaaaaaaaaaaaaaaaaaaaaaaaaaaaaaaaaaaaaaaaaaaaaaaaaaaaaaaaaaaaaaaaaaaaaaaaaaaaaaaaaaaaaaaaaaaaaaaaaaaaaaaaaaaaaaaaaaaaaaaaaaaaaaaaaaaaaaaaaaaaaaaaaaaaaaaaaqaw                                                        ",
"                                                      avaaalaaaaaaaaaaaaaaaaaaaaaaaaaaaaaaaaaaaaaaaaaaaaaaaaaaaaaaaaaaaaaaaaaaaaaaaaaaaaaaaaaaaaaaaaaaaaaaaaaaaaaaaaaaaaaaaaaaaaaaaaaaaaaaaaaaaaaaaaaaaaaaaaaaaaaaaaaaaaaaaaaaaaaaaaaaaaaaaaaaaaaaaaaaaaaaaaaaaaaaaaaaaaaaaaaaaaaaaaaaaaaaaaaaaaaaaaaaaaaaaaaaaaaaaaaaaaaaaaaaaaaaaaaaaaaaaaaaaaaaaaaaaaaaaaaaaaaaaaaaaaaaaaaaaaaaaaaaaaaaaaaaaaaaaaaaaaaaaaaaaaaaaaaaaaaaaaaaaaaaaaaaaaaaaaaaaaaaaaaaaaaaaaaaaaaaaaalaaav                                                      ",
"                                                    avaaaaaaaaaaaaaaaaaaaaaaaaaaaaaaaaaaaaaaaaaaaaaaaaaaaaaaaaaaaaaaaaaaaaaaaaaaaaaaaaaaaaaaaaaaaaaaaaaaaaaaaaaaaaaaaaaaaaaaaaaaaaaaaaaaaaaaaaaaaaaaaaaaaaaaaaaaaaaaaaaaaaaaaaaaaaaaaaaaaaaaaaaaaaaaaaaaaaaaaaaaaaaaaaaaaaaaaaaaaaaaaaaaaaaaaaaaaaaaaaaaaaaaaaaaaaaaaaaaaaaaaaaaaaaaaaaaaaaaaaaaaaaaaaaaaaaaaaaaaaaaaaaaaaaaaaaaaaaaaaaaaaaaaaaaaaaaaaaaaaaaaaaaaaaaaaaaaaaaaaaaaaaaaaaaaaaaaaaaaaaaaaaaaaaaaaaaaaaaaaaaaaav                                                    ",
"                                                  asanaaaaaaaaaaaaaaaaaaaaaaaaaaaaaaaaaaaaaaaaaaaaaaaaaaaaaaaaaaaaaaaaaaaaaaaaaaaaaaaaaaaaaaaaaaaaaaaaaaaaaaaaaaaaaaaaaaaaaaaaaaaaaaaaaaaaaaaaaaaaaaaaaaaaaaaaaaaaaaaaaaaaaaaaaaaaaaaaaaaaaaaaaaaaaaaaaaaaaaaaaaaaaaaaaaaaaaaaaaaaaaaaaaaaaaaaaaaaaaaaaaaaaaaaaaaaaaaaaaaaaaaaaaaaaaaaaaaaaaaaaaaaaaaaaaaaaaaaaaaaaaaaaaaaaaaaaaaaaaaaaaaaaaaaaaaaaaaaaaaaaaaaaaaaaaaaaaaaaaaaaaaaaaaaaaaaaaaaaaaaaaaaaaaaaaaaaaaaaaaaaaaaanas                                                  ",
"                                                aqanaaaaaaaaaaaaaaaaaaaaaaaaaaaaaaaaaaaaaaaaaaaaaaaaaaaaaaaaaaaaaaaaaaaaaaaaaaaaaaaaaaaaaaaaaaaaaaaaaaaaaaaaaaaaaaaaaaaaaaaaaaaaaaaaaaaaaaaaaaaaaaaaaaaaaaaaaaaaaaaaaaaaaaaaaaaaaaaaaaaaaaaaaaaaaaaaaaaaaaaaaaaaaaaaaaaaaaaaaaaaaaaaaaaaaaaaaaaaaaaaaaaaaaaaaaaaaaaaaaaaaaaaaaaaaaaaaaaaaaaaaaaaaaaaaaaaaaaaaaaaaaaaaaaaaaaaaaaaaaaaaaaaaaaaaaaaaaaaaaaaaaaaaaaaaaaaaaaaaaaaaaaaaaaaaaaaaaaaaaaaaaaaaaaaaaaaaaaaaaaaaaaaaaaaanaq                                                ",
"                                              aqalaaaaaaaaaaaaaaaaaaaaaaaaaaaaaaaaaaaaaaaaaaaaaaaaaaaaaaaaaaaaaaaaaaaaaaaaaaaaaaaaaaaaaaaaaaaaaaaaaaaaaaaaaaaaaaaaaaaaaaaaaaaaaaaaaaaaaaaaaaaaaaaaaaaaaaaaaaaaaaaaaaaaaaaaaaaaaaaaaaaaaaaaaaaaaaaaaaaaaaaaaaaaaaaaaaaaaaaaaaaaaaaaaaaaaaaaaaaaaaaaaaaaaaaaaaaaaaaaaaaaaaaaaaaaaaaaaaaaaaaaaaaaaaaaaaaaaaaaaaaaaaaaaaaaaaaaaaaaaaaaaaaaaaaaaaaaaaaaaaaaaaaaaaaaaaaaaaaaaaaaaaaaaaaaaaaaaaaaaaaaaaaaaaaaaaaaaaaaaaaaaaaaaaaaaaaaalaq                                              ",
"                                            asalaaaaaaaaaaaaaaaaaaaaaaaaaaaaaaaaaaaaaaaaaaaaaaaaaaaaaaaaaaaaaaaaaaaaaaaaaaaaaaaaaaaaaaaaaaaaaaaaaaaaaaaaaaaaaaaaaaaaaaaaaaaaaaaaaaaaaaaaaaaaaaaaaaaaaaaaaaaaaaaaaaaaaaaaaaaaaaaaaaaaaaaaaaaaaaaaaaaaaaaaaaaaaaaaaaaaaaaaaaaaaaaaaaaaaaaaaaaaaaaaaaaaaaaaaaaaaaaaaaaaaaaaaaaaaaaaaaaaaaaaaaaaaaaaaaaaaaaaaaaaaaaaaaaaaaaaaaaaaaaaaaaaaaaaaaaaaaaaaaaaaaaaaaaaaaaaaaaaaaaaaaaaaaaaaaaaaaaaaaaaaaaaaaaaaaaaaaaaaaaaaaaaaaaaaaaaaaaaalas                                            ",
"                                          avalaaaaaaaaaaaaaaaaaaaaaaaaaaaaaaaaaaaaaaaaaaaaaaaaaaaaaaaaaaaaaaaaaaaaaaaaaaaaaaaaaaaaaaaaaaaaaaaaaaaaaaaaaaaaaaaaaaaaaaaaaaaaaaaaaaaaaaaaaaaaaaaaaaaaaaaaaaaaaaaaaaaaaaaaaaaaaaaaaaaaaaaaaaaaaaaaaaaaaaaaaaaaaaaaaaaaaaaaaaaaaaaaaaaaaaaaaaaaaaaaaaaaaaaaaaaaaaaaaaaaaaaaaaaaaaaaaaaaaaaaaaaaaaaaaaaaaaaaaaaaaaaaaaaaaaaaaaaaaaaaaaaaaaaaaaaaaaaaaaaaaaaaaaaaaaaaaaaaaaaaaaaaaaaaaaaaaaaaaaaaaaaaaaaaaaaaaaaaaaaaaaaaaaaaaaaaaaaaaaaaalav                                          ",
"                                        aAaaaaaaaaaaaaaaaaaaaaaaaaaaaaaaaaaaaaaaaaaaaaaaaaaaaaaaaaaaaaaaaaaaaaaaaaaaaaaaaaaaaaaaaaaaaaaaaaaaaaaaaaaaaaaaaaaaaaaaaaaaaaaaaaaaaaaaaaaaaaaaaaaaaaaaaaaaaaaaaaaaaaaaaaaaaaaaaaaaaaaaaaaaaaaaaaaaaaaaaaaaaaaaaaaaaaaaaaaaaaaaaaaaaaaaaaaaaaaaaaaaaaaaaaaaaaaaaaaaaaaaaaaaaaaaaaaaaaaaaaaaaaaaaaaaaaaaaaaaaaaaaaaaaaaaaaaaaaaaaaaaaaaaaaaaaaaaaaaaaaaaaaaaaaaaaaaaaaaaaaaaaaaaaaaaaaaaaaaaaaaaaaaaaaaaaaaaaaaaaaaaaaaaaaaaaaaaaaaaaaaaaaaaaaaA                                        ",
"                                      aDaaaaaaaaaaaaaaaaaaaaaaaaaaaaaaaaaaaaaaaaaaaaaaaaaaaaaaaaaaaaaaaaaaaaaaaaaaaaaaaaaaaaaaaaaaaaaaaaaaaaaaaaaaaaaaaaaaaaaaaaaaaaaaaaaaaaaaaaaaaaaaaaaaaaaaaaaaaaaaaaaaaaaaaaaaaaaaaaaaaaaaaaaaaaaaaaaaaaaaaaaaaaaaaaaaaaaaaaaaaaaaaaaaaaaaaaaaaaaaaaaaaaaaaaaaaaaaaaaaaaaaaaaaaaaaaaaaaaaaaaaaaaaaaaaaaaaaaaaaaaaaaaaaaaaaaaaaaaaaaaaaaaaaaaaaaaaaaaaaaaaaaaaaaaaaaaaaaaaaaaaaaaaaaaaaaaaaaaaaaaaaaaaaaaaaaaaaaaaaaaaaaaaaaaaaaaaaaaaaaaaaaaaaaaaaaaaD                                      ",
"                                      aqaaaaaaaaaaaaaaaaaaaaaaaaaaaaaaaaaaaaaaaaaaaaaaaaaaaaaaaaaaaaaaaaaaaaaaaaaaaaaaaaaaaaaaaaaaaaaaaaaaaaaaaaaaaaaaaaaaaaaaaaaaaaaaaaaaaaaaaaaaaaaaaaaaaaaaaaaaaaaaaaaaaaaaaaaaaaaaaaaaaaaaaaaaaaaaaaaaaaaaaaaaaaaaaaaaaaaaaaaaaaaaaaaaaaaaaaaaaaaaaaaaaaaaaaaaaaaaaaaaaaaaaaaaaaaaaaaaaaaaaaaaaaaaaaaaaaaaaaaaaaaaaaaaaaaaaaaaaaaaaaaaaaaaaaaaaaaaaaaaaaaaaaaaaaaaaaaaaaaaaaaaaaaaaaaaaaaaaaaaaaaaaaaaaaaaaaaaaaaaaaaaaaaaaaaaaaaaaaaaaaaaaaaaaaaaaaaq                                      ",
"                                    azaaaaaaaaaaaaaaaaaaaaaaaaaaaaaaaaaaaaaaaaaaaaaaaaaaaaaaaaaaaaaaaaaaaaaaaaaaaaaaaaaaaaaaaaaaaaaaaaaaaaaaaaaaaaaaaaaaaaaaaaaaaaaaaaaaaaaaaaaaaaaaaaaaaaaaaaaaaaaaaaaaaaaaaaaaaaaaaaaaaaaaaaaaaaaaaaaaaaaaaaaaaaaaaaaaaaaaaaaaaaaaaaaaaaaaaaaaaaaaaaaaaaaaaaaaaaaaaaaaaaaaaaaaaaaaaaaaaaaaaaaaaaaaaaaaaaaaaaaaaaaaaaaaaaaaaaaaaaaaaaaaaaaaaaaaaaaaaaaaaaaaaaaaaaaaaaaaaaaaaaaaaaaaaaaaaaaaaaaaaaaaaaaaaaaaaaaaaaaaaaaaaaaaaaaaaaaaaaaaaaaaaaaaaaaaaaaaaaaz                                    ",
"                                  aCaaaaaaaaaaaaaaaaaaaaaaaaaaaaaaaaaaaaaaaaaaaaaaaaaaaaaaaaaaaaaaaaaaaaaaaaaaaaaaaaaaaaaaaaaaaaaaaaaaaaaaaaaaaaaaaaaaaaaaaaaaaaaaaaaaaaaaaaaaaaaaaaaaaaaaaaaaaaaaaaaaaaaaaaaaaaaaaaaaaaaaaaaaaaaaaaaaaaaaaaaaaaaaaaaaaaaaaaaaaaaaaaaaaaaaaaaaaaaaaaaaaaaaaaaaaaaaaaaaaaaaaaaaaaaaaaaaaaaaaaaaaaaaaaaaaaaaaaaaaaaaaaaaaaaaaaaaaaaaaaaaaaaaaaaaaaaaaaaaaaaaaaaaaaaaaaaaaaaaaaaaaaaaaaaaaaaaaaaaaaaaaaaaaaaaaaaaaaaaaaaaaaaaaaaaaaaaaaaaaaaaaaaaaaaaaaaaaaaaaaaC                                  ",
"                                  avaaaaaaaaaaaaaaaaaaaaaaaaaaaaaaaaaaaaaaaaaaaaaaaaaaaaaaaaaaaaaaaaaaaaaaaaaaaaaaaaaaaaaaaaaaaaaaaaaaaaaaaaaaaaaaaaaaaaaaaaaaaaaaaaaaaaaaaaaaaaaaaaaaaaaaaaaaaaaaaaaaaaaaaaaaaaaaaaaaaaaaaaaaaaaaaaaaaaaaaaaaaaaaaaaaaaaaaaaaaaaaaaaaaaaaaaaaaaaaaaaaaaaaaaaaaaaaaaaaaaaaaaaaaaaaaaaaaaaaaaaaaaaaaaaaaaaaaaaaaaaaaaaaaaaaaaaaaaaaaaaaaaaaaaaaaaaaaaaaaaaaaaaaaaaaaaaaaaaaaaaaaaaaaaaaaaaaaaaaaaaaaaaaaaaaaaaaaaaaaaaaaaaaaaaaaaaaaaaaaaaaaaaaaaaaaaaaaaaaaaav                                  ",
"                                aCaaaaaaaaaaaaaaaaaaaaaaaaaaaaaaaaaaaaaaaaaaaaaaaaaaaaaaaaaaaaaaaaaaaaaaaaaaaaaaaaaaaaaaaaaaaaaaaaaaaaaaaaaaaaaaaaaaaaaaaaaaaaaaaaaaaaaaaaaaaaaaaaaaaaaaaaaaaaaaaaaaaaaaaaaaaaaaaaaaaaaaaaaaaaaaaaaaaaaaaaaaaaaaaaaaaaaaaaaaaaaaaaaaaaaaaaaaaaaaaaaaaaaaaaaaaaaaaaaaaaaaaaaaaaaaaaaaaaaaaaaaaaaaaaaaaaaaaaaaaaaaaaaaaaaaaaaaaaaaaaaaaaaaaaaaaaaaaaaaaaaaaaaaaaaaaaaaaaaaaaaaaaaaaaaaaaaaaaaaaaaaaaaaaaaaaaaaaaaaaaaaaaaaaaaaaaaaaaaaaaaaaaaaaaaaaaaaaaaaaaaaaaaC                                ",
"                                avaaaaaaaaaaaaaaaaaaaaaaaaaaaaaaaaaaaaaaaaaaaaaaaaaaaaaaaaaaaaaaaaaaaaaaaaaaaaaaaaaaaaaaaaaaaaaaaaaaaaaaaaaaaaaaaaaaaaaaaaaaaaaaaaaaaaaaaaaaaaaaaaaaaaaaaaaaaaaaaaaaaaaaaaaaaaaaaaaaaaaaaaaaaaaaaaaaaaaaaaaaaaaaaaaaaaaaaaaaaaaaaaaaaaaaaaaaaaaaaaaaaaaaaaaaaaaaaaaaaaaaaaaaaaaaaaaaaaaaaaaaaaaaaaaaaaaaaaaaaaaaaaaaaaaaaaaaaaaaaaaaaaaaaaaaaaaaaaaaaaaaaaaaaaaaaaaaaaaaaaaaaaaaaaaaaaaaaaaaaaaaaaaaaaaaaaaaaaaaaaaaaaaaaaaaaaaaaaaaaaaaaaaaaaaaaaaaaaaaaaaaaaav                                ",
"                              aCaaaaaaaaaaaaaaaaaaaaaaaaaaaaaaaaaaaaaaaaaaaaaaaaaaaaaaaaaaaaaaaaaaaaaaaaaaaaaaaaaaaaaaaaaaaaaaaaaaaaaaaaaaaaaaaaaaaaaaaaaaaaaaaaaaaaaaaaaaaaaaaaaaaaaaaaaaaaaaaaaaaaaaaaaaaaaaaaaaaaaaaaaaaaaaaaaaaaaaaaaaaaaaaaaaaaaaaaaaaaaaaaaaaaaaaaaaaaaaaaaaaaaaaaaaaaaaaaaaaaaaaaaaaaaaaaaaaaaaaaaaaaaaaaaaaaaaaaaaaaaaaaaaaaaaaaaaaaaaaaaaaaaaaaaaaaaaaaaaaaaaaaaaaaaaaaaaaaaaaaaaaaaaaaaaaaaaaaaaaaaaaaaaaaaaaaaaaaaaaaaaaaaaaaaaaaaaaaaaaaaaaaaaaaaaaaaaaaaaaaaaaaaaaaaC                              ",
"                              awaaaaaaaaaaaaaaaaaaaaaaaaaaaaaaaaaaaaaaaaaaaaaaaaaaaaaaaaaaaaaaaaaaaaaaaaaaaaaaaaaaaaaaaaaaaaaaaaaaaaaaaaaaaaaaaaaaaaaaaaaaaaaaaaaaaaaaaaaaaaaaaaaaaaaaaaaaaaaaaaaaaaaaaaaaaaaaaaaaaaaaaaaaaaaaaaaaaaaaaaaaaaaaaaaaaaaaaaaaaaaaaaaaaaaaaaaaaaaaaaaaaaaaaaaaaaaaaaaaaaaaaaaaaaaaaaaaaaaaaaaaaaaaaaaaaaaaaaaaaaaaaaaaaaaaaaaaaaaaaaaaaaaaaaaaaaaaaaaaaaaaaaaaaaaaaaaaaaaaaaaaaaaaaaaaaaaaaaaaaaaaaaaaaaaaaaaaaaaaaaaaaaaaaaaaaaaaaaaaaaaaaaaaaaaaaaaaaaaaaaaaaaaaaaaw                              ",
"                            aCaaaaaaaaaaaaaaaaaaaaaaaaaaaaaaaaaaaaaaaaaaaaaaaaaaaaaaaaaaaaaaaaaaaaaaaaaaaaaaaaaaaaaaaaaaaaaaaaaaaaaaaaaaaaaaaaaaaaaaaaaaaaaaaaaaaaaaaaaaaaaaaaaaaaaaaaaaaaaaaaaaaaaaaaaaaaaaaaaaaaaaaaaaaaaaaaaaaaaaaaaaaaaaaaaaaaaaaaaaaaaaaaaaaaaaaaaaaaaaaaaaaaaaaaaaaaaaaaaaaaaaaaaaaaaaaaaaaaaaaaaaaaaaaaaaaaaaaaaaaaaaaaaaaaaaaaaaaaaaaaaaaaaaaaaaaaaaaaaaaaaaaaaaaaaaaaaaaaaaaaaaaaaaaaaaaaaaaaaaaaaaaaaaaaaaaaaaaaaaaaaaaaaaaaaaaaaaaaaaaaaaaaaaaaaaaaaaaaaaaaaaaaaaaaaaaaaC                            ",
"                            aCaaaaaaaaaaaaaaaaaaaaaaaaaaaaaaaaaaaaaaaaaaaaaaaaaaaaaaaaaaaaaaaaaaaaaaaaaaaaaaaaaaaaaaaaaaaaaaaaaaaaaaaaaaaaaaaaaaaaaaaaaaaaaaaaaaaaaaaaaaaaaaaaaaaaaaaaaaaaaaaaaaaaaaaaaaaaaaaaaaaaaaaaaaaaaaaaaaaaaaaaaaaaaaaaaaaaaaaaaaaaaaaaaaaaaaaaaaaaaaaaaaaaaaaaaaaaaaaaaaaaaaaaaaaaaaaaaaaaaaaaaaaaaaaaaaaaaaaaaaaaaaaaaaaaaaaaaaaaaaaaaaaaaaaaaaaaaaaaaaaaaaaaaaaaaaaaaaaaaaaaaaaaaaaaaaaaaaaaaaaaaaaaaaaaaaaaaaaaaaaaaaaaaaaaaaaaaaaaaaaaaaaaaaaaaaaaaaaaaaaaaaaaaaaaaaaaaC                            ",
"                            asaaaaaaaaaaaaaaaaaaaaaaaaaaaaaaaaaaaaaaaaaaaaaaaaaaaaaaaaaaaaaaaaaaaaaaaaaaaaaaaaaaaaaaaaaaaaaaaaaaaaaaaaaaaaaaaaaaaaaaaaaaaaaaaaaaaaaaaaaaaaaaaaaaaaaaaaaaacaeahahahahahahahaeacacaaaaaaaaaaaaaaaaaaaaaaaaaaaaaaaaaaaaaaaaaaaaaaaaaaaaaaaaaaaaaaaaaaaaaaaaaaaaaaaaaaaaaaaaaaaaaaaaaaaaaaaaaaaaaaaaaaaaaaaaaaaaaaaaaaaaaaaaaaaaaaaaaaaaaaaaaaaaaaaaaaaaaaaaaaaaaaaaaaaaaaaaaaaaaaaaaaaaaaaaaaaaaaaaaaaaaaaaaaaaaaaaaaaaaaaaaaaaaaaaaaaaaaaaaaaaaaaaaaaaaaaaaaaaaaaaaaas                            ",
"                          aCaaaaaaaaaaaaaaaaaaaaaaaaaaaaaaaaaaaaaaaaaaaaaaaaaaaaaaaaaaaaaaaaaaaaaaaaaaaaaaaaaaaaaaaaaaaaaaaaaaaaaaaaaaaaaaaaaaaaaaaaaaaaaaaaaaaaaaaaaaaaaaaaaaaaacahaeaaaaaaaaaaaaaaaaaaaaaaaaaaacahahacaaaaaaaaaaaaaaaaaaaaaaaaaaaaaaaaaaaaaaaaaaaaaaaaaaaaaaaaaaaaaaaaaaaaaaaaaaaaaaaaaaaaaaaaaaaaaaaaaaaaaaaaaaaaaaaaaaaaaaaaaaaaaaaaaaaaaaaaaaaaaaaaaaaaaaaaaaaaaaaaaaaaaaaaaaaaaaaaaaaaaaaaaaaaaaaaaaaaaaaaaaaaaaaaaaaaaaaaaaaaaaaaaaaaaaaaaaaaaaaaaaaaaaaaaaaaaaaaaaaaaaaaaaaaaC                          ",
"                          aAaaaaaaaaaaaaaaaaaaaaaaaaaaaaaaaaaaaaaaaaaaaaaaaaaaaaaaaaaaaaaaaaaaaaaaaaaaaaaaaaaaaaaaaaaaaaaaaaaaaaaaaaaaaaaaaaaaaaaaaaaaaaaaaaaaaaaaaaaaaaaaacahaaaaaaaaakataHaIaKaLaLaLaKaKaIatapaaaaaaaaacahacaaaaaaaaaaaaaaaaaaaaaaaaaaaaaaaaaaaaaaaaaaaaaaaaaaaaaaaaaaaaaaaaaaaaaaaaaaaaaaaaaaaaaaaaaaaaaaaaaaaaaaaaaaaaaaaaaaaaaaaaaaaaaaaaaaaaaaaaaaaaaaaaaaaaaaaaaaaaaaaaaaaaaaaaaaaaaaaaaaaaaaaaaaaaaaaaaaaaaaaaaaaaaaaaaaaaaaaaaaaaaaaaaaaaaaaaaaaaaaaaaaaaaaaaaaaaaaaaaaaaaaaA                          ",
"                          asaaaaaaaaaaaaaaaaaaaaaaaaaaaaaaaaaaaaaaaaaaaaaaaaaaaaaaaaaaaaaaaaaaaaaaaaaaaaaaaaaaaaaaaaaaaaaaaaaaaaaaaaaaaaaaaaaaaaaaaaaaaaaaaaaaaaaaaaaaacacaaaaaaataKaOaRa0a9a/a>a[a[a[a[a>a>a9aYaRaLaKataaaaaaaeaeaaaaaaaaaaaaaaaaaaaaaaaaaaaaaaaaaaaaaaaaaaaaaaaaaaaaaaaaaaaaaaaaaaaaaaaaaaaaaaaaaaaaaaaaaaaaaaaaaaaaaaaaaaaaaaaaaaaaaaaaaaaaaaaaaaaaaaaaaaaaaaaaaaaaaaaaaaaaaaaaaaaaaaaaaaaaaaaaaaaaaaaaaaaaaaaaaaaaaaaaaaaaaaaaaaaaaaaaaaaaaaaaaaaaaaaaaaaaaaaaaaaaaaaaaaaaaaaaaaas                          ",
"                        aCaaaaaaaaaaaaaaaaaaaaaaaaaaaaaaaaaaaaaaaaaaaaaaaaaaaaaaaaaaaaaaaaaaaaaaaaaaaaaaaaaaaaaaaaaaaaaaaaaaaaaaaaaaaaaaaaaaaaaaaaaaaaaaaaaaaaaaaaacacaaaaataKaPa2a9a9a9a9a6a6a6a6a8a8a8a-a*a<a%a[a{a{a+aRaKataaaaacaeaaaaaaaaaaaaaaaaaaaaaaaaaaaaaaaaaaaaaaaaaaaaaaaaaaaaaaaaaaaaaaaaaaaaaaaaaaaaaaaaaaaaaaaaaaaaaaaaaaaaaaaaaaaaaaaaaaaaaaaaaaaaaaaaaaaaaaaaaaaaaaaaaaaaaaaaaaaaaaaaaaaaaaaaaaaaaaaaaaaaaaaaaaaaaaaaaaaaaaaaaaaaaaaaaaaaaaaaaaaaaaaaaaaaaaaaaaaaaaaaaaaaaaaaaaaaaaaaaC                        ",
"                        aCaaaaaaaaaaaaaaaaaaaaaaaaaaaaaaaaaaaaaaaaaaaaaaaaaaaaaaaaaaaaaaaaaaaaaaaaaaaaaaaaaaaaaaaaaaaaaaaaaaaaaaaaaaaaaaaaaaaaaaaaaaaaaaaaaaaaacacaaaaaHaOaZa9a9a5a3a3a6a7a7a8a8a+a+a+a-a/a*a<a<a<a<a@a(a`bka*aPaIaaaaaeacaaaaaaaaaaaaaaaaaaaaaaaaaaaaaaaaaaaaaaaaaaaaaaaaaaaaaaaaaaaaaaaaaaaaaaaaaaaaaaaaaaaaaaaaaaaaaaaaaaaaaaaaaaaaaaaaaaaaaaaaaaaaaaaaaaaaaaaaaaaaaaaaaaaaaaaaaaaaaaaaaaaaaaaaaaaaaaaaaaaaaaaaaaaaaaaaaaaaaaaaaaaaaaaaaaaaaaaaaaaaaaaaaaaaaaaaaaaaaaaaaaaaaaaaaaaaaC                        ",
"                        awaaaaaaaaaaaaaaaaaaaaaaaaaaaaaaaaaaaaaaaaaaaaaaaaaaaaaaaaaaaaaaaaaaaaaaaaaaaaaaaaaaaaaaaaaaaaaaaaaaaaaaaaaaaaaaaaaaaaaaaaaaaaaaaaaaahaaaaaHaOa3a9a5a2a3a5a6a6a7a7a8a8a+a+a+a-a/a*a<a>a<a#a#a%a&a%a^a;bka:aQaHaaaaaeaaaaaaaaaaaaaaaaaaaaaaaaaaaaaaaaaaaaaaaaaaaaaaaaaaaaaaaaaaaaaaaaaaaaaaaaaaaaaaaaaaaaaaaaaaaaaaaaaaaaaaaaaaaaaaaaaaaaaaaaaaaaaaaaaaaaaaaaaaaaaaaaaaaaaaaaaaaaaaaaaaaaaaaaaaaaaaaaaaaaaaaaaaaaaaaaaaaaaaaaaaaaaaaaaaaaaaaaaaaaaaaaaaaaaaaaaaaaaaaaaaaaaaaaaaaw                        ",
"                        afaaaaaaaaaaaaaaaaaaaaaaaaaaaaaaaaaaaaaaaaaaaaaaaaaaaaaaaaaaaaaaaaaaaaaaaaaaaaaaaaaaaaaaaaaaaaaaaaaaaaaaaaaaaaaaaaaaaaaaaaaaaaaaacaaaaataOa3a9a2a2a3a5a5a6a6a7a7a8a8a+a+a+a-a/a*a<a<a@a#a#a%a&a&a]a]a]a(a;boa`aOapaaahaaaaaaaaaaaaaaaaaaaaaaaaaaaaaaaaaaaaaaaaaaaaaaaaaaaaaaaaaaaaaaaaaaaaaaaaaaaaaaaaaaaaaaaaaaaaaaaaaaaaaaaaaaaaaaaaaaaaaaaaaaaaaaaaaaaaaaaaaaaaaaaaaaaaaaaaaaaaaaaaaaaaaaaaaaaaaaaaaaaaaaaaaaaaaaaaaaaaaaaaaaaaaaaaaaaaaaaaaaaaaaaaaaaaaaaaaaaaaaaaaaaaaaaaaf                        ",
"                      aCaaaaaaaaaaaaaaaaaaaaaaaaaaaaaaaaaaaaaaaaaaaaaaaaaaaaaaaaaaaaaaaaaaaaaaaaaaaaaaaaaaaaaaaaaaaaaaaaaaaaaaaaaaaaaaaaaaaaaaaaaaaaaaahaaakaLaZa9a2a2a3a3a5a5a6a7a7a7a8a8a+a+a-a-a/a*a>a<a#a#a#a%a&a&a]a]a]a|a~a~a}a~bra4auaaahaaaaaaaaaaaaaaaaaaaaaaaaaaaaaaaaaaaaaaaaaaaaaaaaaaaaaaaaaaaaaaaaaaaaaaaaaaaaaaaaaaaaaaaaaaaaaaaaaaaaaaaaaaaaaaaaaaaaaaaaaaaaaaaaaaaaaaaaaaaaaaaaaaaaaaaaaaaaaaaaaaaaaaaaaaaaaaaaaaaaaaaaaaaaaaaaaaaaaaaaaaaaaaaaaaaaaaaaaaaaaaaaaaaaaaaaaaaaaaaaaaaaaaaaaC                      ",
"                      azaaaaaaaaaaaaaaaaaaaaaaaaaaaaaaaaaaaaaaaaaaaaaaaaaaaaaaaaaaaaaaaaaaaaaaaaaaaaaaaaaaaaaaaaaaaaaaaaaaaaaaaaaaaaaaaaaaaaaaaaaaaaacaaauaPa9a2a2a2a3a3a5a5a6a7a7a7a8a8a+a+a-a-a/a*a>a<a#a#a#a%a&a&a]a]a|a|a;a~a~a?bba~boa,aIaaahaaaaaaaaaaaaaaaaaaaaaaaaaaaaaaaaaaaaaaaaaaaaaaaaaaaaaaaaaaaaaaaaaaaaaaaaaaaaaaaaaaaaaaaaaaaaaaaaaaaaaaaaaaaaaaaaaaaaaaaaaaaaaaaaaaaaaaaaaaaaaaaaaaaaaaaaaaaaaaaaaaaaaaaaaaaaaaaaaaaaaaaaaaaaaaaaaaaaaaaaaaaaaaaaaaaaaaaaaaaaaaaaaaaaaaaaaaaaaaaaaaaaaaaz                      ",
"                      azaaaaaaaaaaaaaaaaaaaaaaaaaaaaaaaaaaaaaaaaaaaaaaaaaaaaaaaaaaaaaaaaaaaaaaaaaaaaaaaaaaaaaaaaaaaaaaaaaaaaaaaaaaaaaaaaaaaaaaaaacaaaaaKa0a5a2a2a2a3a3a5a5a6a7a7a9a8a8a+a+a-a*a/a*a>a<a#a#a%a%a&a&a]a]a|a|a;a~a~a?bbbbbebbbobaaHaaaeaaaaaaaaaaaaaaaaaaaaaaaaaaaaaaaaaaaaaaaaaaaaaaaaaaaaaaaaaaaaaaaaaaaaaaaaaaaaaaaaaaaaaaaaaaaaaaaaaaaaaaaaaaaaaaaaaaaaaaaaaaaaaaaaaaaaaaaaaaaaaaaaaaaaaaaaaaaaaaaaaaaaaaaaaaaaaaaaaaaaaaaaaaaaaaaaaaaaaaaaaaaaaaaaaaaaaaaaaaaaaaaaaaaaaaaaaaaaaaaaaaaaaz                      ",
"                      asaaafaaaaaaaaaaaaaaaaaaaaaaaaaaaaaaaaaaaaaaaaaaaaaaaaaaaaaaaaaaaaaaaaaaaaaaaaaaaaaaaaaaaaaaaaaaaaaaaaaaaaaaaaaaaaaaaaaaacaaamaLa9a2a2a2a2a3a3a5a5a6a7a7a9a8a8a+a+a-a*a/a*a>a<a#a#a%a%a&a&a]a]a|a|a;a~a~a?bbbbbebfbhbcbta+aracacaaaaaaaaaaaaaaaaaaaaaaaaaaaaaaaaaaaaaaaaaaaaaaaaaaaaaaaaaaaaaaaaaaaaaaaaaaaaaaaaaaaaaaaaaaaaaaaaaaaaaaaaaaaaaaaaaaaaaaaaaaaaaaaaaaaaaaaaaaaaaaaaaaaaaaaaaaaaaaaaaaaaaaaaaaaaaaaaaaaaaaaaaaaaaaaaaaaaaaaaaaaaaaaaaaaaaaaaaaaaaaaaaaaaaaaaaaaaaaafaaas                      ",
"                      aaaaaaaaaaaaaaaaaaaaaaaaaaaaaaaaaaaaaaaaaaaaaaaaaaaaaaaaaaaaaaaaaaaaaaaaaaaaaaaaaaaaaaaaaaaaaaaaaaaaaaaaaaaaaaaaaaaaaaahaaaraPa9a2a2a2a2a3a3a5a5a6a7a7a9a8a8a+a+a-a*a/a/a>a<a#a#a%a&a&a&a]a]a|a|a~a~a~a?bbbbbebfbfbhbibcbAaMaaahaaaaaaaaaaaaaaaaaaaaaaaaaaaaaaaaaaaaaaaaaaaaaaaaaaaaaaaaaaaaaaaaaaaaaaaaaaaaaaaaaaaaaaaaaaaaaaaaaaaaaaaaaaaaaaaaaaaaaaaaaaaaaaaaaaaaaaaaaaaaaaaaaaaaaaaaaaaaaaaaaaaaaaaaaaaaaaaaaaaaaaaaaaaaaaaaaaaaaaaaaaaaaaaaaaaaaaaaaaaaaaaaaaaaaaaaaaaaaaaaaaaa                      ",
"                    aCaaaaaaaaaaaaaaaaaaaaaaaaaaaaaaaaaaaaaaaaaaaaaaaaaaaaaaaaaaaaaaaaaaaaaaaaaaaaaaaaaaaaaaaaaaaaaaaaaaaaaaaaaaaaaaaaaaaaahaaauaRa5aZa2a2a2a3a3a5a5a6a7a7a9a8a8a+a+a-a*a*a/a>a<a#a#a%a&a&a&a]a]a|a|a~a~a~a?bbbbbfbfbfbhbhblblbsa@araaaaaaaaaaaaaaaaaaaaaaaaaaaaaaaaaaaaaaaaaaaaaaaaaaaaaaaaaaaaaaaaaaaaaaaaaaaaaaaaaaaaaaaaaaaaaaaaaaaaaaaaaaaaaaaaaaaaaaaaaaaaaaaaaaaaaaaaaaaaaaaaaaaaaaaaaaaaaaaaaaaaaaaaaaaaaaaaaaaaaaaaaaaaaaaaaaaaaaaaaaaaaaaaaaaaaaaaaaaaaaaaaaaaaaaaaaaaaaaaaaaaaaaC                    ",
"                    aAaaaaaaaaaaaaaaaaaaaaaaaaaaaaaaaaaaaaaaaaaaaaaaaaaaaaaaaaaaaaaaaaaaaaaaaaaaaaaaaaaaaaaaaaaaaaaaaaaaaaaaaaaaaaaaaaaaahaaaHaXa5aZa2a2a2a3a3a5a5a6a7a7a8a8a8a+a+a-a*a*a/a>a<a#a#a%a&a&a&a]a]a|a|a~a~a~a?bbbbbfbfbhbhbhblbmbmbmbvaIaaahaaaaaaaaaaaaaaaaaaaaaaaaaaaaaaaaaaaaaaaaaaaaaaaaaaaaaaaaaaaaaaaaaaaaaaaaaaaaaaaaaaaaaaaaaaaaaaaaaaaaaaaaaaaaaaaaaaaaaaaaaaaaaaaaaaaaaaaaaaaaaaaaaaaaaaaaaaaaaaaaaaaaaaaaaaaaaaaaaaaaaaaaaaaaaaaaaaaaaaaaaaaaaaaaaaaaaaaaaaaaaaaaaaaaaaaaaaaaaaaaaaaA                    ",
"                    azaaaaaaaaaaaaaaaaaaaaaaaaaaaaaaaaaaaaaaaaaaaaaaaaaaaaaaaaaaaaaaaaaaaaaaaaaaaaaaaaaaaaaaaaaaaaaaaaaaaaaaaaaaaaaaaaahaaaHaZa3aZa2a2a3a3a3a5a5a6a7a7a8a8a8a+a+a-a*a*a/a>a<a#a#a%a&a&a(a]a]a|a|a~a~a~a?bbbbbfbfbhbhbhblbmbmbqblbAaKaaahaaaaaaaaaaaaaaaaaaaaaaaaaaaaaaaaaaaaaaaaaaaaaaaaaaaaaaaaaaaaaaaaaaaaaaaaaaaaaaaaaaaaaaaaaaaaaaaaaaaaaaaaaaaaaaaaaaaaaaaaaaaaaaaaaaaaaaaaaaaaaaaaaaaaaaaaaaaaaaaaaaaaaaaaaaaaaaaaaaaaaaaaaaaaaaaaaaaaaaaaaaaaaaaaaaaaaaaaaaaaaaaaaaaaaaaaaaaaaaaaaaaz                    ",
"                    awaaaaaaaaaaaaaaaaaaaaaaaaaaaaaaaaaaaaaaaaaaaaaaaaaaaaaaaaaaaaaaaaaaaaaaaaaaaaaaaaaaaaaaaaaaaaaaaaaaaaaaaaaaaaaaahaaauaXa2a0a2a2a3a3a3a5a5a6a7a7a8a8a8a+a+a-a*a*a/a>a<a#a#a%a&a&a(a]a]a|a|a~a~a?a?bbbbbfbfbhbhbhblbmbmbqbqbpbAaKaaahaaaaaaaaaaaaaaaaaaaaaaaaaaaaaaaaaaaaaaaaaaaaaaaaaaaaaaagagaaaaaaaaaaaaaaaaaaaaaaaaaaaaaaaaaaaaaaaaaaaaaaaaaaaaaaaaaaaaaaaaaaaaaaaaaaaaaaaaaaaaaaaaaaaaaaaaaaaaaaaaaaaaaaaaaaaaaaaaaaaaaaaaaaaaaaaaaaaaaaaaaaaaaaaaaaaaaaaaaaaaaaaaaaaaaaaaaaaaaaaaaw                    ",
"                    avaaafaaaaaaaaaaaaaaaaaaaaaaaaaaaaaaaaaaaaaaaaaaaaaaaaaaaaaaaaaaaaaaaaaaaaaaaaaaaaaaaaaaaaaaaaaaaaaaaaaaaaaaaaacaaauaXa3a0a2a2a3a3a5a5a5a6a7a7a8a8a8a+a+a-a*a*a<a>a<a#a#a%a&a&a(a]a]a|a|a~a~a?bbbbbbbfbfbhbhbhblbmbmbqbqbsbsbvaHaaahaaaaaaaaaaaaaaaaaaaaaaaaaaaaaaaaaaaaaaaaaaaaaaaaaaaaaaajajaaaaaaaaaaaaaaaaaaaaaaaaaaaaaaaaaaaaaaaaaaaaaaaaaaaaaaaaaaaaaaaaaaaaaaaaaaaaaaaaaaaaaaaaaaaaaaaaaaaaaaaaaaaaaaaaaaaaaaaaaaaaaaaaaaaaaaaaaaaaaaaaaaaaaaaaaaaaaaaaaaaaaaaaaaaaaaaaaaaaafaaav                    ",
"                    afaaaaaaaaaaaaaaaaaaaaaaaaaaaaaaaaaaaaaaaaaaaaaaaaaaaaaaaaaaaaaaaaaaaaaaaaaaaaaaaaaaaaaaaaaaaaaaaaaaaaaaaaaaacaaataRa5aZa2a2a3a3a5a5a5a6a7a7a8a8a8a+a+a-a*a*a<a>a<a#a#a%a&a&a(a]a]a|a|a~a~a?bbbbbbbfbfbhbhblblbmbmbqbqbsbqbwa!amaaaaaaaaaaaaaaaaaaaaaaaaaaaaaaaaaaaaaaaaaaaaaaaaaaaaaaabaaaxaxaaabaaaaaaaaaaaaaaaaaaaaaaaaaaaaaaaaaaaaaaaaaaaaaaaaaaaaaaaaaaaaaaaaaaaaaaaaaaaaaaaaaaaaaaaaaaaaaaaaaaaaaaaaaaaaaaaaaaaaaaaaaaaaaaaaaaaaaaaaaaaaaaaaaaaaaaaaaaaaaaaaaaaaaaaaaaaaaaaaaaaaaf                    ",
"                    aaaaaaaaaaaaaaaaaaaaaaaaaaaaaaaaaaaaaaaaaaaaaaaaaaaaaaaaaaaaaaaaaaaaaaaaaaaaaaaaaaaaaaaaaaaaaaaaaaaaaaaaaaacacamaRa5aZa2a2a3a3a5a5a5a6a7a7a8a8a+a+a+a-a*a*a<a>a<a#a#a%a&a&a]a]a]a|a|a~a~a?bbbbbbbfbfbhbhblblbmbmbqbqbsbsbpbGaMaaahaaaaaaaaaaaaaaaaaaaaaaaaaaaaaaaaaaaaaaaaaaaaaaaaaaaaafaaaxaxaaafaaaaaaaaaaaaaaaaaaaaaaaaaaaaaaaaaaaaaaaaaaaaaaaaaaaaaaaaaaaaaaaaaaaaaaaaaaaaaaaaaaaaaaaaaaaaaaaaaaaaaaaaaaaaaaaaaaaaaaaaaaaaaaaaaaaaaaaaaaaaaaaaaaaaaaaaaaaaaaaaaaaaaaaaaaaaaaaaaaaaaa                    ",
"                  aAaaaaaaaaaaaaaaaaaaaaaaaaaaaaaaaaaaaaaaaaaaaaaaaaaaaaaaaaaaaaaaaaaaaaaaaaaaaaaaaaaaaaaaaaaaaaaaaaaaaaaaaaaaaeaaaOa9aZa2a2a3a3a5a5a5a6a7a7a8a8a+a+a+a-a*a*a<a>a<a#a#a%a&a&a]a]a]a|a;a~a~a?bbbbbbbfbfbhbhblbmbmbmbqbqbsbsbpbEa4ahaeaaaaaaaaaaaaaaaaaaaaaaaaaaaaaaaaaaaaaaaaaaaaaaaaaaaaaaagaaaEaEaaagaaaaaaaaaaaaaaaaaaaaaaaaaaaaaaaaaaaaaaaaaaaaaaaaaaaaaaaaaaaaaaaaaaaaaaaaaaaaaaaaaaaaaaaaaaaaaaaaaaaaaaaaaaaaaaaaaaaaaaaaaaaaaaaaaaaaaaaaaaaaaaaaaaaaaaaaaaaaaaaaaaaaaaaaaaaaaaaaaaaaaaaA                  ",
"                  azaaaaaaaaaaaaaaaaaaaaaaaaaaaaaaaaaaaaaaaaaaaaaaaaaaaaaaaaaaaaaaaaaaaaaaaaaaaaaaaaaaaaaaaaaaaaaaaaaaaaaaaaahaaaKa9aZa2a2a3a3a5a5a6a6a7a7a8a8a+a+a+a-a/a*a<a<a@a#a#a%a&a&a]a]a]a|a;a~a~a?bbbbbbbfbfbhbhblbmbmbmbqbqbsbsbpbya)ataaaeaaaaaaaaaaaaaaaaaaaaaaaaaaaaaaaaaaaaaaaaaaaaaaaaaaaaaaabaaaEaEaaabaaaaaaaaaaaaaaaaaaaaaaaaaaaaaaaaaaaaaaaaaaaaaaaaaaaaaaaaaaaaaaaaaaaaaaaaaaaaaaaaaaaaaaaaaaaaaaaaaaaaaaaaaaaaaaaaaaaaaaaaaaaaaaaaaaaaaaaaaaaaaaaaaaaaaaaaaaaaaaaaaaaaaaaaaaaaaaaaaaaaaaaz                  ",
"                  aAaaaaaaaaaaaaaaaaaaaaaaaaaaaaaaaaaaaaaaaaaaaaaaaaaaaaaaaaaaaaaaaaaaaaaaaaaaaaaaaaaaaaaaaaaaaaaaaaaaaaaaacaaaua1a2a2a2a3a3a5a5a6a6a7a7a8a8a+a+a+a-a/a*a<a<a@a#a#a%a&a&a]a]a]a|a;a~a~a?bbbbbbbfbfbhbhblbmbmbmbqbqbsbsbpbybcaHaaaeaaaaaaaaaaaaaaaaaaaaaaaaaaaaaaaaaaaaaaaaaaaaaaaaaaaaaaaaaaajaFaFajaaaaaaaaaaaaaaaaaaaaaaaaaaaaaaaaaaaaaaaaaaaaaaaaaaaaaaaaaaaaaaaaaaaaaaaaaaaaaaaaaaaaaaaaaaaaaaaaaaaaaaaaaaaaaaaaaaaaaaaaaaaaaaaaaaaaaaaaaaaaaaaaaaaaaaaaaaaaaaaaaaaaaaaaaaaaaaaaaaaaaaaaaA                  ",
"                  awaaaaaaaaaaaaaaaaaaaaaaaaaaaaaaaaaaaaaaaaaaaaaaaaaaaaaaaaaaaaaaaaaaaaaaaaaaaaaaaaaaaaaaaaaaaaaaaaaaaaacacapaRa5a2a2a3a3a5a5a6a7a7a7a8a8a+a+a+a-a/a*a>a<a@a#a#a%a&a&a]a]a|a|a;a~a~a?bbbbbebfbfbhbhblbmbmbpbqbqbsbsbpbDa$auaaahaaaaaaaaaaaaaaaaaaaaaaaaaaaaaaaaaaaaaaaaaaaaaaaaaaaaaaaaagaaaxaGaGaxaaagaaaaaaaaaaaaaaaaaaaaaaaaaaaaaaaaaaaaaaaaaaaaaaaaaaaaaaaaaaaaaaaaaaaaaaaaaaaaaaaaaaaaaaaaaaaaaaaaaaaaaaaaaaaaaaaaaaaaaaaaaaaaaaaaaaaaaaaaaaaaaaaaaaaaaaaaaaaaaaaaaaaaaaaaaaaaaaaaaaaaaw                  ",
"                  awaaaaaaaaaaaaaaaaaaaaaaaaaaaaaaaaaaaaaaaaaaaaaaaaaaaaaaaaaaaaaaaaaaaaaaaaaaaaaaaaaaaaaaaaaaaaaaaaaaaaahaaaLa9a2a2a3a3a5a5a6a7a7a7a8a8a+a+a-a-a/a*a>a<a#a#a#a%a&a&a]a]a|a|a;a~a~a?bbbbbebfbfbhbhblbmbmbpbqbqbsbqbsbGa4ataaahaaaaaaaaaaaaaaaaaaaaaaaaaaaaaaaaaaaaaaaaaaaaaaaaaaaaaaaaaaafagaEaGaGaEagafaaaaaaaaaaaaaaaaaaaaaaaaaaaaaaaaaaaaaaaaaaaaaaaaaaaaaaaaaaaaaaaaaaaaaaaaaaaaaaaaaaaaaaaaaaaaaaaaaaaaaaaaaaaaaaaaaaaaaaaaaaaaaaaaaaaaaaaaaaaaaaaaaaaaaaaaaaaaaaaaaaaaaaaaaaaaaaaaaaaaaw                  ",
"                  avaaaaaaaaaaaaaaaaaaaaaaaaaaaaaaaaaaaaaaaaaaaaaaaaaaaaaaaaaaaaaaaaaaaaaaaaaaaaaaaaaaaaaaaaaaaaaaaaaaaeaaaHa5a2a2a3a3a5a5a6a7a7a7a8a8a+a+a-a-a/a*a>a<a#a#a#a%a&a&a]a]a|a|a;a~a~a?bbbbbebfbfbhbhblbmbmbpbqbqbsbpbvbAaPakaaahaaaaaaaaaaaaaaaaaaaaaaaaaaaaaaaaaaaaaaaaaaaaaaaaaaaaaaaaaaagaaaxaGaFaFaGaxaaagaaaaaaaaaaaaaaaaaaaaaaaaaaaaaaaaaaaaaaaaaaaaaaaaaaaaaaaaaaaaaaaaaaaaaaaaaaaaaaaaaaaaaaaaaaaaaaaaaaaaaaaaaaaaaaaaaaaaaaaaaaaaaaaaaaaaaaaaaaaaaaaaaaaaaaaaaaaaaaaaaaaaaaaaaaaaaaaaaaav                  ",
"                  avaaaaaaaaaaaaaaaaaaaaaaaaaaaaaaaaaaaaaaaaaaaaaaaaaaaaaaaaaaaaaaaaaaaaaaaaaaaaaaaaaaaaaaaaaaaaaaaaaaaeakaRa6a2a3a3a5a5a6a7a7a9a8a8a+a+a-a*a/a/a>a<a#a#a%a%a&a&a]a]a|a|a~a~a~a?bbbbbebfbfbhbhblbmbmbqbqbqbsbpbzbcaKaaaaaeaaaaaaaaaaaaaaaaaaaaaaaaaaaaaaaaaaaaaaaaaaaaaaaaaaaaaaaaaaagaaaxaFaFaFaFaFaFaxaaagaaaaaaaaaaaaaaaaaaaaaaaaaaaaaaaaaaaaaaaaaaaaaaaaaaaaaaaaaaaaaaaaaaaaaaaaaaaaaaaaaaaaaaaaaaaaaaaaaaaaaaaaaaaaaaaaaaaaaaaaaaaaaaaaaaaaaaaaaaaaaaaaaaaaaaaaaaaaaaaaaaaaaaaaaaaaaaaaav                  ",
"                  avaaaaaaaaaaaaaaaaaaaaaaaaaaaaaaaaaaaaaaaaaaaaaaaaaaaaaaaaaaaaaaaaaaaaaaaaaaaaaaaaaaaaaaaaaaaaaaaaaeaaaKa9a2a3a3a5a5a6a7a7a9a8a8a+a+a-a*a/a/a>a<a#a#a%a%a&a&a]a]a|a|a~a~a~a?bbbbbebfbfbhbhblbmbmbqbqbsbpbtbDa4ataaahaaaaaaaaaaaaaaaaaaaaaaaaaaaaaaaaaaaaaaaaaaaaaaaaaaaaaaaaaaagafaaaxaFaGaFaFaFaFaGaFaxaaafagaaaaaaaaaaaaaaaaaaaaaaaaaaaaaaaaaaaaaaaaaaaaaaaaaaaaaaaaaaaaaaaaaaaaaaaaaaaaaaaaaaaaaaaaaaaaaaaaaaaaaaaaaaaaaaaaaaaaaaaaaaaaaaaaaaaaaaaaaaaaaaaaaaaaaaaaaaaaaaaaaaaaaaaaaaaaav                  ",
"                  alaaaaaaaaaaaaaaaaaaaaaaaaaaaaaaaaaaaaaaaaaaaaaaaaaaaaaaaaaaaaaaaaaaaaaaaaaaaaaaaaaaaaaaaaaaaaaaacaaaraWa5a3a3a5a5a6a7a7a9a8a8a+a+a-a*a*a/a>a<a#a#a%a&a&a&a]a]a|a|a~a~a~a?bbbbbfbfbfbhbhblbmbmbpbqbqbpbzbhaMaaaaahaaaaaaaaaaaaaaaaaaaaaaaaaaaaaaaaaaaaaaaaaaaaaaaaaaababagagaaaaaaaxaFaGaFaFaFaFaFaFaGaFaxaaaaaaagagababaaaaaaaaaaaaaaaaaaaaaaaaaaaaaaaaaaaaaaaaaaaaaaaaaaaaaaaaaaaaaaaaaaaaaaaaaaaaaaaaaaaaaaaaaaaaaaaaaaaaaaaaaaaaaaaaaaaaaaaaaaaaaaaaaaaaaaaaaaaaaaaaaaaaaaaaaaaaaaaaaaal                  ",
"                  aaaaaaaaaaaaaaaaaaaaaaaaaaaaaaaaaaaaaaaaaaaaaaaaaaaaaaaaaaaaaaaaaaaaaaaaaaaaaaaaaaaaaaaaaaaaaaaaaeaaaLa9a2a3a5a5a6a7a7a8a8a8a+a+a-a*a*a/a>a<a#a#a%a&a&a(a]a]a|a|a~a~a~a?bbbbbfbfbhbhbhblbmbmbqbqblbtbAa4auaaacacaaaaaaaaaaaaaaaaaaaaaaaaaaaaaaaaaaaaaaaaaaaaaaaaaaaaaaaaaaaaagaxaEaGaFaFaFaFaFaFaFaFaFaFaGaEaxagaaaaaaaaaaaaaaaaaaaaaaaaaaaaaaaaaaaaaaaaaaaaaaaaaaaaaaaaaaaaaaaaaaaaaaaaaaaaaaaaaaaaaaaaaaaaaaaaaaaaaaaaaaaaaaaaaaaaaaaaaaaaaaaaaaaaaaaaaaaaaaaaaaaaaaaaaaaaaaaaaaaaaaaaaaaa                  ",
"                  aaaaaaaaaaaaaaaaaaaaaaaaaaaaaaaaaaaaaaaaaaaaaaaaaaaaaaaaaaaaaaaaaaaaaaaaaaaaaaaaaaaaaaaaaaaaaaacaaataZa5a3a5a5a6a7a7a8a8a8a+a+a-a*a*a/a>a<a#a#a%a&a&a(a]a]a|a|a~a~a?a?bbbbbfbfbhbhbhblbmbmbqbpbpbzbeaMaaaaahaaaaaaaaaaaaaaaaaaaaaaaaaaaaaaaaaaaaaaaaaaaaaaaaaaabagajajaxaxaEaEaGaGaFaFaFaFaFaFaFaFaFaFaFaFaGaGaEaEaxaxajajagaaaaaaaaaaaaaaaaaaaaaaaaaaaaaaaaaaaaaaaaaaaaaaaaaaaaaaaaaaaaaaaaaaaaaaaaaaaaaaaaaaaaaaaaaaaaaaaaaaaaaaaaaaaaaaaaaaaaaaaaaaaaaaaaaaaaaaaaaaaaaaaaaaaaaaaaaaaaaaaa                  ",
"                  aaaaaaaaaaaaaaaaaaaaaaaaaaaaaaaaaaaaaaaaaaaaaaaaaaaaaaaaaaaaaaaaaaaaaaaaaaaaaaaaaaaaaaaaaaaaaaaeaaaLa9a3a5a5a6a7a7a8a8a8a+a+a-a*a*a<a>a<a#a#a%a&a&a(a]a]a|a|a~a~a?a?bbbbbfbfbhbhbhblbmbmbqblbtbAa4ataaacaeaaaaaaaaaaaaaaaaaaaaaaaaaaaaaaaaaaaaaaaaaaaaaaaaaaaaabagajaxaxaEaEaGaGaFaFaFaFaFaFaFaFaFaFaFaFaFaFaGaGaEaEaxaxajagabaaaaaaaaaaaaaaaaaaaaaaaaaaaaaaaaaaaaaaaaaaaaaaaaaaaaaaaaaaaaaaaaaaaaaaaaaaaaaaaaaaaaaaaaaaaaaaaaaaaaaaaaaaaaaaaaaaaaaaaaaaaaaaaaaaaaaaaaaaaaaaaaaaaaaaaaaaaaaa                  ",
"                  aaaaaaaaaaaaaaaaaaaaaaaaaaaaaaaaaaaaaaaaaaaaaaaaaaaaaaaaaaaaaaaaaaaaaaaaaaaaaaaaaaaaaaaaaaaaaaaaaraYa6a5a5a6a7a7a8a8a8a+a+a-a*a*a<a>a<a#a#a%a&a&a(a]a]a|a|a~a~a?bbbbbbbfbfbhbhbhblbmbmbpblbybeaLaaaaahaaaaaaaaaaaaaaaaaaaaaaaaaaaaaaaaaaaaaaaaaaaaaaaaaaaaaaaaaaaaaaaaaaaaaaasaEaFaGaFaFaFaFaFaFaFaFaFaFaGaFaEasaaaaaaaaaaaaaaaaaaaaaaaaaaaaaaaaaaaaaaaaaaaaaaaaaaaaaaaaaaaaaaaaaaaaaaaaaaaaaaaaaaaaaaaaaaaaaaaaaaaaaaaaaaaaaaaaaaaaaaaaaaaaaaaaaaaaaaaaaaaaaaaaaaaaaaaaaaaaaaaaaaaaaaaaaaaa                  ",
"                aDaaaaaaaaaaaaaaaaaaaaaaaaaaaaaaaaaaaaaaaaaaaaaaaaaaaaaaaaaaaaaaaaaaaaaaaaaaaaaaaaaaaaaaaaaaaaahaaaKa9a3a6a6a7a7a8a8a8a+a+a-a*a*a<a>a<a#a#a%a&a&a(a]a]a|a|a~a~a?bbbbbbbfbfbhbhblblbmbmblbqbAa4auaaacaeaaaaaaaaaaaaaaaaaaaaaaacacahahahahahahahahaeacaaaaaaaaaaaaaaaaababagafaaaaaaajaEaGaFaFaFaFaFaFaFaFaGaEajaaaaaaagafababaaaaaaaaaaaaaaaaaaaaaaaaaaaaaaaaaaaaaaaaaaaaaaaaaaaaaaaaaaaaaaaaaaaaaaaaaaaaaaaaaaaaaaaaaaaaaaaaaaaaaaaaaaaaaaaaaaaaaaaaaaaaaaaaaaaaaaaaaaaaaaaaaaaaaaaaaaaaaaaaaaaD                ",
"                azaaaaaaaaaaaaaaaaaaaaaaaaaaaaaaaaaaaaaaaaaaaaaaaaaaaaaaaaaaaaaaaaaaaaaaaaaaaaaaaaaaaaaaaaaaaaaaakaRa9a3a6a7a7a8a8a+a+a+a-a/a*a<a>a<a#a#a%a&a&a]a]a]a|a|a~a~a?bbbbbbbfbfbhbhblbmbmbmblbvbraMacaaahaaaaaaaaaaaaaaaaaaaeahahaeaaaaaaaaaaaaaaaaaaaaaaaaaaahahahacaaaaaaaaaaaaaaaaabagaaaaaxaGaFaFaFaFaFaFaGaxaaaaagabaaaaaaaaaaaaaaaaaaaaaaaaaaaaaaaaaaaaaaaaaaaaaaaaaaaaaaaaaaaaaaaaaaaaaaaaaaaaaaaaaaaaaaaaaaaaaaaaaaaaaaaaaaaaaaaaaaaaaaaaaaaaaaaaaaaaaaaaaaaaaaaaaaaaaaaaaaaaaaaaaaaaaaaaaaaaaz                ",
"                azaaaaaaaaaaaaaaaaaaaaaaaaaaaaaaaaaaaaaaaaaaaaaaaaaaaaaaaaaaaaaaaaaaaaaaaaaaaaaaaaaaaaaaaaaaaeaaaHa9a5a6a7a7a8a8a+a+a+a-a/a*a<a>a<a#a#a%a&a&a]a]a]a|a;a~a~a?bbbbbbbfbfbhbhblbmbmbmbibya$aIaaacaeaaaaaaaaaaaaaaahahaaaaaaaaaaapataIaKaKaMaMaLaKaKaHatahaaaaaaaaaeahacaaaaaaaaaaaaaaabagaaaxaGaFaFaFaFaGaxaaagabaaaaaaaaaaaaaaaaaaaaaaaaaaaaaaaaaaaaaaaaaaaaaaaaaaaaaaaaaaaaaaaaaaaaaaaaaaaaaaaaaaaaaaaaaaaaaaaaaaaaaaaaaaaaaaaaaaaaaaaaaaaaaaaaaaaaaaaaaaaaaaaaaaaaaaaaaaaaaaaaaaaaaaaaaaaaaaaaaz                ",
"                azaaaaaaaaaaaaaaaaaaaaaaaaaaaaaaaaaaaaaaaaaaaaaaaaaaaaaaaaaaaaaaaaaaaaaaaaaaaaaaaaaaaaaaaaaaaeaaaLa/a6a7a7a8a8a+a+a+a-a/a*a<a>a<a#a#a%a&a&a]a]a]a|a;a~a~a?bbbbbbbfbfbhbhblbmbmbmblbAa4ataaahaaaaaaaaaaaaaeahaaaaaaacauaKaPa4bcbwbKbNbNbPbPbNbNbNbGbta$a4aMaIaraaaaaaahahaaaaaaaaaaaaaaagaaaEaGaFaFaGaEaaagaaaaaaaaaaaaaaaaaaaaaaaaaaaaaaaaaaaaaaaaaaaaaaaaaaaaaaaaaaaaaaaaaaaaaaaaaaaaaaaaaaaaaaaaaaaaaaaaaaaaaaaaaaaaaaaaaaaaaaaaaaaaaaaaaaaaaaaaaaaaaaaaaaaaaaaaaaaaaaaaaaaaaaaaaaaaaaaaaaaaaz                ",
"                aAaaaaaaaaaaaaaaaaaaaaaaaaaaaaaaaaaaaaaaaaaaaaaaaaaaaaaaaaaaaaaaaaaaaaaaaaaaaaaaaaaaaaaaaaaaaaamaUa9a6a7a8a8a+a+a+a-a/a*a<a<a@a#a#a%a&a&a]a]a]a|a;a~a~a?bbbbbbbfbfbhbhblbmbmblbpbAaPacaaahaaaaaaaaaaahaeaaaaamaIaPa$bzbPbSbNbLbKbFbBbBbBbBbBbBbEbHbKbMbPbSbLbpa4aMataaaaaaahaaaaaaaaaaababajaFaGaGaFajababaaaaaaaaaaacacaaaaaaaaaaaaaaaaaaaaaaaaaaaaaaaaaaaaaaaaaaaaaaaaaaaaaaaaaaaaaaaaaaaaaaaaaaaaaaaaaaaaaaaaaaaaaaaaaaaaaaaaaaaaaaaaaaaaaaaaaaaaaaaaaaaaaaaaaaaaaaaaaaaaaaaaaaaaaaaaaaaaaaaA                ",
"                azaaaaaaaaaaaaaaaaaaaaaaaaaaaaaaaaaaaaaaaaaaaaaaaaaaaaaaaaaaaaaaaaaaaaaaaaaaaaaaaaaaaaaaaaaeaaaHa9a6a7a8a8a+a+a-a-a/a*a>a<a#a#a#a%a&a&a]a]a]a|a;a~a~a?bbbbbebfbfbhbhblbmbmblbsbvaMaaacaeaaaaaaaaahaaaaaaaHaPa,bLbSbNbKbBbBbBbEbFbHbHbHbHbHbHbHbHbHbFbEbBbBbFbLbPbPbvaQaKacaaaaahaaaaaaaaagaaaEaGaGaxaaagaaaaaaaaaaaaaaaaaaahacaaaaaaaaaaaaaaaaaaaaaaaaaaaaaaaaaaaaaaaaaaaaaaaaaaaaaaaaaaaaaaaaaaaaaaaaaaaaaaaaaaaaaaaaaaaaaaaaaaaaaaaaaaaaaaaaaaaaaaaaaaaaaaaaaaaaaaaaaaaaaaaaaaaaaaaaaaaaaaaaaz                ",
"                awaaaaaaaaaaaaaaaaaaaaaaaaaaaaaaaaaaaaaaaaaaaaaaaaaaaaaaaaaaaaaaaaaaaaaaaaaaaaaaaaaaaaaaaaahaaaLa>a6a8a8a+a+a-a-a/a*a>a<a#a#a#a%a&a&a]a]a|a|a;a~a~a?bbbbbebfbfbhbhblbmbmblbsbraKaaahaaaaaaaaaeaeaaaaaKa4bGbSbMbFbBbEbHbHbHbHbHbHbHbHbHbHbHbHbHbHbHbHbHbHbHbHbFbBbBbKbSbNa$aMamaaaaahaaaaabaaajaFaFajaaabaaaaaaaaaaadataraaaaaaacacaaaaaaaaaaaaaaaaaaaaaaaaaaaaaaaaaaaaaaaaaaaaaaaaaaaaaaaaaaaaaaaaaaaaaaaaaaaaaaaaaaaaaaaaaaaaaaaaaaaaaaaaaaaaaaaaaaaaaaaaaaaaaaaaaaaaaaaaaaaaaaaaaaaaaaaaaaaaaw                ",
"                awaaaaaaaaaaaaaaaaaaaaaaaaaaaaaaaaaaaaaaaaaaaaaaaaaaaaaaaaaaaaaaaaaaaaaaaaaaaaaaaaaaaaaaaaaaaaaPa/a6a8a+a+a-a*a/a*a>a<a#a#a%a%a&a&a]a]a|a|a;a~a~a?bbbbbebfbfbhbhblbmbmbmbqbraKaaahaaaaaaaaahaaaaaKa!bNbPbHbBbEbHbHbHbHbHbHbHbHbHbHbHbHbHbHbHbHbHbHbHbHbHbHbHbHbHbHbFbBbFbNbPa,aMakaaahacaaabaaaEaEaaabaaaaaaaaacaaaLaXaRaOaLataaaaacacaaaaaaaaaaaaaaaaaaaaaaaaaaaaaaaaaaaaaaaaaaaaaaaaaaaaaaaaaaaaaaaaaaaaaaaaaaaaaaaaaaaaaaaaaaaaaaaaaaaaaaaaaaaaaaaaaaaaaaaaaaaaaaaaaaaaaaaaaaaaaaaaaaaaaaaaaw                ",
"                awaaaaaaaaaaaaaaaaaaaaaaaaaaaaaaaaaaaaaaaaaaaaaaaaaaaaaaaaaaaaaaaaaaaaaaaaaaaaaaaaaaaaaaacaaaraZa+a8a+a+a-a*a/a/a>a<a#a#a%a%a&a&a]a]a|a|a~a~a~a?bbbbbebfbfbhbhblbmbmbmbpbvaKaaakaaaaaaacaeaaaua4bNbNbEbBbHbHbHbHbHbHbHbHbHbHbHbHbHbHbHbHbHbHbHbHbHbHbHbHbHbHbHbHbHbHbHbHbEbBbMbPa$aKaaaaahagaaaEaEaaagaaaaaaaaahaaaLa1aVaZa1aTaOauaaaaacaaaaaaaaaaaaaaaaaaaaaaaaaaaaaaaaaaaaaaaaaaaaaaaaaaaaaaaaaaaaaaaaaaaaaaaaaaaaaaaaaaaaaaaaaaaaaaaaaaaaaaaaaaaaaaaaaaaaaaaaaaaaaaaaaaaaaaaaaaaaaaaaaaaaaaaw                ",
"                avaaaaaaaaaaaaaaaaaaaaaaaaaaaaaaaaaaaaaaaaaaaaaaaaaaaaaaaaaaaaaaaaaaaaaaaaaaaaaaaaaaaaaaaeaaaHa9a8a+a+a-a*a*a/a>a<a#a#a%a&a&a&a]a]a|a|a~a~a~a?bbbbbebfbfbhbhblbmbmbqblbAaMaaahaaaaaaahaaaaaMbAbPbEbBbHbHbHbHbHbHbHbHbHbHbHbHbHbHbHbHbHbHbHbHbHbHbHbEbBbBbBbBbBbBbBbEbHbHbHbHbEbBbObNaQataaalacaxaxaaafaaaaaaaaacaaaraRaWaUaSaWa0aXaOauaaaaacaaaaaaaaaaaaaaaaaaaaaaaaaaaaaaaaaaaaaaaaaaaaaaaaaaaaaaaaaaaaaaaaaaaaaaaaaaaaaaaaaaaaaaaaaaaaaaaaaaaaaaaaaaaaaaaaaaaaaaaaaaaaaaaaaaaaaaaaaaaaaaaaaaav                ",
"                avaaaaaaaaaaaaaaaaaaaaaaaaaaaaaaaaaaaaaaaaaaaaaaaaaaaaaaaaaaaaaaaaaaaaaaaaaaaaaaaaaaaaaaahaaaKa>a8a+a-a*a*a/a>a<a#a#a%a&a&a&a]a]a|a|a~a~a~a?bbbbbfbfbhbhbhblbmbmbqblbAaQaaahaaaaaaahaaara4bSbKbBbHbHbHbHbHbHbHbHbHbHbHbHbHbHbHbHbHbHbHbHbHbHbBbBbHbMbPbSbSbPbSbTbPbMbHbBbEbHbHbHbBbFbSbtaMaaaaaxaxaaabaaaaaaaaaaacaaaKa1aUaWaWaTaVa0aTaLamaaacaaaaaaaaaaaaaaaaaaaaaaaaaaaaaaaaaaaaaaaaaaaaaaaaaaaaaaaaaaaaaaaaaaaaaaaaaaaaaaaaaaaaaaaaaaaaaaaaaaaaaaaaaaaaaaaaaaaaaaaaaaaaaaaaaaaaaaaaaaaaaaaaav                ",
"                asaaaaaaaaaaaaaaaaaaaaaaaaaaaaaaaaaaaaaaaaaaaaaaaaaaaaaaaaaaaaaaaaaaaaaaaaaaaaaaaaaaaaaaahaaaLa[a8a-a*a*a/a>a<a#a#a%a&a&a&a]a]a|a|a~a~a~a?bbbbbfbfbhbhbhblbmbmbqbnbva)aracacaaaaahaaaua,bSbBbFbHbHbHbHbHbHbHbHbHbHbHbHbHbHbHbHbHbHbHbHbHbBbHbNbSbDa)a4aPaMaMaMaPaQa$bDbSbNbEbBbHbHbHbBbLbPaQarajasaaabaaaaaaaaaaaaacacaOa0aSaWaWaWaSaWa1aRaIaaaaacaaaaaaaaaaaaaaaaaaaaaaaaaaaaaaaaaaaaaaaaaaaaaaaaaaaaaaaaaaaaaaaaaaaaaaaaaaaaaaaaaaaaaaaaaaaaaaaaaaaaaaaaaaaaaaaaaaaaaaaaaaaaaaaaaaaaaaaaaaaaas                ",
"                asaaaaaaaaaaaaaaaaaaaaaaaaaaaaaaaaaaaaaaaaaaaaaaaaaaaaaaaaaaaaaaaaaaaaaaaaaaaaaaaaaaaaaaaeaaaOa[a+a*a*a/a>a<a#a#a%a&a&a(a]a]a|a|a~a~a~a?bbbbbfbfbhbhbhblbmbmbqbqbpbAaKaaahaaaaahaaaHbsbNbzbHbHbHbHbHbHbHbHbHbHbHbHbHbHbHbHbHbHbHbHbHbBbHbSbKa!aMaHakaaaaaaaaaaaaaaahaHaMa$bNbObBbEbHbHbEbBbSa)aHagahaaaaaaaaaaaaaaacaaataRaXaVaWaWaWaWaSaZaZaLamaaahaaaaaaaaaaaaaaaaaaaaaaaaaaaaaaaaaaaaaaaaaaaaaaaaaaaaaaaaaaaaaaaaaaaaaaaaaaaaaaaaaaaaaaaaaaaaaaaaaaaaaaaaaaaaaaaaaaaaaaaaaaaaaaaaaaaaaaaaaaas                ",
"                asaaaaaaaaaaaaaaaaaaaaaaaaaaaaaaaaaaaaaaaaaaaaaaaaaaaaaaaaaaaaaaaaaaaaaaaaaaaaaaaaaaaaaaaaaaaPa[a-a*a<a>a<a#a#a%a&a&a(a]a]a|a|a~a~a?a?bbbbbfbfbhbhbhblbmbmbqbqbpbAa4aaaeaaaaaeaaatblbObBbHbHbHbHbHbHbHbHbHbHbHbHbHbHbHbHbHbHbHbHbHbBbPbGaQaIaaaaaaaaahahahahahahahaaaaaaahaKa!bPbLbBbHbHbHbBbObDaKaaahaaaaaaaaaaaaaaacaaaIa0aVaWaWaWaWaWaVaVa1aOataaahaaaaaaaaaaaaaaaaaaaaaaaaaaaaaaaaaaaaaaaaaaaaaaaaaaaaaaaaaaaaaaaaaaaaaaaaaaaaaaaaaaaaaaaaaaaaaaaaaaaaaaaaaaaaaaaaaaaaaaaaaaaaaaaaaaaaaaaaas                ",
"                aqaaaaaaaaaaaaaaaaaaaaaaaaaaaaaaaaaaaaaaaaaaaaaaaaaaaaaaaaaaaaaaaaaaaaaaaaaaaaaaaaaaaaaaaaacaRa[a-a<a>a<a#a#a%a&a&a(a]a]a|a|a~a~a?a?bbbbbfbfbhbhbhblbmbmbqbqbsbsbvaIaaahaaaaaeama!bPbzbHbHbHbHbHbHbHbHbHbHbHbHbHbHbHbHbHbHbHbHbEbHbPa4aHaaaaacahaeaaaaaaaaaaaaaaaaaaaeahaaaaaaaMbqbPbBbHbHbHbBbKbNaMaaahaaaaaaaaaaaaaaadaaaLa1aSaWaWaWaWaWaWaSa0aSaIaaacaaaaaaaaaaaaaaaaaaaaaaaaaaaaaaaaaaaaaaaaaaaaaaaaaaaaaaaaaaaaaaaaaaaaaaaaaaaaaaaaaaaaaaaaaaaaaaaaaaaaaaaaaaaaaaaaaaaaaaaaaaaaaaaaaaaaaaaq                ",
"                aoaaaaaaaaaaaaaaaaaaaaaaaaaaaaaaaaaaaaaaaaaaaaaaaaaaaaaaaaaaaaaaaaaaaaaaaaaaaaaaaaaaaaaaaaamaYa>a*a>a<a#a#a%a&a&a]a]a]a|a|a~a~a?bbbbbbbfbfbhbhblblbmbmbqbqbsbqbya4aeacaaaaahaaaPbUbzbHbHbHbHbHbHbHbHbHbHbHbHbHbHbHbHbHbHbHbHbEbKbKaMaaaaahaeaaaaaaaaaaaaaaaaaaaaaaaaaaaaaaahacaaata4bPbHbEbHbHbEbFbPaPaaaeacaaaaaaaaaaaaacamaOaZaVaWaWaWaWaWaWaTaYa0aKaaaaacaaaaaaaaaaaaaaaaaaaaaaaaaaaaaaaaaaaaaaaaaaaaaaaaaaaaaaaaaaaaaaaaaaaaaaaaaaaaaaaaaaaaaaaaaaaaaaaaaaaaaaaaaaaaaaaaaaaaaaaaaaaaaaaaaaao                ",
"                aoaaaaaaaaaaaaaaaaaaaaaaaaaaaaaaaaaaaaaaaaaaaaaaaaaaaaaaaaaaaaaaaaaaaaaaaaaaaaaaaaaaaaaaaaamaYa[a<a<a#a#a%a&a&a]a]a]a|a;a~a~a?bbbbbbbfbfbhbhblblbmbmbqbqbsbsbpbDaMaaahaaaeaaaubzbKbFbHbHbHbHbHbHbHbHbHbHbHbHbHbHbHbHbHbHbHbEbKbAaKaaaeahaaaaaaaaaaaaaaaaaaaaaaaaaaaaaaaaaaaaaaahaaaaaMbLbKbBbHbHbFbBbTaQaaahacaaaaaaaaaaacaaataTaWaWaWaWaWaWaWaWaVaVa1aLadaaacaaaaaaaaaaaaaaaaaaaaaaaaaaaaaaaaaaaaaaaaaaaaaaaaaaaaaaaaaaaaaaaaaaaaaaaaaaaaaaaaaaaaaaaaaaaaaaaaaaaaaaaaaaaaaaaaaaaaaaaaaaaaaaaaao                ",
"                aoaaaaaaaaaaaaaaaaaaaaaaaaaaaaaaaaaaaaaaaaaaaaaaaaaaaaaaaaaaaaaaaaaaaaaaaaaaaaaaaaaaaaaaaaakaYa[a<a#a#a%a&a&a]a]a]a|a;a~a~a?bbbbbbbfbfbhbhblbmbmbmbqbqbsbsbtbtbsauaaacaaahaaaPbSbBbHbHbHbHbHbHbHbHbHbHbHbHbHbHbHbHbHbHbHbHbHbKaKaaakaaaaaaaaaaaaaaaaaaaaaaaaaaaaaaaaaaaaaaaaaaaaacaeaaaKbAbLbBbHbHbHbBbTaQaaahaaaaaaaaaaaaacaaaKa1aSaWaWaWaWaWaWaWaWaUa1aOamaaacaaaaaaaaaaaaaaaaaaaaaaaaaaaaaaaaaaaaaaaaaaaaaaaaaaaaaaaaaaaaaaaaaaaaaaaaaaaaaaaaaaaaaaaaaaaaaaaaaaaaaaaaaaaaaaaaaaaaaaaaaaaaaaao                ",
"                aoaaaaaaaaaaaaaaaaaaaaaaaaaaaaaaaaaaaaaaaaaaaaaaaaaaaaaaaaaaaaaaaaaaaaaaaaaaaaaaaaaaaaaaaaacaUa[a<a#a%a&a&a]a]a]a|a;a~a~a?bbbbbbbfbfbhbhblbmbmbmbqbqbsbsbtbsbya!ahaaaaaaaaarbibLbFbHbHbHbHbHbHbHbHbHbHbHbHbHbHbHbHbHbHbHbBbSaPaaakaaaaaaaaaaaaaaaaaaaaaaaaaaaaaaaaaaaaaaaaaaaaaaaaaaakaaaIbybLbBbHbHbHbBbTaPaaahaaaaaaaaaaaaacaaaOa0aSaWaWaWaWaWaWaWaWaSa1aOaraaacaaaaaaaaaaaaaaaaaaaaaaaaaaaaaaaaaaaaaaaaaaaaaaaaaaaaaaaaaaaaaaaaaaaaaaaaaaaaaaaaaaaaaaaaaaaaaaaaaaaaaaaaaaaaaaaaaaaaaaaaaaaaao                ",
"                anaaaaaaaaaaaaaaaaaaaaaaaaaaaaaaaaaaaaaaaaaaaaaaaaaaaaaaaaaaaaaaaaaaaaaaaaaaaaaaaaaaaaaaacaaaQa{a@a%a&a&a]a]a]a|a;a~a~a?bbbbbbbfbfbhbhblbmbmbpbqbqbsbsbtbtbtbDaQaaaeaaahaaaIbLbFbHbHbHbHbHbHbHbHbHbHbHbHbHbHbHbHbHbHbHbFbMa)amaeacaaaaaaaaaaaaaaaaaaaaaaaaaaaaaaaaaaaaaaaaaaaaaaaaaaaaakaaaIbybLbBbHbHbHbBbPaMaaahaaaaaaaaaaacaaaraRaXaVaWaWaWaWaWaWaWaWaUa1aOaraaacaaaaaaaaaaaaaaaaaaaaaaaaaaaaaaaaaaaaaaaaaaaaaaaaaaaaaaaaaaaaaaaaaaaaaaaaaaaaaaaaaaaaaaaaaaaaaaaaaaaaaaaaaaaaaaaaaaaaaaaaaaan                ",
"                aoaaaaaaaaaaaaaaaaaaaaaaaaaaaaaaaaaaaaaaaaaaaaaaaaaaaaaaaaaaaaaaaaaaaaaaaaaaaaaaaaaaaaaaahaaaOa:a%a&a&a]a]a]a|a;a~a~a?bbbbbebfbfbhbhblbmbmbpbqbqbsbsbtbtbubtbGaPaaahaaahaaaMbPbBbHbHbHbHbHbHbHbHbHbHbHbHbHbHbHbHbHbHbHbBbSaMaaahaaaaaaaaaaaaaaaaaaaaaaaaaaaaaaaaaaaaaaaaaaaaaaaaaaaaaaaaahaaaIbGbKbFbHbHbFbIbNaKaaahaaaaaaaaaaacaaaIa0aVaWaWaWaWaWaWaWaWaWaSa1aOamaaacaaaaaaaaaaaaaaaaaaaaaaaaaaaaaaaaaaaaaaaaaaaaaaaaaaaaaaaaaaaaaaaaaaaaaaaaaaaaaaaaaaaaaaaaaaaaaaaaaaaaaaaaaaaaaaaaaaaaaaaaao                ",
"                alaaaaaaaaaaaaaaaaaaaaaaaaaaaaaaaaaaaaaaaaaaaaaaaaaaaaaaaaaaaaaaaaaaaaaaaaaaaaaaaaaaaaaaahaaaLbka%a&a]a]a|a|a;a~a~a?bbbbbebfbfbhbhblbmbmbpbqbqbsbsbtbtbububtbKaMaaahaaahaaaPbTbBbHbHbHbHbHbHbHbHbHbHbHbHbHbHbHbHbHbHbHbIbGaHaaahaaaaaaaaaaaaaaaaaaaaaaaaaaaaaaaaaaaaaaaaaaaaaaaaaaaaaaaaaaakaaaKbNbFbHbHbHbEbLbwauaaaeaaaaaaaaaaahaaaLa1aSaWaWaWaWaWaWaWaWaWaSa1aOakacaaaaaaaaaaaaaaaaaaaaaaaaaaaaaaaaaaaaaaaaaaaaaaaaaaaaaaaaaaaaaaaaaaaaaaaaaaaaaaaaaaaaaaaaaaaaaaaaaaaaaaaaaaaaaaaaaaaaaaaaal                ",
"                aaaaaaaaaaaaaaaaaaaaaaaaaaaaaaaaaaaaaaaaaaaaaaaaaaaaaaaaaaaaaaaaaaaaaaaaaaaaaaaaaaaaaaaaahaaaIa:a^a]a]a|a|a;a~a~a?bbbbbebfbfbhbhblbmbmbqbqbqbsbsbtbtbububwbubKaMaaahaaahaaaPbTbBbHbHbHbHbHbHbHbHbHbHbHbHbHbHbHbHbHbHbFbKbuataaacaaaaaaaaaaaaaaaaaaaaaaaaaaaaaaaaaaaaaaaaaaaaaaaaaaaaaaaaaaaaakaaaPbSbBbHbHbHbBbNa$amahacaaaaaaaaacacaraRaXaVaWaWaWaWaWaWaWaWaWaUa1aLaaacaaaaaaaaaaaaaaaaaaaaaaaaaaaaaaaaaaaaaaaaaaaaaaaaaaaaaaaaaaaaaaaaaaaaaaaaaaaaaaaaaaaaaaaaaaaaaaaaaaaaaaaaaaaaaaaaaaaaaaaa                ",
"                aaaaaaaaaaaaaaaaaaaaaaaaaaaaaaaaaaaaaaaaaaaaaaaaaaaaaaaaaaaaaaaaaaaaaaaaaaaaaaaaaaaaaaaaacaaata@a;a]a|a|a~a~a~a?bbbbbebfbfbhbhblbmbmbqbqbqbsbsbtbtbububwbwbubKaMaaahaaahaaaMbPbBbHbHbHbHbHbHbHbHbHbHbHbHbHbHbHbHbHbHbFbKbuaraaacaaaaaaaaaaaaaaaaaaaaaaaaaaaaaaaaaaaaaaaaaaaaaaaaaaaaaaaaaaaaaaahaaa4bPbBbHbHbHbBbTaPaaahaaaaaaaaaaacaaaIa0aTaWaWaWaWaWaWaWaWaWaWaSa1aLaaahaaaaaaaaaaaaaaaaaaaaaaaaaaaaaaaaaaaaaaaaaaaaaaaaaaaaaaaaaaaaaaaaaaaaaaaaaaaaaaaaaaaaaaaaaaaaaaaaaaaaaaaaaaaaaaaaaaaaaa                ",
"                aaaaaaaaaaaaaaaaaaaaaaaaaaaaaaaaaaaaaaaaaaaaaaaaaaaaaaaaaaaaaaaaaaaaaaaaaaaaaaaaaaaaaaaaaaaaaeaYbda]a|a~a~a~a?bbbbbfbfbfbhbhblbmbmbqbqbqbsbsbtbtbububwbwbwbubKaPaaahaaahaaaHbKbHbHbHbHbHbHbHbHbHbHbHbHbHbHbHbHbHbHbHbHbKbAauaaaeaaaaaaaaaaaaaaaaaaaaaaaaaaaaaaaaaaaaaaaaaaaaaaaaaaaaaaaaaaaaaaaeaaatbtbLbEbHbHbHbFbLaIaaahaaaaaaaaaaacaaaOa0aTaWaWaWaWaWaWaWaWaWaWaVa0aIaaadaaaaaaaaaaaaaaaaaaaaaaaaaaaaaaaaaaaaaaaaaaaaaaaaaaaaaaaaaaaaaaaaaaaaaaaaaaaaaaaaaaaaaaaaaaaaaaaaaaaaaaaaaaaaaaaaaaaa                ",
"                aaaaaaaaaaaaaaaaaaaaaaaaaaaaaaaaaaaaaaaaaaaaaaaaaaaaaaaaaaaaaaaaaaaaaaaaaaaaaaaaaaaaaaaaaaahaaaLbka(a~a~a~a?bbbbbfbfbhbhbhblbmbmbqbqbsbsbsbtbtbubvbwbwbwbwbwbKa4aaacaaaaaaala$bMbBbHbHbHbHbHbHbHbHbHbHbHbHbHbHbHbHbHbHbBbPaKaaahaaaaaaaaaaaaaaaaaaaaaaaaaaaaaaaaaaaaaaaaaaaaaaaaaaaaaaaaaaaaaaaaahaaaKbNbBbHbHbHbBbNa$apaeacaaaaaaaaacaaataTaWaWaWaWaWaWaWaWaWaWaWaVaWaXauaaacaaaaaaaaaaaaaaaaaaaaaaaaaaaaaaaaaaaaaaaaaaaaaaaaaaaaaaaaaaaaaaaaaaaaaaaaaaaaaaaaaaaaaaaaaaaaaaaaaaaaaaaaaaaaaaaaaa                ",
"                aaaaaaaaaaaaaaaaaaaaaaaaaaaaaaaaaaaaaaaaaaaaaaaaaaaaaaaaaaaaaaaaaaaaaaaaaaaaaaaaaaaaaaaaaaahaaaHa:a,a~a~a?bbbbbfbfbhbhbhblbmbmbqbqbsbsbsbtbtbubvbwbwbwbwbxbxbBblaraaacaaahaaaMbSbBbHbHbHbHbHbHbHbHbHbHbHbHbHbHbHbHbHbHbBbPa4aaahaaaaaaaaaaaaaaaaaaaaaaaaaaaaaaaaaaaaaaaaaaaaaaaaaaaaaaaaaaaaaaaaaaahaaa4bRbBbHbHbHbBbTaMaaahaaaaaaaaaaacaaaKa1aSaWaWaWaWaWaWaWaWaWaWaTaZaRaracacaaaaaaaaaaaaaaaaaaaaaaaaaaaaaaaaaaaaaaaaaaaaaaaaaaaaaaaaaaaaaaaaaaaaaaaaaaaaaaaaaaaaaaaaaaaaaaaaaaaaaaaaaaaaaaaa                ",
"                aaaaaaaaaaaaaaaaaaaaaaaaaaaaaaaaaaaaaaaaaaaaaaaaaaaaaaaaaaaaaaaaaaaaaaaaaaaaaaaaaaaaaaaaaaaaacacaYbka,a?bbbbbfbfbhbhbhblbmbmbqbqbsbsbsbtbtbubvbwbwbwbwbxbxbxbxbLaKaaahaaacacapa,bObEbHbHbHbHbHbHbHbHbHbHbHbHbHbHbHbHbHbHbFbKaIaaahaaaaaaaaaaaaaaaaaaaaaaaaaaaaaaaaaaaaaaaaaaaaaaaaaaaaaaaaaaaaaaaaaeaaaubzbIbHbHbHbFbKbvatacaeaaaaaaaaacacamaRaXaVaWaWaWaWaWaWaWaWaWaWaUa1aOaaacaaaaaaaaaaaaaaaaaaaaaaaaaaaaaaaaaaaaaaaaaaaaaaaaaaaaaaaaaaaaaaaaaaaaaaaaaaaaaaaaaaaaaaaaaaaaaaaaaaaaaaaaaaaaaaaa                ",
"                aaaaaaaaaaaaaaaaaaaaaaaaaaaaaaaaaaaaaaaaaaaaaaaaaaaaaaaaaaaaaaaaaaaaaaaaaaaaaaaaaaaaaaaaaaaaahaaaKboa,bbbbbfbfbhbhbhblbmbmbqbqbsbsbsbtbtbubvbwbwbwbwbxbxbxbybxbMa4aaaeaaaaahaaaKbNbEbHbHbHbHbHbHbHbHbHbHbHbHbHbHbHbHbHbHbBbNa!ahahaaaaaaaaaaaaaaaaaaaaaaaaaaaaaaaaaaaaaaaaaaaaaaaaaaaaaaaaaaaaaaaaaaahaaaQbSbBbHbHbHbBbSaPaaahaaaaaaaaaaacaaaIa0aSaWaWaWaWaWaWaWaWaWaWaWaSa1aKaaacaaaaaaaaaaaaaaaaaaaaaaaaaaaaaaaaaaaaaaaaaaaaaaaaaaaaaaaaaaaaaaaaaaaaaaaaaaaaaaaaaaaaaaaaaaaaaaaaaaaaaaaaaaaaaa                ",
"                aaaaaaaaaaaaaaaaaaaaaaaaaaaaaaaaaaaaaaaaaaaaaaaaaaaaaaaaaaaaaaaaaaaaaaaaaaaaaaaaaaaaaaaaaaaaaaaaama8bobbbfbfbhbhbhblbmbmbqbqbsbsbsbtbtbubvbwbwbwbwbxbxbxbybxbybBbyauaaahaaaaahaaaPbUbBbHbHbHbHbHbHbHbHbHbHbHbHbHbHbHbHbHbHbBbSaPaaakaaaaaaaaaaaaaaaaaaaaaaaaaaaaaaaaaaaaaaaaaaaaaaaaaaaaaaaaaaaaaaaaaeacatbxbIbFbHbHbHbKbwataaaeaaaaaaaaaaacakaOaZaTaWaWaWaWaWaWaWaWaWaWaWaWaSataaacaaaaaaaaaaaaaaaaaaaaaaaaaaaaaaaaaaaaaaaaaaaaaaaaaaaaaaaaaaaaaaaaaaaaaaaaaaaaaaaaaaaaaaaaaaaaaaaaaaaaaaaaaaaa                ",
"                aaaaaaaaaaaaaaaaaaaaaaaaaaaaaaaaaaaaaaaaaaaaaaaaaaaaaaaaaaaaaaaaaaaaaaaaaaaaaaaaaaaaaaaaaaaaaaahaaaKbrbbbfbhbhblblbmbmbqbqbsbsbsbtbtbubvbwbwbwbwbxbxbxbybxbybybxbRaQaaahaaaaaaahaca4bSbzbHbHbHbHbHbHbHbHbHbHbHbHbHbHbHbHbHbHbHbNaKaaahaaaaaaaaaaaaaaaaaaaaaaaaaaaaaaaaaaaaaaaaaaaaaaaaaaaaaaaaaaaaaaaaahaaaQbSbBbHbHbHbBbSaPaaahaaaaaaaaaaadaaaIa0aVaWaWaWaWaWaWaWaWaWaWaWaTa0aOacacaaaaaaaaaaaaaaaaaaaaaaaaaaaaaaaaaaaaaaaaaaaaaaaaaaaaaaaaaaaaaaaaaaaaaaaaaaaaaaaaaaaaaaaaaaaaaaaaaaaaaaaaaaaa                ",
"                aaaaaaaaaaaaaaaaaaaaaaaaaaaaaaaaaaaaaaaaaaaaaaaaaaaaaaaaaaaaaaaaaaaaaaaaaaaaaaaaaaaaaaaaaaaaaaaaacaka4brbcbhblbmbmbmbqbqbsbsbsbtbtbubvbwbwbwbwbxbxbxbybxbybybBbBbBbMaIaaahaaaaacacapa!bSbzbHbHbHbHbHbHbHbHbHbHbHbHbHbHbHbHbHbEbKbzaHaaahaaaaaaaaaaaaaaaaaaaaaaaaaaaaaaaaaaaaaaaaaaaaaaaaaaaaaaaaaaaaaaahaaaIbKbFbHbHbHbFbLbcapaaaaaaaaaaaaaaacaeaOa0aTaWaWaWaWaWaWaWaWaWaWaWaSa1aIaaacaaaaaaaaaaaaaaaaaaaaaaaaaaaaaaaaaaaaaaaaaaaaaaaaaaaaaaaaaaaaaaaaaaaaaaaaaaaaaaaaaaaaaaaaaaaaaaaaaaaaaaaaaa                ",
"                aaaaaaaaaaaaaaaaaaaaaaaaaaaaaaaaaaaaaaaaaaaaaaaaaaaaaaaaaaaaaaaaaaaaaaaaaaaaaaaaaaaaaaaaaaaaaaaaahaaaHbobibibmbmbmbqbqbsbsbtbtbtbubvbwbwbwbwbxbxbxbybxbybybBbBbBbBbOa$apaeacaaaaacaaara$bSbBbHbHbHbHbHbHbHbHbHbHbHbHbHbHbHbHbHbBbMblataaaeaaaaaaaaaaaaaaaaaaaaaaaaaaaaaaaaaaaaaaaaaaaaaaaaaaaaaaaaaaaaaaacaea!bNbBbHbHbHbEbNaKaaahaaaaaaaaaaadaaaIa0aVaWaWaWaWaWaWaWaWaWaWaWaVaXaRaracacaaaaaaaaaaaaaaaaaaaaaaaaaaaaaaaaaaaaaaaaaaaaaaaaaaaaaaaaaaaaaaaaaaaaaaaaaaaaaaaaaaaaaaaaaaaaaaaaaaaaaaaa                ",
"                aaaaaaaaaaaaaaaaaaaaaaaaaaaaaaaaaaaaaaaaaaaaaaaaaaaaaaaaaaaaaaaaaaaaaaaaaaaaaaaaaaaaaaaaaaaaaaaaaaahaaaLbAbibmbmbqbqbsbsbtbtbububvbwbwbwbwbxbxbxbybxbybybBbBbBbIbIbBbUaQaaakaaaaaaaeaaara!bSbBbHbHbHbHbHbHbHbHbHbHbHbHbHbHbHbHbHbBbNa)ataaaeaaaaaaaaaaaaaaaaaaaaaaaaaaaaaaaaaaaaaaaaaaaaaaaaaaaaaaaaaaaaahaaaMbSbBbHbHbHbBbPa4aaaeaaaaaaaaaaaaaaakaOaZaTaWaWaWaWaWaWaWaWaWaWaWaUa1aLaaacaaaaaaaaaaaaaaaaaaaaaaaaaaaaaaaaaaaaaaaaaaaaaaaaaaaaaaaaaaaaaaaaaaaaaaaaaaaaaaaaaaaaaaaaaaaaaaaaaaaaaaaa                ",
"                aaaaaaaaaaaaaaaaaaaaaaaaaaaaaaaaaaaaaaaaaaaaaaaaaaaaaaaaaaaaaaaaaaaaaaaaaaaaaaaaaaaaaaaaaaaaaaaaaaaaaeama4bvbibqbqbsbsbtbtbububvbwbwbwbxbxbxbxbybxbybybBbBbBbIbIbIbJbJbRaMaaakaaaaaaahaaara4bSbBbHbHbHbHbHbHbHbHbHbHbHbHbHbHbHbHbHbBbRa$araaaeaaaaaaaaaaaaaaaaaaaaaaaaaaaaaaaaaaaaaaaaaaaaaaaaaaaaaaaaaaaeaaaHbDbHbHbHbHbFbLbtataaacaaaaaaaaaaadaaaKa1aSaWaWaWaWaWaWaWaWaWaWaWaWaWaTataaacaaaaaaaaaaaaaaaaaaaaaaaaaaaaaaaaaaaaaaaaaaaaaaaaaaaaaaaaaaaaaaaaaaaaaaaaaaaaaaaaaaaaaaaaaaaaaaaaaaaaaa                ",
"                aaaaaaaaaaaaaaaaaaaaaaaaaaaaaaaaaaaaaaaaaaaaaaaaaaaaaaaaaaaaaaaaaaaaaaaaaaaaaaaaaaaaaaaaaaaaaaaaaaaaaeaaata,btbpbsbsbtbtbububvbwbwbwbxbxbxbxbybxbBbBbBbBbBbIbIbJbJbJbJbMbJaIaaahaaaaaaaeaaama4bTbBbHbHbHbHbHbHbHbHbHbHbHbHbHbHbHbHbHbzbSa4amacacaaaaaaaaaaaaaaaaaaaaaaaaaaaaaaaaaaaaaaaaaaaaaaaaaaaaaaaaaaaaaha$bObEbHbHbHbBbNaKaaahaaaaaaaaaaaaaaaraRaYaWaWaWaWaWaWaWaWaWaWaWaWaSa1aLaaacaaaaaaaaaaaaaaaaaaaaaaaaaaaaaaaaaaaaaaaaaaaaaaaaaaaaaaaaaaaaaaaaaaaaaaaaaaaaaaaaaaaaaaaaaaaaaaaaaaaaaa                ",
"                aaaaaaaaaaaaaaaaaaaaaaaaaaaaaaaaaaaaaaaaaaaaaaaaaaaaaaaaaaaaaaaaaaaaaaaaaaaaaaaaaaaaaaaaaaaaaaaaaaaaaaahaaaIbrbtbsbtbtbububvbwbwbwbxbxbxbxbybxbBbBbBbBbFbIbIbJbJbJbJbJbJbQbxauaaahaaaaaaacaaaeaQbTbBbHbHbHbHbHbHbHbHbHbHbHbHbHbHbHbHbHbBbSa4acaeacaaaaaaaaaaaaaaaaaaaaaaaaaaaaaaaaaaaaaaaaaaaaaaaaaaaaaaaaahaaaQbSbBbHbHbHbBbSaQaaahaaaaaaaaaaaaacaaaLa1aSaWaWaWaWaWaWaWaWaWaWaWaWaWaXauaaacaaaaaaaaaaaaaaaaaaaaaaaaaaaaaaaaaaaaaaaaaaaaaaaaaaaaaaaaaaaaaaaaaaaaaaaaaaaaaaaaaaaaaaaaaaaaaaaaaaaa                ",
"                aaaaaaaaaaaaaaaaaaaaaaaaaaaaaaaaaaaaaaaaaaaaaaaaaaaaaaaaaaaaaaaaaaaaaaaaaaaaaaaaaaaaaaaaaaaaaaaaaaaaaaaaahaaaKbAbtbtbububwbwbwbwbxbxbxbxbybxbBbBbBbBbFbIbIbJbJbJbJbJbJbMbJbRbpataaahaaaaaaacaeaaaPbPbFbFbHbHbHbHbHbHbHbHbHbHbHbHbHbHbHbHbBbUaQaaahaaaaaaaaaaaaaaaaaaaaaaaaaaaaaaaaaaaaaaaaaaaaaaaaaaaaaaaaahaaaKbPbBbHbHbHbEbOa$ahaaaaaaaaaaaaaaacaaauaXaWaWaWaWaWaWaWaWaWaWaWaWaWaTa1aLaaacaaaaaaaaaaaaaaaaaaaaaaaaaaaaaaaaaaaaaaaaaaaaaaaaaaaaaaaaaaaaaaaaaaaaaaaaaaaaaaaaaaaaaaaaaaaaaaaaaaaa                ",
"                aaaaaaaaaaaaaaaaaaaaaaaaaaaaaaaaaaaaaaaaaaaaaaaaaaaaaaaaaaaaaaaaaaaaaaaaaaaaaaaaaaaaaaaaaaaaaaaaaaaaaaaaaaahaaaMbDbububwbwbwbwbxbxbxbybybxbBbBbBbBbFbIbIbJbJbJbJbJbJbMbQbQbJbWbpataaahaaaaaaacaeaaaMbPbIbEbHbHbHbHbHbHbHbHbHbHbHbHbHbHbHbHbBbTaPaaahaaaaaaaaaaaaaaaaaaaaaaaaaaaaaaaaaaaaaaaaaaaaaaaaaaaaaaaeaaaHbGbIbHbHbHbHbKbxataaacaaaaaaaaaaaaacacaOaZaTaWaWaWaWaWaWaWaWaWaWaWaWaWaXataaacaaaaaaaaaaaaaaaaaaaaaaaaaaaaaaaaaaaaaaaaaaaaaaaaaaaaaaaaaaaaaaaaaaaaaaaaaaaaaaaaaaaaaaaaaaaaaaaaaa                ",
"                aaaaaaaaaaaaaaaaaaaaaaaaaaaaaaaaaaaaaaaaaaaaaaaaaaaaaaaaaaaaaaaaaaaaaaaaaaaaaaaaaaaaaaaaaaaaaaaaaaaaaaaaaaaaahaaaMbDbwbubwbwbxbxbxbybybybBbBbBbBbFbIbIbJbJbJbJbJbJbMbQbQbQbQbQbWbpataaahaaaaaaaaahaaaMbNbKbEbHbHbHbHbHbHbHbHbHbHbHbHbHbHbHbHbFbPaMaaahaaaaaaaaaaaaaaaaaaaaaaaaaaaaaaaaaaaaaaaaaaaaaaaaaaaaacaaarbibLbFbHbHbHbEbNaKaaahaaaaaaaaaaaaahaaaKa1aSaWaWaWaWaWaWaWaWaWaWaWaWaSa1aLaaacaaaaaaaaaaaaaaaaaaaaaaaaaaaaaaaaaaaaaaaaaaaaaaaaaaaaaaaaaaaaaaaaaaaaaaaaaaaaaaaaaaaaaaaaaaaaaaaaaa                ",
"                aaaaaaaaaaaaaaaaaaaaaaaaaaaaaaaaaaaaaaaaaaaaaaaaaaaaaaaaaaaaaaaaaaaaaaaaaaaaaaaaaaaaaaaaaaaaaaaaaaaaaaaaaaaaaaahaaaMbGbwbvbxbxbxbybxbybBbBbBbBbFbIbIbJbJbJbJbJbJbMbQbQbQbQbQbQbQbYbtauaaahaaaaaaaaahaaaKbKbKbEbHbHbHbHbHbHbHbHbHbHbHbHbHbHbHbEbKbKaIaaahaaaaaaaaaaaaaaaaaaaaaaaaaaaaaaaaaaaaaaaaaaaaaaaaaaaaacaaa!bNbEbHbHbHbBbSaMaaahaaaaaaaaaaaaacaaataTaWaWaWaWaWaWaWaWaWaWaWaWaWaWaWaRaraaacaaaaaaaaaaaaaaaaaaaaaaaaaaaaaaaaaaaaaaaaaaaaaaaaaaaaaaaaaaaaaaaaaaaaaaaaaaaaaaaaaaaaaaaaaaaaaaaa                ",
"                aaaaaaaaaaaaaaaaaaaaaaaaaaaaaaaaaaaaaaaaaaaaaaaaaaaaaaaaaaaaaaaaaaaaaaaaaaaaaaaaaaaaaaaaaaaaaaaaaaaaaaaaaaaaaaaaahaaaKbvbzbwbxbybxbybBbBbBbBbIbIbIbJbJbJbJbJbMbMbQbQbQbQbQbQbQbVbQbYbxaHaaakaaaaaaaaahaaaKbGbKbEbHbHbHbHbHbHbHbHbHbHbHbHbHbHbHbBbLbsataaaeaaaaaaaaaaaaaaaaaaaaaaaaaaaaaaaaaaaaaaaaaaaaaaaaaaahaaaQbPbBbHbHbHbBbSaQaaahaaaaaaaaaaaaaaaaacaOaZaVaWaWaWaWaWaWaWaWaWaWaWaWaVa1aKaaadaaaaaaaaaaaaaaaaaaaaaaaaaaaaaaaaaaaaaaaaaaaaaaaaaaaaaaaaaaaaaaaaaaaaaaaaaaaaaaaaaaaaaaaaaaaaaaaa                ",
"                aaaaaaaaaaaaaaaaaaaaaaaaaaaaaaaaaaaaaaaaaaaaaaaaaaaaaaaaaaaaaaaaaaaaaaaaaaaaaaaaaaaaaaaaaaaaaaaaaaaaaaaaaaaaaaaaaaahaaaIbtbKbxbybybBbBbBbBbIbIbIbJbJbJbJbJbMbMbQbQbQbQbQbQbQbQbVbVbQbYbJaIaaakaaaaaaaaahaaaKbDbKbEbHbHbHbHbHbHbHbHbHbHbHbHbHbHbHbBbPa!akahaaaaaaaaaaaaaaaaaaaaaaaaaaaaaaaaaaaaaaaaaaaaaaaaaaahaaaPbSbBbHbHbHbBbNa!aaacaaaaaaaaaaaaaaahaaaLa1aSaWaWaWaWaWaWaWaWaWaWaWaWaVaZaOahaaaaaaaaaaaaaaaaaaaaaaaaaaaaaaaaaaaaaaaaaaaaaaaaaaaaaaaaaaaaaaaaaaaaaaaaaaaaaaaaaaaaaaaaaaaaaaaaaa                ",
"                aaaaaaaaaaaaaaaaaaaaaaaaaaaaaaaaaaaaaaaaaaaaaaaaaaaaaaaaaaaaaaaaaaaaaaaaaaaaaaaaaaaaaaaaaaaaaaaaaaaaaaaaaaaaaaaaaaaaahaaaHa$bObxbybBbBbBbIbIbIbJbJbJbJbJbMbObQbQbQbQbQbQbQbQbVbVbVbVbVbYbVaKaaakaaaaaaaaahaaaKbGbKbEbHbHbHbHbHbHbHbHbHbHbHbHbHbHbHbBbTaPaaahaaaaaaaaaaaaaaaaaaaaaaaaaaaaaaaaaaaaaaaaaaaaaaaaahaaaMbTbBbHbHbHbEbMa)akaaaaaaaaaaaaaaaaaeaaauaZaVaWaWaWaWaWaWaWaWaWaWaWaWaWaVaXauaaacaaaaaaaaaaaaaaaaaaaaaaaaaaaaaaaaaaaaaaaaaaaaaaaaaaaaaaaaaaaaaaaaaaaaaaaaaaaaaaaaaaaaaaaaaaaaaa                ",
"                aaaaaaaaaaaaaaaaaaaaaaaaaaaaaaaaaaaaaaaaaaaaaaaaaaaaaaaaaaaaaaaaaaaaaaaaaaaaaaaaaaaaaaaaaaaaaaaaaaaaaaaaaaaaaaaaaaaaaaahaaara4bRbybBbBbIbIbIbJbJbJbJbJbMbObQbQbQbQbQbQbQbQbVbVbVbVbWbWbVbYbWaKaaahaaaaaaaaahaaaKbKbIbEbHbHbHbHbHbHbHbHbHbHbHbHbHbHbHbEbNaKaaahaaaaaaaaaaaaaaaaaaaaaaaaaaaaaaaaaaaaaaaaaaaaaaahaaaMbNbBbHbHbHbFbKbtaraaacaaaaaaaaaaaaaaaaaraRaXaVaWaWaWaWaWaWaWaWaWaWaWaWaSa1aLaaacaaaaaaaaaaaaaaaaaaaaaaaaaaaaaaaaaaaaaaaaaaaaaaaaaaaaaaaaaaaaaaaaaaaaaaaaaaaaaaaaaaaaaaaaaaaaaa                ",
"                aaaaaaaaaaaaaaaaaaaaaaaaaaaaaaaaaaaaaaaaaaaaaaaaaaaaaaaaaaaaaaaaaaaaaaaaaaaaaaaaaaaaaaaaaaaaaaaaaaaaaaaaaaaaaaaaaaaaaaaaahaaacaPbMbJbCbIbIbJbJbJbJbJbMbObQbQbQbQbQbQbQbVbVbVbVbVbWbWbWbWbWbYbZaMaaakaaaaaaaaakaaaKbNbIbFbHbHbHbHbHbHbHbHbHbHbHbHbHbHbEbLbiaraeacaaaaaaaaaaaaaaaaaaaaaaaaaaaaaaaaaaaaaaaaaaaaahaaaKbNbBbHbHbHbFbKbvataaacaaaaaaaaaaaaaaacaaaOa0aTaWaWaWaWaWaWaWaWaWaWaWaWaVaXaPakaaaaaaaaaaaaaaaaaaaaaaaaaaaaaaaaaaaaaaaaaaaaaaaaaaaaaaaaaaaaaaaaaaaaaaaaaaaaaaaaaaaaaaaaaaaaaaaa                ",
"                aaaaaaaaaaaaaaaaaaaaaaaaaaaaaaaaaaaaaaaaaaaaaaaaaaaaaaaaaaaaaaaaaaaaaaaaaaaaaaaaaaaaaaaaaaaaaaaaaaaaaaaaaaaaaaaaaaaaaaaaaaaeacaaaKbwbRbBbJbJbJbJbJbMbObQbQbQbQbQbQbQbVbVbVbVbVbWbWbWbWbWbXbXbXb0aMaaahaaaaaaaaakaaaMbPbBbHbHbHbHbHbHbHbHbHbHbHbHbHbHbHbBbSaQaaahaaaaaaaaaaaaaaaaaaaaaaaaaaaaaaaaaaaaaaaaaaaaahaaaKbNbEbHbHbHbHbKbAauaaaeaaaaaaaaaaaaaaahaaaLa1aSaWaWaWaWaWaWaWaWaWaWaWaWaWaWaXauaaacaaaaaaaaaaaaaaaaaaaaaaaaaaaaaaaaaaaaaaaaaaaaaaaaaaaaaaaaaaaaaaaaaaaaaaaaaaaaaaaaaaaaaaaaaaaa                ",
"                aaaaaaaaaaaaaaaaaaaaaaaaaaaaaaaaaaaaaaaaaaaaaaaaaaaaaaaaaaaaaaaaaaaaaaaaaaaaaaaaaaaaaaaaaaaaaaaaaaaaaaaaaaaaaaaaaaaaaaaaaaaaaaahaaaua$bUbJbJbJbJbMbObQbQbQbQbQbQbQbVbVbVbVbVbWbWbWbWbWbXbXbXbXbXb3aPaaahaaaaaaaaakaaaPbTbBbHbHbHbHbHbHbHbHbHbHbHbHbHbHbHbEbNaIaaahaaaaaaaaaaaaaaaaaaaaaaaaaaaaaaaaaaaaaaaaaaahaaaKbNbEbHbHbHbHbHbGaHaaaeaaaaaaaaaaaaaaaeaaaIa0aVaWaWaWaWaWaWaWaWaWaWaWaWaWaSa1aKaaahaaaaaaaaaaaaaaaaaaaaaaaaaaaaaaaaaaaaaaaaaaaaaaaaaaaaaaaaaaaaaaaaaaaaaaaaaaaaaaaaaaaaaaaaaaaa                ",
"                aaaaaaaaaaaaaaaaaaaaaaaaaaaaaaaaaaaaaaaaaaaaaaaaaaaaaaaaaaaaaaaaaaaaaaaaaaaaaaaaaaaaaaaaaaaaaaaaaaaaaaaaaaaaaaaaaaaaaaaaaaaaaaaaahaaamaQbRbQbJbMbObQbQbQbQbQbQbQbVbVbVbVbVbWbWbWbWbWbXbXbXbYbYbYbYb3aPaaahaaaaaaaaahaaa4bSbBbHbHbHbHbHbHbHbHbHbHbHbHbHbHbBbOa$amaeacaaaaaaaaaaaaaaaaaaaaaaaaaaaaaaaaaaaaaaaaahaaaKbNbEbHbHbHbHbHbKaHaaahaaaaaaaaaaaaaaacaaataTaWaWaWaWaWaWaWaWaWaWaWaWaWaWaVa0aOaaaaaaaaaaaaaaaaaaaaaaaaaaaaaaaaaaaaaaaaaaaaaaaaaaaaaaaaaaaaaaaaaaaaaaaaaaaaaaaaaaaaaaaaaaaaaaaa                ",
"                aaaaaaaaaaaaaaaaaaaaaaaaaaaaaaaaaaaaaaaaaaaaaaaaaaaaaaaaaaaaaaaaaaaaaaaaaaaaaaaaaaaaaaaaaaaaaaaaaaaaaaaaaaaaaaaaaaaaaaaaaaaaaaaaaaaeaaaaaKbxbWbJbQbQbQbQbQbQbQbVbVbVbVbVbWbWbWbWbXbXbXbXbYbYbYbYbYbZb3aPaaahaaaaaaacacara)bNbBbHbHbHbHbHbHbHbHbHbHbHbHbHbHbBbSaMaaahaaaaaaaaaaaaaaaaaaaaaaaaaaaaaaaaaaaaaaaaahaaaKbNbBbHbHbHbHbHbKaIaaahaaaaaaaaaaaaaaacaaaraRaXaVaWaWaWaWaWaWaWaWaWaWaWaWaWaWaRaraaacaaaaaaaaaaaaaaaaaaaaaaaaaaaaaaaaaaaaaaaaaaaaaaaaaaaaaaaaaaaaaaaaaaaaaaaaaaaaaaaaaaaaaaaaaa                ",
"                aaaaaaaaaaaaaaaaaaaaaaaaaaaaaaaaaaaaaaaaaaaaaaaaaaaaaaaaaaaaaaaaaaaaaaaaaaaaaaaaaaaaaaaaaaaaaaaaaaaaaaaaaaaaaaaaaaaaaaaaaaaaaaaaaaaaaaahaaaua!bYbQbQbQbQbQbQbVbVbVbVbVbWbWbWbWbXbXbXbXbYbYbYbYbYbZbZbZb4aPaaahaaaaaaahaaaHbzbKbFbHbHbHbHbHbHbHbHbHbHbHbHbHbFbLbsatacacaaaaaaaaaaaaaaaaaaaaaaaaaaaaaaaaaaaaaaahaaaKbNbBbHbHbHbHbHbKaHaaahaaaaaaaaaaaaaaaaaaaeaOaZaVaWaWaWaWaWaWaWaWaWaWaWaWaWaVa0aHaaaeaaaaaaaaaaaaaaaaaaaaaaaaaaaaaaaaaaaaaaaaaaaaaaaaaaaaaaaaaaaaaaaaaaaaaaaaaaaaaaaaaaaaaaaaaa                ",
"                aaaaaaaaaaaaaaaaaaaaaaaaaaaaaaaaaaaaaaaaaaaaaaaaaaaaaaaaaaaaaaaaaaaaaaaaaaaaaaaaaaaaaaaaaaaaaaaaaaaaaaaaaaaaaaaaaaaaaaaaaaaaaaaaaaaaaaaaahaaakaQbWbVbQbQbQbVbVbVbVbVbWbWbWbWbXbXbXbXbYbYbYbYbZbZbZbZbZbZb4aMaaalaaaaaaahaaaMbPbBbHbHbHbHbHbHbHbHbHbHbHbHbHbHbBbSaPaaahaaaaaaaaaaaaaaaaaaaaaaaaaaaaaaaaaaaaaaahaaaMbPbBbHbHbHbHbHbGaHaaaeaaaaaaaaaaaaaaaaacaaaOa0aTaWaWaWaWaWaWaWaWaWaWaWaWaWaSa1aKaaahaaaaaaaaaaaaaaaaaaaaaaaaaaaaaaaaaaaaaaaaaaaaaaaaaaaaaaaaaaaaaaaaaaaaaaaaaaaaaaaaaaaaaaaaaa                ",
"                aaaaaaaaaaaaaaaaaaaaaaaaaaaaaaaaaaaaaaaaaaaaaaaaaaaaaaaaaaaaaaaaaaaaaaaaaaaaaaaaaaaaaaaaaaaaaaaaaaaaaaaaaaaaaaaaaaaaaaaaaaaaaaaaaaaaaaaaaaaeaaaaaKbBbYbQbVbVbVbVbVbWbWbWbWbXbXbXbXbYbYbYbYbZbZbZbZb0b0b0b0b4aMaaakaaaaaaahaaaQbSbBbHbHbHbHbHbHbHbHbHbHbHbHbHbHbKbvataaaeaaaaaaaaaaaaaaaaaaaaaaaaaaaaaaaaaaaaahaaaPbTbBbHbHbHbHbKbAauaaaeaaaaaaaaaaaaaaaaacaaaLa1aTaWaWaWaWaWaWaWaWaWaWaWaWaWaTa0aOaaacaaaaaaaaaaaaaaaaaaaaaaaaaaaaaaaaaaaaaaaaaaaaaaaaaaaaaaaaaaaaaaaaaaaaaaaaaaaaaaaaaaaaaaaaaa                ",
"                aaaaaaaaaaaaaaaaaaaaaaaaaaaaaaaaaaaaaaaaaaaaaaaaaaaaaaaaaaaaaaaaaaaaaaaaaaaaaaaaaaaaaaaaaaaaaaaaaaaaaaaaaaaaaaaaaaaaaaaaaaaaaaaaaaaaaaaaaaaaaaahaaaubgbZbQbVbVbVbWbWbWbWbXbXbXbXbYbYbYbYbZbZbZbZb0b0b0b0b0b3b3aIaaahaaaaacaearbibLbEbHbHbHbHbHbHbHbHbHbHbHbHbHbBbSaPaaahaaaaaaaaaaaaaaaaaaaaaaaaaaaaaaaaaaaaahaaaPbSbBbHbHbHbFbKbwataaacaaaaaaaaaaaaaaaaaeaaaLa1aSaWaWaWaWaWaWaWaWaWaWaWaWaWaVaZaPakaaaaaaaaaaaaaaaaaaaaaaaaaaaaaaaaaaaaaaaaaaaaaaaaaaaaaaaaaaaaaaaaaaaaaaaaaaaaaaaaaaaaaaaaaaaa                ",
"                aaaaaaaaaaaaaaaaaaaaaaaaaaaaaaaaaaaaaaaaaaaaaaaaaaaaaaaaaaaaaaaaaaaaaaaaaaaaaaaaaaaaaaaaaaaaaaaaaaaaaaaaaaaaaaaaaaaaaaaaaaaaaaaaaaaaaaaaaaaaaaaaahaaamaQbZbVbVbWbWbWbWbXbXbXbXbYbYbYbYbZbZbZbZb0b0b0b0b0b3b0b4bVauaaaeaaaaahaaaKbNbBbHbHbHbHbHbHbHbHbHbHbHbHbHbFbLblaraaacaaaaaaaaaaaaaaaaaaaaaaaaaaaaaaaaaaahaaa4bPbBbHbHbHbFbKbparaaacaaaaaaaaaaaaaaaaahaaaKa1aSaWaWaWaWaWaWaWaWaWaWaWaWaWaWaWaRataaacaaaaaaaaaaaaaaaaaaaaaaaaaaaaaaaaaaaaaaaaaaaaaaaaaaaaaaaaaaaaaaaaaaaaaaaaaaaaaaaaaaaaaaaa                ",
"                aaaaaaaaaaaaaaaaaaaaaaaaaaaaaaaaaaaaaaaaaaaaaaaaaaaaaaaaaaaaaaaaaaaaaaaaaaaaaaaaaaaaaaaaaaaaaaaaaaaaaaaaaaaaaaaaaaaaaaaaaaaaaaaaaaaaaaaaaaaaaaaaaaaeaaaaaMbWbXbVbWbWbXbXbXbXbYbYbYbYbZbZbZbZb0b0b0b0b0b3b3b3b0b$btapahacaaaaahaaaQbSbBbHbHbHbHbHbHbHbHbHbHbHbHbHbBbPaMaaahaaaaaaaaaaaaaaaaaaaaaaaaaaaaaaaaaaaaaaa!bNbEbHbHbHbEbMa$ahaaaaaaaaaaaaaaaaaaaaahaaaKa1aSaWaWaWaWaWaWaWaWaWaWaWaWaWaWaVaXauaaacaaaaaaaaaaaaaaaaaaaaaaaaaaaaaaaaaaaaaaaaaaaaaaaaaaaaaaaaaaaaaaaaaaaaaaaaaaaaaaaaaaaaaaaa                ",
"                aaaaaaaaaaaaaaaaaaaaaaaaaaaaaaaaaaaaaaaaaaaaaaaaaaaaaaaaaaaaaaaaaaaaaaaaaaaaaaaaaaaaaaaaaaaaaaaaaaaaaaaaaaaaaaaaaaaaaaaaaaaaaaaaaaaaaaaaaaaaaaaaaaaaacahaaaKbQbYbVbXbXbXbYbYbYbYbYbZbZbZbZb0b0b0b0b0b3b3b3b3b3b0b]a4aaahaaaaaeacatbwbKbFbHbHbHbHbHbHbHbHbHbHbHbHbBbNa!aeacaaaaaaaaaaaaaaaaaaaaaaaaaaaaaaaaacaaarbibLbEbHbHbHbBbPa!aaacaaaaaaaaaaaaaaaaaaahaaaKa1aSaWaWaWaWaWaWaWaWaWaWaWaWaWaWaVa0aIaaahaaaaaaaaaaaaaaaaaaaaaaaaaaaaaaaaaaaaaaaaaaaaaaaaaaaaaaaaaaaaaaaaaaaaaaaaaaaaaaaaaaaaaaaa                ",
"                aaaaaaaaaaaaaaaaaaaaaaaaaaaaaaaaaaaaaaaaaaaaaaaaaaaaaaaaaaaaaaaaaaaaaaaaaaaaaaaaaaaaaaaaaaaaaaaaaaaaaaaaaaaaaaaaaaaaaaaaaaaaaaaaaaaaaaaaaaaaaaaaaaaaaaaaakaaaIbCb0bWbXbXbYbYbYbYbZbZbZbZb0b0b0b0b0b3b3b3b3b3b3b2b2b$aMaaahaaaaahaaaMbSbBbHbHbHbHbHbHbHbHbHbHbHbHbHbFbKaIaaahaaaaaaaaaaaaaaaaaaaaaaaaaaaaaaaeaaaubzbKbFbHbHbHbBbPaQaaahaaaaaaaaaaaaaaaaaaahaaaKa1aSaWaWaWaWaWaWaWaWaWaWaWaWaWaWaSa1aKaaahaaaaaaaaaaaaaaaaaaaaaaaaaaaaaaaaaaaaaaaaaaaaaaaaaaaaaaaaaaaaaaaaaaaaaaaaaaaaaaaaaaaaaaaa                ",
"                aaaaaaaaaaaaaaaaaaaaaaaaaaaaaaaaaaaaaaaaaaaaaaaaaaaaaaaaaaaaaaaaaaaaaaaaaaaaaaaaaaaaaaaaaaaaaaaaaaaaaaaaaaaaaaaaaaaaaaaaaaaaaaaaaaaaaaaaaaaaaaaaaaaaaaaaaaahaaaubxb0bXbYbYbYbYbZbZbZbZb0b0b0b0b0b3b3b3b3b3b3b2b2b2b8bXataeaeaaacaearbcbLbEbHbHbHbHbHbHbHbHbHbHbHbHbBbSaQaaahaaaaaaaaaaaaaaaaaaaaaaaaaaaaaaahaaaKbNbEbHbHbHbHbBbSaPaaahaaaaaaaaaaaaaaaaaaahaaaKa1aSaWaWaWaWaWaWaWaWaWaWaWaWaWaWaTa0aLaaacaaaaaaaaaaaaaaaaaaaaaaaaaaaaaaaaaaaaaaaaaaaaaaaaaaaaaaaaaaaaaaaaaaaaaaaaaaaaaaaaaaaaaaaa                ",
"                aaaaaaaaaaaaaaaaaaaaaaaaaaaaaaaaaaaaaaaaaaaaaaaaaaaaaaaaaaaaaaaaaaaaaaaaaaaaaaaaaaaaaaaaaaaaaaaaaaaaaaaaaaaaaaaaaaaaaaaaaaaaaaaaaaaaaaaaaaaaaaaaaaaaaaaaaaaaahaaatbxb0bXbYbYbZbZbZbZb0b0b0b0b0b3b3b3b3b3b3b2b2b2b4b1b]a!aaahaaaaahaaaMbPbBbHbHbHbHbHbHbHbHbHbHbHbHbFbLbcapaaaaaaaaaaaaaaaaaaaaaaaaaaaaaaaaahaaaMbSbBbHbHbHbHbBbPaKaaahaaaaaaaaaaaaaaaaaaahaaaKa1aSaWaWaWaWaWaWaWaWaWaWaWaWaWaWaTa0aOaaacaaaaaaaaaaaaaaaaaaaaaaaaaaaaaaaaaaaaaaaaaaaaaaaaaaaaaaaaaaaaaaaaaaaaaaaaaaaaaaaaaaaaaaaa                ",
"                aaaaaaaaaaaaaaaaaaaaaaaaaaaaaaaaaaaaaaaaaaaaaaaaaaaaaaaaaaaaaaaaaaaaaaaaaaaaaaaaaaaaaaaaaaaaaaaaaaaaaaaaaaaaaaaaaaaaaaaaaaaaaaaaaaaaaaaaaaaaaaaaaaaaaaaaaaaaaaahaaaubJb0bXbZbZbZb0b0b0b0b0b0b3b3b3b3b3b3b2b2b2b2b2b4b2b$aKaaahaaacacama)bMbFbHbHbHbHbHbHbHbHbHbHbHbHbEbNaIaaahaaaaaaaaaaaaaaaaaaaaaaaaaaaaahaaaQbPbBbHbHbHbHbHbKaHaaahaaaaaaaaaaaaaaaaaaaeaaaLa1aSaWaWaWaWaWaWaWaWaWaWaWaWaWaWaVa0aOaaaaaaaaaaaaaaaaaaaaaaaaaaaaaaaaaaaaaaaaaaaaaaaaaaaaaaaaaaaaaaaaaaaaaaaaaaaaaaaaaaaaaaaaaaaa                ",
"                aaaaaaaaaaaaaaaaaaaaaaaaaaaaaaaaaaaaaaaaaaaaaaaaaaaaaaaaaaaaaaaaaaaaaaaaaaaaaaaaaaaaaaaaaaaaaaaaaaaaaaaaaaaaaaaaaaaaaaaaaaaaaaaaaaaaaaaaaaaaaaaaaaaaaaaaaaaaaaaaahaaaIbYb0bZbZbZb0b0b0b0b0b3b3b3b3b3b3b2b2b2b2b4b4b4b2b$bCamaeacaaahaaaMbSbBbHbHbHbHbHbHbHbHbHbHbHbHbBbSaPaaahaaaaaaaaaaaaaaaaaaaaaaaaaaaaaaaka$bMbEbHbHbHbFbKbsaraaacaaaaaaaaaaaaaaaaaaacaaaLa0aTaWaWaWaWaWaWaWaWaWaWaWaWaWaWaVaZaOacaaaaaaaaaaaaaaaaaaaaaaaaaaaaaaaaaaaaaaaaaaaaaaaaaaaaaaaaaaaaaaaaaaaaaaaaaaaaaaaaaaaaaaaaaa                ",
"                aaaaaaaaaaaaaaaaaaaaaaaaaaaaaaaaaaaaaaaaaaaaaaaaaaaaaaaaaaaaaaaaaaaaaaaaaaaaaaaaaaaaaaaaaaaaaaaaaaaaaaaaaaaaaaaaaaaaaaaaaaaaaaaaaaaaaaaaaaaaaaaaaaaaaaaaaaaaaaaaaaakaaaMb3bYbZb0b0b0b0b0b3b3b3b3b3b3b2b2b2b2b4b4b6b6b4b6b]aMaaahaaacacarbibLbFbHbHbHbHbHbHbHbHbHbHbHbEbOa$akaaaaaaaaaaaaaaaaaaaaaaaaaaaaaeaaaubAbIbHbHbHbHbBbOa!aaacaaaaaaaaaaaaaaaaaaaaacaaaOa0aTaWaWaWaWaWaWaWaWaWaWaWaWaWaWaVaXaRamaaaaaaaaaaaaaaaaaaaaaaaaaaaaaaaaaaaaaaaaaaaaaaaaaaaaaaaaaaaaaaaaaaaaaaaaaaaaaaaaaaaaaaaaaa                ",
"                aaaaaaaaaaaaaaaaaaaaaaaaaaaaaaaaaaaaaaaaaaaaaaaaaaaaaaaaaaaaaaaaaaaaaaaaaaaaaaaaaaaaaaaaaaaaaaaaaaaaaaaaaaaaaaaaaaaaaaaaaaaaaaaaaaaaaaaaaaaaaaaaaaaaaaaaaaaaaaaaaaaaakaaa4b4bZb0b0b0b0b3b3b3b3b3b3b2b2b2b2b4b4b6b6b4b6b6b$bCapacaaaaahaaaPbSbBbHbHbHbHbHbHbHbHbHbHbHbHbHbEaHaaaeaaaaaaaaaaaaaaaaaaaaaaaaahaaaKbPbBbHbHbHbHbBbSaQaaahaaaaaaaaaaaaaaaaaaaaaaaeaOaZaVaWaWaWaWaWaWaWaWaWaWaWaWaWaWaVaXaRamaaaaaaaaaaaaaaaaaaaaaaaaaaaaaaaaaaaaaaaaaaaaaaaaaaaaaaaaaaaaaaaaaaaaaaaaaaaaaaaaaaaaaaaaaa                ",
"                aaaaaaaaaaaaaaaaaaaaaaaaaaaaaaaaaaaaaaaaaaaaaaaaaaaaaaaaaaaaaaaaaaaaaaaaaaaaaaaaaaaaaaaaaaaaaaaaaaaaaaaaaaaaaaaaaaaaaaaaaaaaaaaaaaaaaaaaaaaaaaaaaaaaaaaaaaaaaaaaaaaaacaearbCb3b0b0b0b3b3b3b3b3b3b3b2b2b2b4b4b6b6b4b6b6b6b6b]aMaaakaaaeaaaubzbHbHbHbHbHbHbHbHbHbHbHbHbHbBbPaMaaahaaaaaaaaaaaaaaaaaaaaaaaaahaaaQbSbBbHbHbHbHbBbPaMaaahaaaaaaaaaaaaaaaaaaacaaaraRaXaVaWaWaWaWaWaWaWaWaWaWaWaWaWaWaVaXaRapaaaaaaaaaaaaaaaaaaaaaaaaaaaaaaaaaaaaaaaaaaaaaaaaaaaaaaaaaaaaaaaaaaaaaaaaaaaaaaaaaaaaaaaaaa                ",
"                aaaaaaaaaaaaaaaaaaaaaaaaaaaaaaaaaaaaaaaaaaaaaaaaaaaaaaaaaaaaaaaaaaaaaaaaaaaaaaaaaaaaaaaaaaaaaaaaaaaaaaaaaaaaaaaaaaaaaaaaaaaaaaaaaaaaaaaaaaaaaaaaaaaaaaaaaaaaaaaaaaaaaaahaaaMb4b0b1b3b3b3b3b3b3b3b2b2b2b4b4b6b6b4b6b6b6b8b6b(btacaeaaaaaeaaa4bPbBbHbHbHbHbHbHbHbHbHbHbHbBbSaQaaahaaaaaaaaaaaaaaaaaaaaaaaaaaama,bMbEbHbHbHbHbHbGaHaaahaaaaaaaaaaaaaaaaaaacaaauaTaWaWaWaWaWaWaWaWaWaWaWaWaWaWaWaWaVaXaRapaaaaaaaaaaaaaaaaaaaaaaaaaaaaaaaaaaaaaaaaaaaaaaaaaaaaaaaaaaaaaaaaaaaaaaaaaaaaaaaaaaaaaaaaaa                ",
"                aaaaaaaaaaaaaaaaaaaaaaaaaaaaaaaaaaaaaaaaaaaaaaaaaaaaaaaaaaaaaaaaaaaaaaaaaaaaaaaaaaaaaaaaaaaaaaaaaaaaaaaaaaaaaaaaaaaaaaaaaaaaaaaaaaaaaaaaaaaaaaaaaaaaaaaaaaaaaaaaaaaaaaaaahahbtb$b0b3b3b3b3b3b3b2b2b2b4b4b6b6b4b6b6b6b8b8b7b7b$aIaaahaaahaaaKbPbBbHbHbHbHbHbHbHbHbHbHbHbEbMa$ahaaaaaaaaaaaaaaaaaaaaaaaaahaaaIbKbHbHbHbHbHbFbLa,amaaaaaaaaaaaaaaaaaaaaaaahaaaIa0aVaWaWaWaWaWaWaWaWaWaWaWaWaWaWaWaVaXaRapaaaaaaaaaaaaaaaaaaaaaaaaaaaaaaaaaaaaaaaaaaaaaaaaaaaaaaaaaaaaaaaaaaaaaaaaaaaaaaaaaaaaaaaaaa                ",
"                aaaaaaaaaaaaaaaaaaaaaaaaaaaaaaaaaaaaaaaaaaaaaaaaaaaaaaaaaaaaaaaaaaaaaaaaaaaaaaaaaaaaaaaaaaaaaaaaaaaaaaaaaaaaaaaaaaaaaaaaaaaaaaaaaaaaaaaaaaaaaaaaaaaaaaaaaaaaaaaaaaaaaaaaakaaaMb$b0b3b3b3b3b3b2b2b2b4b4b6b6b4b6b6b6b8b8b7b9b6b]a4aaaiaaacaaarbsbLbFbHbHbHbHbHbHbHbHbHbHbHbKbwataaacaaaaaaaaaaaaaaaaaaaaahaaaPbSbBbHbHbHbHbBbSaQaaahaaaaaaaaaaaaaaaaaaaaahaaaLa1aSaWaWaWaWaWaWaWaWaWaWaWaWaWaWaWaVaXaRamaaaaaaaaaaaaaaaaaaaaaaaaaaaaaaaaaaaaaaaaaaaaaaaaaaaaaaaaaaaaaaaaaaaaaaaaaaaaaaaaaaaaaaaaaa                ",
"                aaaaaaaaaaaaaaaaaaaaaaaaaaaaaaaaaaaaaaaaaaaaaaaaaaaaaaaaaaaaaaaaaaaaaaaaaaaaaaaaaaaaaaaaaaaaaaaaaaaaaaaaaaaaaaaaaaaaaaaaaaaaaaaaaaaaaaaaaaaaaaaaaaaaaaaaaaaaaaaaaaaaaaaaacaaarbVb4b3b3b2b3b2b2b2b4b4b6b6b4b6b6b6b8b8b7b9b9b7b^bQapaaaaaaahaaaQbSbBbHbHbHbHbHbHbHbHbHbHbHbEbNaKaaahaaaaaaaaaaaaaaaaaaaaacaea$bNbBbHbHbHbHbBbPaMaaahaaaaaaaaaaaaaaaaaaaaaaaaaOa0aTaWaWaWaWaWaWaWaWaWaWaWaWaWaWaWaVaXaRamaaaaaaaaaaaaaaaaaaaaaaaaaaaaaaaaaaaaaaaaaaaaaaaaaaaaaaaaaaaaaaaaaaaaaaaaaaaaaaaaaaaaaaaaaa                ",
"                aaaaaaaaaaaaaaaaaaaaaaaaaaaaaaaaaaaaaaaaaaaaaaaaaaaaaaaaaaaaaaaaaaaaaaaaaaaaaaaaaaaaaaaaaaaaaaaaaaaaaaaaaaaaaaaaaaaaaaaaaaaaaaaaaaaaaaaaaaaaaaaaaaaaaaaaaaaaaaaaaaaaaaaaaaahaaa!b$b1b2b3b2b2b2b4b4b6b6b6b6b6b6b8b8b7b9b9b+b-b-b^aJaaahaaahaaaKbPbBbHbHbHbHbHbHbHbHbHbHbHbBbSaMaaahaaaaaaaaaaaaaaaaaaahaaaHbKbHbHbHbHbHbHbKbyauaaacaaaaaaaaaaaaaaaaaaaaaaaraRaXaVaWaWaWaWaWaWaWaWaWaWaWaWaWaWaWaVaZaOadaaaaaaaaaaaaaaaaaaaaaaaaaaaaaaaaaaaaaaaaaaaaaaaaaaaaaaaaaaaaaaaaaaaaaaaaaaaaaaaaaaaaaaaaaa                ",
"                aaaaaaaaaaaaaaaaaaaaaaaaaaaaaaaaaaaaaaaaaaaaaaaaaaaaaaaaaaaaaaaaaaaaaaaaaaaaaaaaaaaaaaaaaaaaaaaaaaaaaaaaaaaaaaaaaaaaaaaaaaaaaaaaaaaaaaaaaaaaaaaaaaaaaaaaaaaaaaaaaaaaaaaaaaakaaaMb$b1b2b2b2b2b4b4b6b6b6b6b6b6b8b8b7b9b9b+b-b<b7b]aQaaalaaacaaatbvbKbFbHbHbHbHbHbHbHbHbHbHbBbSaQaaahaaaaaaaaaaaaaaaaaaahaaaPbSbBbHbHbHbHbBbNa!aaacaaaaaaaaaaaaaaaaaaaaacaaaHaZaVaWaWaWaWaWaWaWaWaWaWaWaWaWaWaWaWaVa0aOaaaaaaaaaaaaaaaaaaaaaaaaaaaaaaaaaaaaaaaaaaaaaaaaaaaaaaaaaaaaaaaaaaaaaaaaaaaaaaaaaaaaaaaaaaaa                ",
"                aaaaaaaaaaaaaaaaaaaaaaaaaaaaaaaaaaaaaaaaaaaaaaaaaaaaaaaaaaaaaaaaaaaaaaaaaaaaaaaaaaaaaaaaaaaaaaaaaaaaaaaaaaaaaaaaaaaaaaaaaaaaaaaaaaaaaaaaaaaaaaaaaaaaaaaaaaaaaaaaaaaaaaaaaaahaaaKb4b2b2b2b2b4b4b6b6b6b6b6b6b8b6b7b9b9b+b-b<b>b-cgbgaaaeaaaaacaaa!bNbBbHbHbHbHbHbHbHbHbHbHbBbNa!aaacaaaaaaaaaaaaaaaaaaaaapbcbLbFbHbHbHbHbBbSaPaaahaaaaaaaaaaaaaaaaaaaaahaaaLa1aSaWaWaWaWaWaWaWaWaWaWaWaWaWaWaWaWaTa0aOaaacaaaaaaaaaaaaaaaaaaaaaaaaaaaaaaaaaaaaaaaaaaaaaaaaaaaaaaaaaaaaaaaaaaaaaaaaaaaaaaaaaaaaaaaa                ",
"                aaaaaaaaaaaaaaaaaaaaaaaaaaaaaaaaaaaaaaaaaaaaaaaaaaaaaaaaaaaaaaaaaaaaaaaaaaaaaaaaaaaaaaaaaaaaaaaaaaaaaaaaaaaaaaaaaaaaaaaaaaaaaaaaaaaaaaaaaaaaaaaaaaaaaaaaaaaaaaaaaaaaaaaaaaaeaaaubZb4b2b2b4b4b6b6b6b6b6b6b8b6b7b9b9b+b-b<b>b>b*b(bXaraaacaaahaaaPbSbBbHbHbHbHbHbHbHbHbHbHbEbLbcapaaacaaaaaaaaaaaaaaahaaaKbNbBbHbHbHbHbHbHbGaHaaahaaaaaaaaaaaaaaaaaaaaaaaeaOaZaVaWaWaWaWaWaWaWaWaWaWaWaWaWaWaWaWaVa0aLaaacaaaaaaaaaaaaaaaaaaaaaaaaaaaaaaaaaaaaaaaaaaaaaaaaaaaaaaaaaaaaaaaaaaaaaaaaaaaaaaaaaaaaaaaa                ",
"                aaaaaaaaaaaaaaaaaaaaaaaaaaaaaaaaaaaaaaaaaaaaaaaaaaaaaaaaaaaaaaaaaaaaaaaaaaaaaaaaaaaaaaaaaaaaaaaaaaaaaaaaaaaaaaaaaaaaaaaaaaaaaaaaaaaaaaaaaaaaaaaaaaaaaaaaaaaaaaaaaaaaaaaaaaaeaaatbXb4b2b4b4b6b4b6b6b6b6b8b6b7b9b9b+b-b<b>b=b=b%b%b!aHaaahaaahaaaKbNbEbHbHbHbHbHbHbHbHbHbHbFbKbvataaacaaaaaaaaaaaaaaaeaaa4bPbBbHbHbHbHbBbNa$ahaaaaaaaaaaaaaaaaaaaaaaacaaataTaWaWaWaWaWaWaWaWaWaWaWaWaWaWaWaWaWaWaSa1aLaaahaaaaaaaaaaaaaaaaaaaaaaaaaaaaaaaaaaaaaaaaaaaaaaaaaaaaaaaaaaaaaaaaaaaaaaaaaaaaaaaaaaaaaaaa                ",
"                aaaaaaaaaaaaaaaaaaaaaaaaaaaaaaaaaaaaaaaaaaaaaaaaaaaaaaaaaaaaaaaaaaaaaaaaaaaaaaaaaaaaaaaaaaaaaaaaaaaaaaaaaaaaaaaaaaaaaaaaaaaaaaaaaaaaaaaaaaaaaaaaaaaaaaaaaaaaaaaaaaaaaaaaaaacaaatbXb8b4b4b6b4b6b6b6b6b8b6b7b9b9b+b-b<b>b=b=b%b%b!cgaMaaaiaaacaaatbwbKbFbHbHbHbHbHbHbHbHbHbHbHbKaHaaaeaaaaaaaaaaaaahaaaHbGbHbHbHbHbHbHbBbSaPaaahaaaaaaaaaaaaaaaaaaaaahaaaKa1aSaWaWaWaWaWaWaWaWaWaWaWaWaWaWaWaWaWaSa1aKaaahaaaaaaaaaaaaaaaaaaaaaaaaaaaaaaaaaaaaaaaaaaaaaaaaaaaaaaaaaaaaaaaaaaaaaaaaaaaaaaaaaaaaaaaa                ",
"                aaaaaaaaaaaaaaaaaaaaaaaaaaaaaaaaaaaaaaaaaaaaaaaaaaaaaaaaaaaaaaaaaaaaaaaaaaaaaaaaaaaaaaaaaaaaaaaaaaaaaaaaaaaaaaaaaaaaaaaaaaaaaaaaaaaaaaaaaaaaaaaaaaaaaaaaaaaaaaaaaaaaaaaaaaaeaaatbXb8b6b6b4b6b6b6b6b8b6b7b9b9b+b-b<b>b=b!b%b%b@b*cgaQaaalaaaaaaaea$bObEbHbHbHbHbHbHbHbHbHbHbEbNaKaaahaaaaaaaaaaaaahaaaQbSbBbHbHbHbHbHbHbGaHaaahaaaaaaaaaaaaaaaaaaaaaaahaOaZaVaWaWaWaWaWaWaWaWaWaWaWaWaWaWaWaWaWaVa0aIaaacaaaaaaaaaaaaaaaaaaaaaaaaaaaaaaaaaaaaaaaaaaaaaaaaaaaaaaaaaaaaaaaaaaaaaaaaaaaaaaaaaaaaaaaa                ",
"                aaaaaaaaaaaaaaaaaaaaaaaaaaaaaaaaaaaaaaaaaaaaaaaaaaaaaaaaaaaaaaaaaaaaaaaaaaaaaaaaaaaaaaaaaaaaaaaaaaaaaaaaaaaaaaaaaaaaaaaaaaaaaaaaaaaaaaaaaaaaaaaaaaaaaaaaaaaaaaaaaaaaaaaaaaaeaaaHb0b8b2b4b6b6b6b6b8b6b7b9b9b-b-b<b>b=b!b%b%b@b@b*cga4aaalaaaaahaaaQbPbBbHbHbHbHbHbHbHbHbHbHbBbPaMaaahaaaaaaaaaaaeacaubDbIbHbHbHbHbHbBbNa!acacaaaaaaaaaaaaaaaaaaaaacaaauaXaVaWaWaWaWaWaWaWaWaWaWaWaWaWaWaWaWaWaWaWaXauaaacaaaaaaaaaaaaaaaaaaaaaaaaaaaaaaaaaaaaaaaaaaaaaaaaaaaaaaaaaaaaaaaaaaaaaaaaaaaaaaaaaaaaaaaa                ",
"                aaaaaaaaaaaaaaaaaaaaaaaaaaaaaaaaaaaaaaaaaaaaaaaaaaaaaaaaaaaaaaaaaaaaaaaaaaaaaaaaaaaaaaaaaaaaaaaaaaaaaaaaaaaaaaaaaaaaaaaaaaaaaaaaaaaaaaaaaaaaaaaaaaaaaaaaaaaaaaaaaaaaaaaaaaahaaaKb$b2b4b6b6b6b8b8b6b7b9b9b-b-b<b>b=b!b%b%b@b@b&b!cga_aaaiaaaaahaaaMbSbBbHbHbHbHbHbHbHbHbHbHbBbUaPaaahaaaaaaaaaaahaaaQbSbBbHbHbHbHbHbBbPaMaaahaaaaaaaaaaaaaaaaaaaaaeaaaLa1aSaWaWaWaWaWaWaWaWaWaWaWaWaWaWaWaWaWaWaXaRaraaacaaaaaaaaaaaaaaaaaaaaaaaaaaaaaaaaaaaaaaaaaaaaaaaaaaaaaaaaaaaaaaaaaaaaaaaaaaaaaaaaaaaaaaaa                ",
"                aaaaaaaaaaaaaaaaaaaaaaaaaaaaaaaaaaaaaaaaaaaaaaaaaaaaaaaaaaaaaaaaaaaaaaaaaaaaaaaaaaaaaaaaaaaaaaaaaaaaaaaaaaaaaaaaaaaaaaaaaaaaaaaaaaaaaaaaaaaaaaaaaaaaaaaaaaaaaaaaaaaaaaaaaaakaaaPb^b2b6b6b6b8b8b6b7b9b9b-b-b<b>b=b!b%b%b@b@b&b)b@cgbgaaahaaaaahaaaKbNbBbHbHbHbHbHbHbHbHbHbHbBbPaQaaahaaaaaaaaahaaaHbGbIbHbHbHbHbHbFbKbtataaacaaaaaaaaaaaaaaaaaaaaaaaraRaXaWaWaWaWaWaWaWaWaWaWaWaWaWaWaWaWaWaWaVaZaOacaaaaaaaaaaaaaaaaaaaaaaaaaaaaaaaaaaaaaaaaaaaaaaaaaaaaaaaaaaaaaaaaaaaaaaaaaaaaaaaaaaaaaaaaaaaa                ",
"                aaaaaaaaaaaaaaaaaaaaaaaaaaaaaaaaaaaaaaaaaaaaaaaaaaaaaaaaaaaaaaaaaaaaaaaaaaaaaaaaaaaaaaaaaaaaaaaaaaaaaaaaaaaaaaaaaaaaaaaaaaaaaaaaaaaaaaaaaaaaaaaaaaaaaaaaaaaaaaaaaaaaaaaaaaahaaa_b(b6b6b6b8b8b7b7b9b9b-b-b>b>b=b!b%b%b@b@b&b)b)b/cgbCaaaeaaaaaeaaaHbKbHbHbHbHbHbHbHbHbHbHbHbBbPa4aaaeaaaaaaaaahaaa4bPbBbHbHbHbHbHbBbSaQaaahaaaaaaaaaaaaaaaaaaaaadaaaKa1aVaWaWaWaWaWaWaWaWaWaWaWaWaWaWaWaWaWaWaTa0aLaaacaaaaaaaaaaaaaaaaaaaaaaaaaaaaaaaaaaaaaaaaaaaaaaaaaaaaaaaaaaaaaaaaaaaaaaaaaaaaaaaaaaaaaaaaaa                ",
"                aaaaaaaaaaaaaaaaaaaaaaaaaaaaaaaaaaaaaaaaaaaaaaaaaaaaaaaaaaaaaaaaaaaaaaaaaaaaaaaaaaaaaaaaaaaaaaaaaaaaaaaaaaaaaaaaaaaaaaaaaaaaaaaaaaaaaaaaaaaaaaaaaaaaaaaaaaaaaaaaaaaaaaaaacaaarbXb<b6b6b8b8b7b7b9b9b-b-b>b>b=b!b%b%b@b&b&b)b)b[b/cgbCaaacaaaaacaaatbvbKbFbHbHbHbHbHbHbHbHbHbEbNa$aeaaaaaaaaahaaaMbPbBbHbHbHbHbHbHbFbLaIaaahaaaaaaaaaaaaaaaaaaaaaaakaPaXaVaWaWaWaWaWaWaWaWaWaWaWaWaWaWaWaWaWaWaSa1aKaaahaaaaaaaaaaaaaaaaaaaaaaaaaaaaaaaaaaaaaaaaaaaaaaaaaaaaaaaaaaaaaaaaaaaaaaaaaaaaaaaaaaaaaaaaaa                ",
"                aaaaaaaaaaaaaaaaaaaaaaaaaaaaaaaaaaaaaaaaaaaaaaaaaaaaaaaaaaaaaaaaaaaaaaaaaaaaaaaaaaaaaaaaaaaaaaaaaaaaaaaaaaaaaaaaaaaaaaaaaaaaaaaaaaaaaaaaaaaaaaaaaaaaaaaaaaaaaaaaaaaaaaaaakaaaMb(b6b6b8b8b7b7b9b9b-b-b>b>b=b!b%b!b@b&b&b)b)b[b}b/cgbCaaacaaaaacaaarbibLbEbHbHbHbHbHbHbHbHbHbFbKbsaraaacaaaeaaatbvbLbFbHbHbHbHbHbBbNa!acacaaaaaaaaaaaaaaaaaaaaadaaaIa0aUaWaWaWaWaWaWaWaWaWaWaWaWaWaWaWaWaWaWaWaVa0aIaaaeaaaaaaaaaaaaaaaaaaaaaaaaaaaaaaaaaaaaaaaaaaaaaaaaaaaaaaaaaaaaaaaaaaaaaaaaaaaaaaaaaaaaaaaaaa                ",
"                aaaaaaaaaaaaaaaaaaaaaaaaaaaaaaaaaaaaaaaaaaaaaaaaaaaaaaaaaaaaaaaaaaaaaaaaaaaaaaaaaaaaaaaaaaaaaaaaaaaaaaaaaaaaaaaaaaaaaaaaaaaaaaaaaaaaaaaaaaaaaaaaaaaaaaaaaaaaaaaaaaaaaaaaaeaabgb^b2b8b8b7b9b9b9b-b-b>b>b=b%b%b!b@b&b&b)b)b[b}b}b#cgbCaaaeaaaaaaaaaea$bNbEbHbHbHbHbHbHbHbHbHbHbIbGaHaaaeaeaeaha!bPbBbHbHbHbHbHbHbBbPaMaaahaaaaaaaaaaaaaaaaaaaaacahaOaZaTaWaWaWaWaWaWaWaWaWaWaWaWaWaWaWaWaWaWaWaWaSataaacaaaaaaaaaaaaaaaaaaaaaaaaaaaaaaaaaaaaaaaaaaaaaaaaaaaaaaaaaaaaaaaaaaaaaaaaaaaaaaaaaaaaaaaaaa                ",
"                aaaaaaaaaaaaaaaaaaaaaaaaaaaaaaaaaaaaaaaaaaaaaaaaaaaaaaaaaaaaaaaaaaaaaaaaaaaaaaaaaaaaaaaaaaaaaaaaaaaaaaaaaaaaaaaaaaaaaaaaaaaaaaaaaaaaaaaaaaaaaaaaaaaaaaaaaaaaaaaaaaaaaaahaaaKb$b6b8b8b7b9b9b+b-b-b>b>b=b%b%b!b@b&b&b)b)b[b}b}b}b#cgbgaaahaaaaaaacaaa!bPbBbHbHbHbHbHbHbHbHbHbHbBbSaMaaapaaaaaQbSbBbHbHbHbHbHbHbFbLbcaraaacaaaaaaaaaaaaaaaaaaadaaaIa0aVaWaWaWaWaWaWaWaWaWaWaWaWaWaWaWaWaWaWaWaVaZaOahaaaaaaaaaaaaaaaaaaaaaaaaaaaaaaaaaaaaaaaaaaaaaaaaaaaaaaaaaaaaaaaaaaaaaaaaaaaaaaaaaaaaaaaaaaaaaa                ",
"                aaaaaaaaaaaaaaaaaaaaaaaaaaaaaaaaaaaaaaaaaaaaaaaaaaaaaaaaaaaaaaaaaaaaaaaaaaaaaaaaaaaaaaaaaaaaaaaaaaaaaaaaaaaaaaaaaaaaaaaaaaaaaaaaaaaaaaaaaaaaaaaaaaaaaaaaaaaaaaaaaaaaaaahacbgb^b6b8b7b9b9b+b-b-b>b>b=b%b%b!b@b&b&b)b)b[b}b}b}b:b#cga_aaaiaaaaaaahaaa4bPbBbHbHbHbHbHbHbHbHbHbHbEbNa!aaaaaraQbSbBbHbHbHbHbHbHbHbBbSaMaaahaaaaaaaaaaaaaaaaaaaaacahaOa0aTaWaWaWaWaWaWaWaWaWaWaWaWaWaWaWaWaWaWaWaSa1aLaaaeaaaaaaaaaaaaaaaaaaaaaaaaaaaaaaaaaaaaaaaaaaaaaaaaaaaaaaaaaaaaaaaaaaaaaaaaaaaaaaaaaaaaaaaaaaaa                ",
"                aaaaaaaaaaaaaaaaaaaaaaaaaaaaaaaaaaaaaaaaaaaaaaaaaaaaaaaaaaaaaaaaaaaaaaaaaaaaaaaaaaaaaaaaaaaaaaaaaaaaaaaaaaaaaaaaaaaaaaaaaaaaaaaaaaaaaaaaaaaaaaaaaaaaaaaaaaaaaaaaaaaaahaaaMb(b6b8b7b9b9b+b-b<b>b>b=b%b%b@b@b&b&b)b)b}b}b}b}b:b;b/cka4aaaiaaaaaaahaaaQbPbBbHbHbHbHbHbHbHbHbHbHbHbFbMa4aPa,bPbBbHbHbHbHbHbHbHbFbKbtataaacaaaaaaaaaaaaaaaaaaadaaaIa0aSaWaWaWaWaWaWaWaWaWaWaWaWaWaWaWaWaWaWaWaWaVa0aIaaahaaaaaaaaaaaaaaaaaaaaaaaaaaaaaaaaaaaaaaaaaaaaaaaaaaaaaaaaaaaaaaaaaaaaaaaaaaaaaaaaaaaaaaaaaaaa                ",
"                aaaaaaaaaaaaaaaaaaaaaaaaaaaaaaaaaaaaaaaaaaaaaaaaaaaaaaaaaaaaaaaaaaaaaaaaaaaaaaaaaaaaaaaaaaaaaaaaaaaaaaaaaaaaaaaaaaaaaaaaaaaaaaaaaaaaaaaaaaaaaaaaaaaaaaaaaaaaaaaaaaaeacatbXb$b6b7b9b9b+b-b<b>b>b=b%b%b@b@b&b&b)b)b}b}b}b}b:b;b;b#ckaQaaalaaaaaaahaaaPbSbBbHbHbHbHbHbHbHbHbHbHbHbHbFbNbSbLbBbHbHbHbHbHbHbHbHbBbSaPaaahaaaaaaaaaaaaaaaaaaaaacakaPaZaVaWaWaWaWaWaWaWaWaWaWaWaWaWaWaWaWaWaWaWaWaWaSataaacaaaaaaaaaaaaaaaaaaaaaaaaaaaaaaaaaaaaaaaaaaaaaaaaaaaaaaaaaaaaaaaaaaaaaaaaaaaaaaaaaaaaaaaaaaaa                ",
"                aaaaaaaaaaaaaaaaaaaaaaaaaaaaaaaaaaaaaaaaaaaaaaaaaaaaaaaaaaaaaaaaaaaaaaaaaaaaaaaaaaaaaaaaaaaaaaaaaaaaaaaaaaaaaaaaaaaaaaaaaaaaaaaaaaaaaaaaaaaaaaaaaaaaaaaaaaaaaaaaaaakaaa_b]b6b7b9b9b+b-b<b>b>b=b%b%b@b@b&b&b)b)b}b}b}b}b:b;b;b;b|ckaMaaaiaaaaaaahaaaPbSbBbHbHbHbHbHbHbHbHbHbHbHbHbHbBbBbEbHbHbHbHbHbHbHbHbHbKbwataaaeaaaaaaaaaaaaaaaaaaacaaaKa1aSaWaWaWaWaWaWaWaWaWaWaWaWaWaWaWaWaWaWaWaWaTa0aOacaaaaaaaaaaaaaaaaaaaaaaaaaaaaaaaaaaaaaaaaaaaaaaaaaaaaaaaaaaaaaaaaaaaaaaaaaaaaaaaaaaaaaaaaaaaaaaaa                ",
"                aaaaaaaaaaaaaaaaaaaaaaaaaaaaaaaaaaaaaaaaaaaaaaaaaaaaaaaaaaaaaaaaaaaaaaaaaaaaaaaaaaaaaaaaaaaaaaaaaaaaaaaaaaaaaaaaaaaaaaaaaaaaaaaaaaaaaaaaaaaaaaaaaaaaaaaaaaaaaaaaalaaaQb]b6b7b9b9b+b-b<b>b=b=b%b%b@b@b&b&b)b)b}b}b}b;b:b;b;b~b~b_cgaJaaahaaaaaaahaaaPbSbBbHbHbHbHbHbHbHbHbHbHbHbHbHbHbHbHbHbHbHbHbHbHbHbHbBbSaPaaahaaaaaaaaaaaaaaaaaaacacaraRaXaWaWaWaWaWaWaWaWaWaWaWaWaWaWaWaWaWaWaWaWaWaSa1aLaaaeaaaaaaaaaaaaaaaaaaaaaaaaaaaaaaaaaaaaaaaaaaaaaaaaaaaaaaaaaaaaaaaaaaaaaaaaaaaaaaaaaaaaaaaaaaaaaa                ",
"                aaaaaaaaaaaaaaaaaaaaaaaaaaaaaaaaaaaaaaaaaaaaaaaaaaaaaaaaaaaaaaaaaaaaaaaaaaaaaaaaaaaaaaaaaaaaaaaaaaaaaaaaaaaaaaaaaaaaaaaaaaaaaaaaaaaaaaaaaaaaaaaaaaaaaaaaaaaaaaakaaaKb$b7b7b9b9b+b-b<b>b=b!b%b%b@b@b&b)b)b)b}b}b}b;b:b;b;b~b~b_cdb*ataaaeaaaaaaahaaaPbSbBbHbHbHbHbHbHbHbHbHbHbHbHbHbHbHbHbHbHbHbHbHbHbHbHbKbwatacaeaaaaaaaaaaaaaaaaaaacaaaLa1aSaWaWaWaWaWaWaWaWaWaWaWaWaWaWaWaWaWaWaWaWaWaWaXauaaacaaaaaaaaaaaaaaaaaaaaaaaaaaaaaaaaaaaaaaaaaaaaaaaaaaaaaaaaaaaaaaaaaaaaaaaaaaaaaaaaaaaaaaaaaaaaaa                ",
"                alaaaaaaaaaaaaaaaaaaaaaaaaaaaaaaaaaaaaaaaaaaaaaaaaaaaaaaaaaaaaaaaaaaaaaaaaaaaaaaaaaaaaaaaaaaaaaaaaaaaaaaaaaaaaaaaaaaaaaaaaaaaaaaaaaaaaaaaaaaaaaaaaaaaaaaaaaaakaaaIb2b<b7b9b9b+b-b<b>b=b!b%b%b@b@b&b)b)b)b}b}b}b;b:b;b;b~b~b_b|cgbValaaaaaaaaaaahaaaPbSbBbHbHbHbHbHbHbHbHbHbHbHbHbHbHbHbHbHbHbHbHbHbHbHbBbSaPaaahaaaaaaaaaaaaaaaaaaacaaataTaWaWaWaWaWaWaWaWaWaWaWaWaWaWaWaWaWaWaWaWaWaWaVaXaRakaaaaaaaaaaaaaaaaaaaaaaaaaaaaaaaaaaaaaaaaaaaaaaaaaaaaaaaaaaaaaaaaaaaaaaaaaaaaaaaaaaaaaaaaaaaaaaaaal                ",
"                aoaaaaaaaaaaaaaaaaaaaaaaaaaaaaaaaaaaaaaaaaaaaaaaaaaaaaaaaaaaaaaaaaaaaaaaaaaaaaaaaaaaaaaaaaaaaaaaaaaaaaaaaaaaaaaaaaaaaaaaaaaaaaaaaaaaaaaaaaaaaaaaaaaaaaaaaaakaaaHbYb^b7b9b9b-b-b<b>b=b!b%b%b@b@b&b)b)b[b}b}b}b;b:b;b;b~b`b_b_b|cka_aaaiaaaaaaaaahaaaPbSbBbHbHbHbHbHbHbHbHbHbHbHbHbHbHbHbHbHbHbHbHbHbHbFbKbtatacaeaaaaaaaaaaaaaaaaaaacaaaOa0aVaWaWaWaWaWaWaWaWaWaWaWaWaWaWaWaWaWaWaWaWaWaSa1aLaaaeaaaaaaaaaaaaaaaaaaaaaaaaaaaaaaaaaaaaaaaaaaaaaaaaaaaaaaaaaaaaaaaaaaaaaaaaaaaaaaaaaaaaaaaaaaaaaaao                ",
"                anaaaaaaaaaaaaaaaaaaaaaaaaaaaaaaaaaaaaaaaaaaaaaaaaaaaaaaaaaaaaaaaaaaaaaaaaaaaaaaaaaaaaaaaaaaaaaaaaaaaaaaaaaaaaaaaaaaaaaaaaaaaaaaaaaaaaaaaaaaaaaaaaaaaaaaakaaaHbXb^b7b9b9b-b-b<b>b=b!b%b%b@b@b&b)b)b[b}b}b}b;b:b;b;b~b`b_b_cbb|ckaQaaalaaaaaaaaahaaaQbSbBbHbHbHbHbHbHbHbHbHbHbHbHbHbHbHbHbHbHbHbHbHbHbBbSaMaaahaaaaaaaaaaaaaaaaaaacaaaIa0aUaWaWaWaWaWaWaWaWaWaWaWaWaWaWaWaWaWaWaWaWaWaWaVaXauaaacaaaaaaaaaaaaaaaaaaaaaaaaaaaaaaaaaaaaaaaaaaaaaaaaaaaaaaaaaaaaaaaaaaaaaaaaaaaaaaaaaaaaaaaaaaaaaaan                ",
"                aoaaaaaaaaaaaaaaaaaaaaaaaaaaaaaaaaaaaaaaaaaaaaaaaaaaaaaaaaaaaaaaaaaaaaaaaaaaaaaaaaaaaaaaaaaaaaaaaaaaaaaaaaaaaaaaaaaaaaaaaaaaaaaaaaaaaaaaaaaaaaaaaaaaaaalaaaHbXb^b7b9b9b-b-b>b>b=b!b%b%b@b@b&b)b)b[b}b}b}b:b:b;b;b~b`b_b_cbcdcdchaKaaaiaaaaaaaaahaaaQbPbBbHbHbHbHbHbHbHbHbHbHbHbHbHbHbHbHbHbHbHbHbHbEbLbcaraeacaaaaaaaaaaaaaaaaacacamaRaZaVaWaWaWaWaWaWaWaWaWaWaWaWaWaWaWaWaWaWaWaWaWaVaZaOakaaaaaaaaaaaaaaaaaaaaaaaaaaaaaaaaaaaaaaaaaaaaaaaaaaaaaaaaaaaaaaaaaaaaaaaaaaaaaaaaaaaaaaaaaaaaaaaaaaao                ",
"                aoaaaaaaaaaaaaaaaaaaaaaaaaaaaaaaaaaaaaaaaaaaaaaaaaaaaaaaaaaaaaaaaaaaaaaaaaaaaaaaaaaaaaaaaaaaaaaaaaaaaaaaaaaaaaaaaaaaaaaaaaaaaaaaaaaaaaaaaaaaaaaaaaaaalaaaKb1b^b7b9b9b-b-b>b>b=b!b%b%b@b@b&b)b)b[b}b}b}b;b:b;b;b~b`b_b_cbcdb?cjb1araaacaaaaaaaaahaaa4bPbBbHbHbHbHbHbHbHbHbHbHbHbHbHbHbHbHbHbHbHbHbHbBbPaMaaahaaaaaaaaaaaaaaaaaaacaaaLa1aSaWaWaWaWaWaWaWaWaWaWaWaWaWaWaWaWaWaWaWaWaWaWaSa1aKaaahaaaaaaaaaaaaaaaaaaaaaaaaaaaaaaaaaaaaaaaaaaaaaaaaaaaaaaaaaaaaaaaaaaaaaaaaaaaaaaaaaaaaaaaaaaaaaaaaao                ",
"                aoaaaaaaaaaaaaaaaaaaaaaaaaaaaaaaaaaaaaaaaaaaaaaaaaaaaaaaaaaaaaaaaaaaaaaaaaaaaaaaaaaaaaaaaaaaaaaaaaaaaaaaaaaaaaaaaaaaaaaaaaaaaaaaaaaaaaaaaaaaaaaaacahaaaMb2b%b6b9b9b-b-b>b>b=b!b%b!b@b&b&b)b)b[b}b}b}b:b:b;b;b~b_b_b_cbcdcdb_ckbgaaahaaaaaaaaaaacaaa!bPbBbHbHbHbHbHbHbHbHbHbHbHbHbHbHbHbHbHbHbHbHbBbNa!ahaeaaaaaaaaaaaaaaaaaaacaaauaXaWaWaWaWaWaWaWaWaWaWaWaWaWaWaWaWaWaWaWaWaWaWaWaWaWaSataaacaaaaaaaaaaaaaaaaaaaaaaaaaaaaaaaaaaaaaaaaaaaaaaaaaaaaaaaaaaaaaaaaaaaaaaaaaaaaaaaaaaaaaaaaaaaaaaaaao                ",
"                aoaaaaaaaaaaaaaaaaaaaaaaaaaaaaaaaaaaaaaaaaaaaaaaaaaaaaaaaaaaaaaaaaaaaaaaaaaaaaaaaaaaaaaaaaaaaaaaaaaaaaaaaaaaaaaaaaaaaaaaaaaaaaaaaaaaaaaaaaaaaaaeaaaaaQb^b<b7b9b9b-b-b>b>b=b!b%b!b@b&b&b)b)b[b}b}b}b:b:b;b;b~b_b_b_cbcdcdceb_ckaNaaalaaaaaaaaaaaaaca$bNbEbHbHbHbHbHbHbHbHbHbHbHbHbHbHbHbHbHbHbHbHbEbLaIaaahaaaaaaaaaaaaaaaaaaacacaOa0aTaWaWaWaWaWaWaWaWaWaWaWaWaWaWaWaWaWaWaWaWaWaWaTa0aOaaacaaaaaaaaaaaaaaaaaaaaaaaaaaaaaaaaaaaaaaaaaaaaaaaaaaaaaaaaaaaaaaaaaaaaaaaaaaaaaaaaaaaaaaaaaaaaaaaaaaao                ",
"                aqaaaaaaaaaaaaaaaaaaaaaaaaaaaaaaaaaaaaaaaaaaaaaaaaaaaaaaaaaaaaaaaaaaaaaaaaaaaaaaaaaaaaaaaaaaaaaaaaaaaaaaaaaaaaaaaaaaaaaaaaaaaaaaaaaaaaaaaaaaahaaama!b]b7b7b9b9b-b-b>b>b=b%b%b!b@b&b&b)b)b[b}b}b}b:b:b;b;b~b_b_b_cbcdcdcecechb#aHaaaeaaaaaaaaacaaapbcbLbEbHbHbHbHbHbHbHbHbHbHbHbHbHbHbHbHbHbHbHbBbSaQaaahaaaaaaaaaaaaaaaaaaacaaaIa1aSaWaWaWaWaWaWaWaWaWaWaWaWaWaWaWaWaWaWaWaWaWaWaWaVaZaHaaacaaaaaaaaaaaaaaaaaaaaaaaaaaaaaaaaaaaaaaaaaaaaaaaaaaaaaaaaaaaaaaaaaaaaaaaaaaaaaaaaaaaaaaaaaaaaaaaaaaaq                ",
"                asaaaaaaaaaaaaaaaaaaaaaaaaaaaaaaaaaaaaaaaaaaaaaaaaaaaaaaaaaaaaaaaaaaaaaaaaaaaaaaaaaaaaaaaaaaaaaaaaaaaaaaaaaaaaaaaaaaaaaaaaaaaaaaaaaaaaaaaaaiaaaubxb]b7b7b9b+b-b-b>b>b=b%b%b!b@b&b&b)b)b[b}b}b}b:b;b;b;b~b_b_b_cbcdcdceceb_ckbCaaaeaaaaaaaaaaacaaatbubKbFbHbHbHbHbHbHbHbHbHbHbHbHbHbHbHbHbHbHbFbKbvatacaeaaaaaaaaaaaaaaaaacaaaraRaXaVaWaWaWaWaWaWaWaWaWaWaWaWaWaWaWaWaWaWaWaWaWaWaVaZaOahacaaaaaaaaaaaaaaaaaaaaaaaaaaaaaaaaaaaaaaaaaaaaaaaaaaaaaaaaaaaaaaaaaaaaaaaaaaaaaaaaaaaaaaaaaaaaaaaaaaaaas                ",
"                asaaaaaaaaaaaaaaaaaaaaaaaaaaaaaaaaaaaaaaaaaaaaaaaaaaaaaaaaaaaaaaaaaaaaaaaaaaaaaaaaaaaaaaaaaaaaaaaaaaaaaaaaaaaaaaaaaaaaaaaaaaaaaaaaaaaaaeaeaaaMbZb(b6b9b9b+b-b<b>b>b=b%b%b@b@b&b&b)b)b}b}b}b}b:b;b;b;b~b_b_b_cccdcdcececeb?ckaNaaalaaaaaaaaaaaeaaaubAbIbHbHbHbHbHbHbHbHbHbHbHbHbHbHbHbHbHbHbHbBbSaMaaahaaaaaaaaaaaaaaaaaaaeaaaLa1aSaWaWaWaWaWaWaWaWaWaWaWaWaWaWaWaWaWaWaWaWaWaWaWaSa1aIaaadaaaaaaaaaaaaaaaaaaaaaaaaaaaaaaaaaaaaaaaaaaaaaaaaaaaaaaaaaaaaaaaaaaaaaaaaaaaaaaaaaaaaaaaaaaaaaaaaaaaaas                ",
"                asaaaaaaaaaaaaaaaaaaaaaaaaaaaaaaaaaaaaaaaaaaaaaaaaaaaaaaaaaaaaaaaaaaaaaaaaaaaaaaaaaaaaaaaaaaaaaaaaaaaaaaaaaaaaaaaaaaaaaaaaaaaaaaaaaaahaaacaQb$b$b6b9b9b+b-b<b>b>b=b%b%b@b@b&b&b)b)b}b}b}b}b:b;b;b;b~b_b_b_cccdcdcececececjb/ataaaeaaaaaaaaaaahaaaIbLbEbHbHbHbHbHbHbHbHbHbHbHbHbHbHbHbHbHbHbBbNa!ahahaaaaaaaaaaaaaaaaaaacaaauaXaVaWaWaWaWaWaWaWaWaWaWaWaWaWaWaWaWaWaWaWaWaWaWaWaVaXaRakaaaaaaaaaaaaaaaaaaaaaaaaaaaaaaaaaaaaaaaaaaaaaaaaaaaaaaaaaaaaaaaaaaaaaaaaaaaaaaaaaaaaaaaaaaaaaaaaaaaaaaaaas                ",
"                avaaaaaaaaaaaaaaaaaaaaaaaaaaaaaaaaaaaaaaaaaaaaaaaaaaaaaaaaaaaaaaaaaaaaaaaaaaaaaaaaaaaaaaaaaaaaaaaaaaaaaaaaaaaaaaaaaaaaaaaaaaaaaaacahaaaubgb]b7b7b9b9b+b-b<b>b>b=b%b%b@b@b&b&b)b)b}b}b}b}b:b;b;b~b~b_b_b_cccdcdcececececacka_aaaiaaaaaaaaaaaaahaaaKbPbBbHbHbHbHbHbHbHbHbHbHbHbHbHbHbHbHbHbFbIbGaHaaaeaaaaaaaaaaaaaaaaaaacaeaOa0aTaWaWaWaWaWaWaWaWaWaWaWaWaWaWaWaWaWaWaWaWaWaWaWaSa1aKaaaeaaaaaaaaaaaaaaaaaaaaaaaaaaaaaaaaaaaaaaaaaaaaaaaaaaaaaaaaaaaaaaaaaaaaaaaaaaaaaaaaaaaaaaaaaaaaaaaaaaaaaaav                ",
"                avaaaaaaaaaaaaaaaaaaaaaaaaaaaaaaaaaaaaaaaaaaaaaaaaaaaaaaaaaaaaaaaaaaaaaaaaaaaaaaaaaaaaaaaaaaaaaaaaaaaaaaaaaaaaaaaaaaaaaaaaaaaaahaaaaaMbYb]b6b7b9b9b+b-b<b>b=b=b%b%b@b@b&b&b)b)b}b}b}b}b:b;b;b~b`b_b_b_cccdcdcecececechcackaKaaaiaaaaaaaaaaaaahaaaMbUbBbHbHbHbHbHbHbHbHbHbHbHbHbHbHbHbHbHbBbTaPaaahaaaaaaaaaaaaaaaaaaacaaaIa0aSaWaWaWaWaWaWaWaWaWaWaWaWaWaWaWaWaWaWaWaWaWaWaWaVaZaPamacaaaaaaaaaaaaaaaaaaaaaaaaaaaaaaaaaaaaaaaaaaaaaaaaaaaaaaaaaaaaaaaaaaaaaaaaaaaaaaaaaaaaaaaaaaaaaaaaaaaaaaaaav                ",
"                awaaaaaaaaaaaaaaaaaaaaaaaaaaaaaaaaaaaaaaaaaaaaaaaaaaaaaaaaaaaaaaaaaaaaaaaaaaaaaaaaaaaaaaaaaaaaaaaaaaaaaaaaaaaaaaaaaaaaaaaaaaakaaapa4b^b$b6b7b9b9b+b-b<b>b=b=b%b%b@b@b&b&b)b)b}b}b}b}b:b;b;b~b`b_b_b_cccdcdcecececechcackbValaeaaaaaaaaaaaaaaahaaaQbSbBbHbHbHbHbHbHbHbHbHbHbHbHbHbHbHbHbBbNa$amahacaaaaaaaaaaaaaaaaaaacamaRaZaVaWaWaWaWaWaWaWaWaWaWaWaWaWaWaWaWaWaWaWaWaWaWaWaSa1aIaaadaaaaaaaaaaaaaaaaaaaaaaaaaaaaaaaaaaaaaaaaaaaaaaaaaaaaaaaaaaaaaaaaaaaaaaaaaaaaaaaaaaaaaaaaaaaaaaaaaaaaaaaaaw                ",
"                awaaaaaaaaaaaaaaaaaaaaaaaaaaaaaaaaaaaaaaaaaaaaaaaaaaaaaaaaaaaaaaaaaaaaaaaaaaaaaaaaaaaaaaaaaaaaaaaaaaaaaaaaaaaaaaaaaaaaaaaeaeaaaIbCb]b6b6b7b9b9b+b-b<b>b=b!b%b%b@b@b&b)b)b)b}b}b}b;b:b;b;b~b~b_b_b_cccdcdcecececechchcackaNaaalaaaaaaaaaaaaaaacaaa!bNbBbHbHbHbHbHbHbHbHbHbHbHbHbHbHbHbHbIbGaHaaaeaaaaaaaaaaaaaaaaaaadaaaKa1aUaWaWaWaWaWaWaWaWaWaWaWaWaWaWaWaWaWaWaWaWaWaWaWaTa0aOahacaaaaaaaaaaaaaaaaaaaaaaaaaaaaaaaaaaaaaaaaaaaaaaaaaaaaaaaaaaaaaaaaaaaaaaaaaaaaaaaaaaaaaaaaaaaaaaaaaaaaaaaaaaaw                ",
"                awaaaaaaaaaaaaaaaaaaaaaaaaaaaaaaaaaaaaaaaaaaaaaaaaaaaaaaaaaaaaaaaaaaaaaaaaaaaaaaaaaaaaaaaaaaaaaaaaaaaaaaaaaaaaaaaaaaaaaiaaaaaQb4b^b2b7b7b9b9b-b-b<b>b=b!b%b%b@b@b&b)b)b)b}b}b}b;b:b;b;b~b~b_b_b_cccdcdcecececechchcackb1aracaaaaaaaaaaaaaaaaaaapbcbLbEbHbHbHbHbHbHbHbHbHbHbHbHbHbHbHbBbTaMaaahaaaaaaaaaaaaaaaaaaaaaaaraRaXaWaWaWaWaWaWaWaWaWaWaWaWaWaWaWaWaWaWaWaWaWaWaWaWaVaXauaaacaaaaaaaaaaaaaaaaaaaaaaaaaaaaaaaaaaaaaaaaaaaaaaaaaaaaaaaaaaaaaaaaaaaaaaaaaaaaaaaaaaaaaaaaaaaaaaaaaaaaaaaaaaaw                ",
"                azaaaaaaaaaaaaaaaaaaaaaaaaaaaaaaaaaaaaaaaaaaaaaaaaaaaaaaaaaaaaaaaaaaaaaaaaaaaaaaaaaaaaaaaaaaaaaaaaaaaaaaaaaaaaaaaaacaiaaaubgb]b8b6b7b7b9b9b-b-b<b>b=b!b%b%b@b@b&b)b)b[b}b}b}b;b:b;b;b~b`b_b_cbcccdcdcecececechchchcackaQaaalaaaaaaaaaaaaaaacaaaubAbKbFbHbHbHbHbHbHbHbHbHbHbHbHbHbHbBbPa!ahahaaaaaaaaaaaaaaaaaaaaahaaaKa1aSaWaWaWaWaWaWaWaWaWaWaWaWaWaWaWaWaWaWaWaWaWaWaWaSa1aLaaaeaaaaaaaaaaaaaaaaaaaaaaaaaaaaaaaaaaaaaaaaaaaaaaaaaaaaaaaaaaaaaaaaaaaaaaaaaaaaaaaaaaaaaaaaaaaaaaaaaaaaaaaaaaaaaz                ",
"                aAaaaaaaaaaaaaaaaaaaaaaaaaaaaaaaaaaaaaaaaaaaaaaaaaaaaaaaaaaaaaaaaaaaaaaaaaaaaaaaaaaaaaaaaaaaaaaaaaaaaaaaaaaaaaaaaeaaaaaMbXb(b6b6b7b7b9b9b-b-b<b>b=b!b%b%b@b@b&b)b)b[b}b}b}b;b:b;b;b~b`b_b_cbcdcdcdcecececfchchcfcfckb1araeacaaaaaaaaaaaaaaahaaaIbLbEbHbHbHbHbHbHbHbHbHbHbHbHbHbHbFbKbwauaaaeaaaaaaaaaaaaaaaaaaaaaaakaOaZaVaWaWaWaWaWaWaWaWaWaWaWaWaWaWaWaWaWaWaWaWaWaWaVaXaRaracacaaaaaaaaaaaaaaaaaaaaaaaaaaaaaaaaaaaaaaaaaaaaaaaaaaaaaaaaaaaaaaaaaaaaaaaaaaaaaaaaaaaaaaaaaaaaaaaaaaaaaaaaaaaaaA                ",
"                azaaaaaaaaaaaaaaaaaaaaaaaaaaaaaaaaaaaaaaaaaaaaaaaaaaaaaaaaaaaaaaaaaaaaaaaaaaaaaaaaaaaaaaaaaaaaaaaaaaaaaaaaaaaaahaaama4b$b<b2b8b7b7b9b9b-b-b>b>b=b!b%b%b@b@b&b)b)b[b}b}b}b;b:b;b;b~b`b_b_cbcdcdcdcecececfchchcfchcackaNaaaiaaaaaaaaaaaaaaaaahaaaMbPbBbHbHbHbHbHbHbHbHbHbHbHbHbHbHbBbNaKaaahaaaaaaaaaaaaaaaaaaaaacaaaHaZaVaWaWaWaWaWaWaWaWaWaWaWaWaWaWaWaWaWaWaWaWaWaWaWaTa0aIaaacaaaaaaaaaaaaaaaaaaaaaaaaaaaaaaaaaaaaaaaaaaaaaaaaaaaaaaaaaaaaaaaaaaaaaaaaaaaaaaaaaaaaaaaaaaaaaaaaaaaaaaaaaaaaaaaz                ",
"                azaaaaaaaaaaaaaaaaaaaaaaaaaaaaaaaaaaaaaaaaaaaaaaaaaaaaaaaaaaaaaaaaaaaaaaaaaaaaaaaaaaaaaaaaaaaaaaaaaaaaaaaaaaahaaaHbxb]b6b6b8b7b7b9b9b-b-b>b>b=b!b%b%b@b&b&b)b)b[b}b}b}b;b:b;b;b~b~b_b_cbcdcdcdcecececfchchcfchcfckbXapaeacaaaaaaaaaaaaaaaaahaaaQbSbBbHbHbHbHbHbHbHbHbHbHbHbHbHbBbTaQaaahaaaaaaaaaaaaaaaaaaaaaaaeaaaLa1aSaWaWaWaWaWaWaWaWaWaWaWaWaWaWaWaWaWaWaWaWaWaWaSa1aLaaadaaaaaaaaaaaaaaaaaaaaaaaaaaaaaaaaaaaaaaaaaaaaaaaaaaaaaaaaaaaaaaaaaaaaaaaaaaaaaaaaaaaaaaaaaaaaaaaaaaaaaaaaaaaaaaaaaz                ",
"                azaaaaaaaaaaaaaaaaaaaaaaaaaaaaaaaaaaaaaaaaaaaaaaaaaaaaaaaaaaaaaaaaaaaaaaaaaaaaaaaaaaaaaaaaaaaaaaaaaaaaaaacaeaaaMb1b^b6b8b8b7b7b9b9b-b-b>b>b=b!b%b!b@b&b&b)b)b[b}b}b}b:b:b;b;b~b_b_b_cbcdcdcececececfchchcfchcjcackaMaaaiaaaaaaaaaaaaaaaaaaacaaa!bNbBbHbHbHbHbHbHbHbHbHbHbHbHbBbPa!amahacaaaaaaaaaaaaaaaaaaaaaaaaakaPaXaVaWaWaWaWaWaWaWaWaWaWaWaWaWaWaWaWaWaWaWaWaWaTaZaRaracacaaaaaaaaaaaaaaaaaaaaaaaaaaaaaaaaaaaaaaaaaaaaaaaaaaaaaaaaaaaaaaaaaaaaaaaaaaaaaaaaaaaaaaaaaaaaaaaaaaaaaaaaaaaaaaaaaz                ",
"                aDaaaaaaaaaaaaaaaaaaaaaaaaaaaaaaaaaaaaaaaaaaaaaaaaaaaaaaaaaaaaaaaaaaaaaaaaaaaaaaaaaaaaaaaaaaaaaaaaaaaaaeaaaaaQb$b<b2b8b8b7b9b9b9b-b-b>b>b=b!b%b!b@b&b&b)b)b[b}b}b}b:b:b;b;b~b_b_b_cbcdcdcececececfchchcfchcjcackbgaaaiaaaaaaaaaaaaaaaaaaacaaarblbLbFbHbHbHbHbHbHbHbHbHbHbHbEbLbvataaaeaaaaaaaaaaaaaaaaaaaaaaacaaataSaWaWaWaWaWaWaWaWaWaWaWaWaWaWaWaWaWaWaWaWaWaWaVaWaXauaaacaaaaaaaaaaaaaaaaaaaaaaaaaaaaaaaaaaaaaaaaaaaaaaaaaaaaaaaaaaaaaaaaaaaaaaaaaaaaaaaaaaaaaaaaaaaaaaaaaaaaaaaaaaaaaaaaaaaD                ",
"                  aaaaaaaaaaaaaaaaaaaaaaaaaaaaaaaaaaaaaaaaaaaaaaaaaaaaaaaaaaaaaaaaaaaaaaaaaaaaaaaaaaaaaaaaaaaaaaaaaaahaaapa_b]b6b6b8b8b7b9b9b9b-b-b>b>b=b%b%b!b@b&b&b)b)b[b}b}b}b:b:b;b;b~b_b_b_cbcdcdcececececfchchcfchcjcfcjcaaHacafaaaaaaaaaaaaaaaaaaaeaaaHbGbHbHbHbHbHbHbHbHbHbHbHbHbFbHbKaKaaahaaaaaaaaaaaaaaaaaaaaaaaaacaaaHaZaVaWaWaWaWaWaWaWaWaWaWaWaWaWaWaWaWaWaWaWaWaWaVa0aIaaadaaaaaaaaaaaaaaaaaaaaaaaaaaaaaaaaaaaaaaaaaaaaaaaaaaaaaaaaaaaaaaaaaaaaaaaaaaaaaaaaaaaaaaaaaaaaaaaaaaaaaaaaaaaaaaaaaaaa                  ",
"                  aaaaaaaaaaaaaaaaaaaaaaaaaaaaaaaaaaaaaaaaaaaaaaaaaaaaaaaaaaaaaaaaaaaaaaaaaaaaaaaaaaaaaaaaaaaaaaaaahaaatbtb]b2b6b8b8b7b9b9b+b-b-b>b>b=b%b%b!b@b&b&b)b)b[b}b}b}b:b;b;b;b~b_b_b_cbcdcdcececececfchchcfchcjcjcackaQaaalaaaaaaaaaaaaaaaaaaaaahaaaKbPbBbHbHbHbHbHbHbHbHbHbHbHbBbPaMaaahaaaaaaaaaaaaaaaaaaaaaaaaaaacaaaHa0aVaWaWaWaWaWaWaWaWaWaWaWaWaWaWaWaWaWaWaWaWaSa1aLaaahaaaaaaaaaaaaaaaaaaaaaaaaaaaaaaaaaaaaaaaaaaaaaaaaaaaaaaaaaaaaaaaaaaaaaaaaaaaaaaaaaaaaaaaaaaaaaaaaaaaaaaaaaaaaaaaaaaaaaa                  ",
"                  aaaaaaaaaaaaaaaaaaaaaaaaaaaaaaaaaaaaaaaaaaaaaaaaaaaaaaaaaaaaaaaaaaaaaaaaaaaaaaaaaaaaaaaaaaaaaaaeaaatbCb]b1b6b8b8b7b9b9b+b-b-b>b>b=b%b%b!b@b&b&b)b)b}b}b}b}b:b;b;b;b~b_b_b_cccdcdcecececechchchcfchcjcjcackbCahaiaaaaaaaaaaaaaaaaaaaaaaahaaaPbSbBbHbHbHbHbHbHbHbHbHbHbBbTaQaaahaaaaaaaaaaaaaaaaaaaaaaaaaaaaacaaauaXaVaWaWaWaWaWaWaWaWaWaWaWaWaWaWaWaWaWaWaWaSa1aLaaaeaaaaaaaaaaaaaaaaaaaaaaaaaaaaaaaaaaaaaaaaaaaaaaaaaaaaaaaaaaaaaaaaaaaaaaaaaaaaaaaaaaaaaaaaaaaaaaaaaaaaaaaaaaaaaaaaaaaaaaaa                  ",
"                  aaaaaaaaaaaaaaaaaaaaaaaaaaaaaaaaaaaaaaaaaaaaaaaaaaaaaaaaaaaaaaaaaaaaaaaaaaaaaaaaaaaaaaaaaaaaaeaaatbCb^b1b8b8b6b7b9b9b+b-b<b>b>b=b%b%b@b@b&b&b)b)b}b}b}b}b:b;b;b~b~b_b_b_cccdcdcecececechchchcfchcjcjcfcjb_aHaaahaaaaaaaaaaaaaaaaaaaaaaaeaaa4bPbBbHbHbHbHbHbHbHbHbHbBbSa4ahahaaaaaaaaaaaaaaaaaaaaaaaaaaaaaaacaaaraRaWaWaWaWaWaWaWaWaWaWaWaWaWaWaWaWaWaWaWaUa1aLaaacaaaaaaaaaaaaaaaaaaaaaaaaaaaaaaaaaaaaaaaaaaaaaaaaaaaaaaaaaaaaaaaaaaaaaaaaaaaaaaaaaaaaaaaaaaaaaaaaaaaaaaaaaaaaaaaaaaaaaaaaaa                  ",
"                  alaaaaaaaaaaaaaaaaaaaaaaaaaaaaaaaaaaaaaaaaaaaaaaaaaaaaaaaaaaaaaaaaaaaaaaaaaaaaaaaaaaaaaaaaacaharbxb]b1b8b8b6b7b9b9b+b-b<b>b>b=b%b%b@b@b&b&b)b)b}b}b}b}b:b;b;b~b~b_b_b_cccdcdcecececechchchcfchcjcjcjcfckaNaaaiaaaaaaaaaaaaaaaaaaaaaaaaaaama,bMbEbHbHbHbHbHbHbHbHbBbPa$araaacaaaaaaaaaaaaaaaaaaaaaaaaaaaaaaaaacaaaOa0aSaWaWaWaWaWaWaWaWaWaWaWaWaWaWaWaVaWa1aLaaacacaaaaaaaaaaaaaaaaaaaaaaaaaaaaaaaaaaaaaaaaaaaaaaaaaaaaaaaaaaaaaaaaaaaaaaaaaaaaaaaaaaaaaaaaaaaaaaaaaaaaaaaaaaaaaaaaaaaaaaaaal                  ",
"                  avaaaaaaaaaaaaaaaaaaaaaaaaaaaaaaaaaaaaaaaaaaaaaaaaaaaaaaaaaaaaaaaaaaaaaaaaaaaaaaaaaaaaaaaaaiaaa!b]b1b8b8b6b7b9b9b+b-b<b>b=b=b%b%b@b@b&b&b)b)b}b}b}b}b:b;b;b~b`b_b_b_cccdcdcecececechchcfcfchcjcjcjcacka_aaalaaaaaaaaaaaaaaaaaaaaaaaaacaaatbwbKbHbHbHbHbHbHbHbHbBbNa,ataaaeaaaaaaaaaaaaaaaaaaaaaaaaaaaaaaaaaaacaaaHa0aUaWaWaWaWaWaWaWaWaWaWaWaWaWaWaSaZaXaKaaacaaaaaaaaaaaaaaaaaaaaaaaaaaaaaaaaaaaaaaaaaaaaaaaaaaaaaaaaaaaaaaaaaaaaaaaaaaaaaaaaaaaaaaaaaaaaaaaaaaaaaaaaaaaaaaaaaaaaaaaaaaaaav                  ",
"                  avaaaaaaaaaaaaaaaaaaaaaaaaaaaaaaaaaaaaaaaaaaaaaaaaaaaaaaaaaaaaaaaaaaaaaaaaaaaaaaaaaaaaaaahaaaMb]b6b8b8b6b7b9b9b+b-b<b>b=b=b%b%b@b@b&b&b)b)b}b}b}b;b:b;b;b~b~b_b_b_cccdcdcecececechchcfchchcjcjcjcackbCapaiacaaaaaaaaaaaaaaaaaaaaaaaaahaaaIbNbEbHbHbHbHbHbHbHbBbObhauaaaeaaaaaaaaaaaaaaaaaaaaaaaaaaaaaaaaaaaaaaacaaaLa1aUaTaWaWaWaWaWaWaWaWaWaWaSaWa1aRaHaaacaaaaaaaaaaaaaaaaaaaaaaaaaaaaaaaaaaaaaaaaaaaaaaaaaaaaaaaaaaaaaaaaaaaaaaaaaaaaaaaaaaaaaaaaaaaaaaaaaaaaaaaaaaaaaaaaaaaaaaaaaaaaaaav                  ",
"                  avaaaaaaaaaaaaaaaaaaaaaaaaaaaaaaaaaaaaaaaaaaaaaaaaaaaaaaaaaaaaaaaaaaaaaaaaaaaaaaaaaaaaaaaaarbQb$b6b8b6b7b9b9b+b-b<b>b=b!b%b%b@b@b&b)b)b)b}b}b}b;b:b;b;b~b~b_b_b_cccdcdcecececechchcfchchcjcjcjcfckb/auaaaeaaaaaaaaaaaaaaaaaaaaaaaaaaahaaaMbPbBbHbHbHbHbHbHbBbNblauaaahaaaaaaaaaaaaaaaaaaaaaaaaaaaaaaaaaaaaaaaaaaacahaLa1aZaVaSaTaVaVaVaVaTaUaWa1aXaLaraaacaaaaaaaaaaaaaaaaaaaaaaaaaaaaaaaaaaaaaaaaaaaaaaaaaaaaaaaaaaaaaaaaaaaaaaaaaaaaaaaaaaaaaaaaaaaaaaaaaaaaaaaaaaaaaaaaaaaaaaaaaaaaaaaaav                  ",
"                  awaaaaaaaaaaaaaaaaaaaaaaaaaaaaaaaaaaaaaaaaaaaaaaaaaaaaaaaaaaaaaaaaaaaaaaaaaaaaaaaaaaaaakaaaMb]b6b8b6b7b9b9b+b-b<b>b=b!b%b%b@b@b&b)b)b)b}b}b}b;b:b;b;b~b`b_b_cbcccdcdcecececechchcfchcjcjcjcjcfckcfaJaaaiaaaaaaaaaaaaaaaaaaaaaaaaaaaaahaaaPbSbBbHbHbHbHbHbzbNbfauaaahaaaaaaaaaaaaaaaaaaaaaaaaaaaaaaaaaaaaaaaaaaaaaaaaaaaIaOaXa1a0aZaZaZa0a1a1aRaLauaaaaacaaaaaaaaaaaaaaaaaaaaaaaaaaaaaaaaaaaaaaaaaaaaaaaaaaaaaaaaaaaaaaaaaaaaaaaaaaaaaaaaaaaaaaaaaaaaaaaaaaaaaaaaaaaaaaaaaaaaaaaaaaaaaaaaaaaw                  ",
"                  awaaaaaaaaaaaaaaaaaaaaaaaaaaaaaaaaaaaaaaaaaaaaaaaaaaaaaaaaaaaaaaaaaaaaaaaaaaaaaaaaaaaaaeaabgb(b6b6b7b9b9b-b-b<b>b=b!b%b%b@b@b&b)b)b[b}b}b}b;b:b;b;b~b`b_b_cbcdcdcdcecececfchchcfchcjcjcjcjcjcjcjaMaaalaaaaaaaaaaaaaaaaaaaaaaaaaaaaaaahaaaQbPbBbHbHbHbHbBbSa)ataaahaaaaaaaaaaaaaaaaaaaaaaaaaaaaaaaaaaaaaaaaaaaaaaaaaaacaaacauaKaOaOaOaOaOaLaIaraaaaacacaaaaaaaaaaaaaaaaaaaaaaaaaaaaaaaaaaaaaaaaaaaaaaaaaaaaaaaaaaaaaaaaaaaaaaaaaaaaaaaaaaaaaaaaaaaaaaaaaaaaaaaaaaaaaaaaaaaaaaaaaaaaaaaaaaaaaw                  ",
"                  aAaaaaaaaaaaaaaaaaaaaaaaaaaaaaaaaaaaaaaaaaaaaaaaaaaaaaaaaaaaaaaaaaaaaaaaaaaaaaaaaaaaacaaapbVb$b6b7b9b9b-b-b<b>b=b!b%b%b@b@b&b)b)b[b}b}b}b;b:b;b;b~b`b_b_cbcdcdcdcecececfchchcfchcjcjcjcjcjcjckaMaaalaaaaaaaaaaaaaaaaaaaaaaaaaaaaaaaaaeaaa4bPbBbHbHbEbBbUa4araaahaaaaaaaaaaaaaaaaaaaaaaaaaaaaaaaaaaaaaaaaaaaaaaaaaaaaaaacaaaaaaaaaaakakaaaaaaaaacacaaaaaaaaaaaaaaaaaaaaaaaaaaaaaaaaaaaaaaaaaaaaaaaaaaaaaaaaaaaaaaaaaaaaaaaaaaaaaaaaaaaaaaaaaaaaaaaaaaaaaaaaaaaaaaaaaaaaaaaaaaaaaaaaaaaaaaaaaA                  ",
"                  azaaaaaaaaaaaaaaaaaaaaaaaaaaaaaaaaaaaaaaaaaaaaaaaaaaaaaaaaaaaaaaaaaaaaaaaaaaaaaaaaaaacaaarbZb>b7b9b9b-b-b>b>b=b!b%b%b@b@b&b)b)b[b}b}b}b;b:b;b;b~b`b_b_cbcdcdcdcecececfchchcfchcjcjcjcjcfcjckaNaaalaaaaaaaaaaaaaaaaaaaaaaaaaaaaaaaaaaaeaaa4bNbBbEbBbLbNaPahaaaeaaaaaaaaaaaaaaaaaaaaaaaaaaaaaaaaaaaaaaaaaaaaaaaaaaaaaaaaaaaaacahacaaaaaaaaaeahacaaaaaaaaaaaaaaaaaaaaaaaaaaaaaaaaaaaaaaaaaaaaaaaaaaaaaaaaaaaaaaaaaaaaaaaaaaaaaaaaaaaaaaaaaaaaaaaaaaaaaaaaaaaaaaaaaaaaaaaaaaaaaaaaaaaaaaaaaaaaaz                  ",
"                  aAaaaaaaaaaaaaaaaaaaaaaaaaaaaaaaaaaaaaaaaaaaaaaaaaaaaaaaaaaaaaaaaaaaaaaaaaaaaaaaaaaaacaaapbVb%b7b9b-b-b>b>b=b!b%b%b@b&b&b)b)b[b}b}b}b;b:b;b;b~b~b_b_cbcdcdcececececfchchcfchcjcjcjcjcfckcjaMaaalaaaaaaaaaaaaaaaaaaaaaaaaaaaaaaaaaaaaahaaaQbUbBbLbSbiaKaaaaaeaaaaaaaaaaaaaaaaaaaaaaaaaaaaaaaaaaaaaaaaaaaaaaaaaaaaaaaaaaaaaaaaaaaaaaaaaaaaaaaaaaaaaaaaaaaaaaaaaaaaaaaaaaaaaaaaaaaaaaaaaaaaaaaaaaaaaaaaaaaaaaaaaaaaaaaaaaaaaaaaaaaaaaaaaaaaaaaaaaaaaaaaaaaaaaaaaaaaaaaaaaaaaaaaaaaaaaaaaaaaaaaA                  ",
"                    aaaaaaaaaaaaaaaaaaaaaaaaaaaaaaaaaaaaaaaaaaaaaaaaaaaaaaaaaaaaaaaaaaaaaaaaaaaaaaaaaaaaahaaa_b]b7b-b-b>b>b=b!b%b%b@b&b&b)b)b[b}b}b}b:b:b;b;b~b_b_b_cbcdcdcececececfchchcfchcjcjcjcjcackcaaMaaalaaaaaaaaaaaaaaaaaaaaaaaaaaaaaaaaaaaaaaacaaaHbsbGbcaParaaahaaaaaaaaaaaaaaaaaaaaaaaaaaaaaaaaaaaaaaaaaaaaaaaaaaaaaaaaaaaaaaaaaaaaaaaaaaaaaaaaaaaaaaaaaaaaaaaaaaaaaaaaaaaaaaaaaaaaaaaaaaaaaaaaaaaaaaaaaaaaaaaaaaaaaaaaaaaaaaaaaaaaaaaaaaaaaaaaaaaaaaaaaaaaaaaaaaaaaaaaaaaaaaaaaaaaaaaaaaaaaaaaaa                    ",
"                    afaaaaaaaaaaaaaaaaaaaaaaaaaaaaaaaaaaaaaaaaaaaaaaaaaaaaaaaaaaaaaaaaaaaaaaaaaaaaaaaaaaaiaaaMb]b7b<b>b>b=b!b%b!b@b&b&b)b)b[b}b}b}b:b:b;b;b~b_b_b_cbcdcdcececececfchchcfchcjcjcjcjcackb1aJaaalaaaaaaaaaaaaaaaaaaaaaaaaaaaaaaaaaaaaaaaaaaaaaaaraHamaaaaahaaaaaaaaaaaaaaaaaaaaaaaaaaaaaaaaaaaaaaaaaaaaaaaaaaaaaaaaaaaaaaaaaaaaaaaaaaaaaaaaaaaaaaaaaaaaaaaaaaaaaaaaaaaaaaaaaaaaaaaaaaaaaaaaaaaaaaaaaaaaaaaaaaaaaaaaaaaaaaaaaaaaaaaaaaaaaaaaaaaaaaaaaaaaaaaaaaaaaaaaaaaaaaaaaaaaaaaaaaaaaaaaaaaf                    ",
"                    avaaafaaaaaaaaaaaaaaaaaaaaaaaaaaaaaaaaaaaaaaaaaaaaaaaaaaaaaaaaaaaaaaaaaaaaaaaaaaaaaaaaaeaebgb]b7b=b=b%b%b!b@b&b&b)b)b[b}b}b}b:b;b;b;b~b_b_b_cbcdcdcececececfchchcfchcjcjcjcfcjckbCayabaqaoaoaoalaaaaaaaaaaaaaaaaalaoaoaoaoaoanacaaaaaaacaaaaaaalaoaoaoaoaoaoaiaaaaaaaaaaaaaaaaanaoaoaoaoaoanaaaaaaaaaaaaaaaaafaoaoaoaoaoaoaiaaaaaaaaaaaaaaaaaaaaaaaaaaaaaaaaaaaaaaaaaaaaaaaaaaaaaaaaaaaaaaaaaaaaaaaaaaaaaaaaaaaaaaaaaaaaaaaaaaaaaaaaaaaaaaaaaaaaaaaaaaaaaaaaaaaaaaaaaaaaaaaaaaaaaaafaaav                    ",
"                    awaaaaaaaaaaaaaaaaaaaaaaaaaaaaaaaaaaaaaaaaaaaaaaaaaaaaaaaaaaaaaaaaaaaaaaaaaaaaaaaaaaaaahaaaub1b:b7b%b%b!b@b&b&b)b)b[b}b}b}b:b;b;b;b~b_b_b_cbcdcdcececececfchchcfchcjcjcjcackckaQaaaaaaaaaaaaaaaaaaaaaaaaaaaaaaaaaaaaaaaaaaaaaaaaaaaaaaaaacacaaaaaaaaaaaaaaaaaaaaaaaaaaaaaaaaaaaaaaaaaaaaaaaaaaaaaaaaaaaaaaaaaaaaaaaaaaaaaaaaaaaaaaaaaaaaaaaaaaaaaaaaaaaaaaaaaaaaaaaaaaaaaaaaaaaaaaaaaaaaaaaaaaaaaaaaaaaaaaaaaaaaaaaaaaaaaaaaaaaaaaaaaaaaaaaaaaaaaaaaaaaaaaaaaaaaaaaaaaaaaaaaaaaaaaaaaaaw                    ",
"                    azaaaaaaaaaaaaaaaaaaaaaaaaaaaaaaaaaaaaaaaaaaaaaaaaaaaaaaaaaaaaaaaaaaaaaaaaaaaaaaaaaaaaaaahaaaJb1b]b-b!b@b&b&b)b)b}b}b}b}b:b;b;b;b~b_b_b_cccdcdcececececfchchcfchcjcjcacjckbXaKaaavbjb5b5b5b5b5aNaaafaaaaaaaaafaaa=b5b5b5b5b5bjasaaacaaaaaaafaaazbjb5b5b5b5b5aNaaafaaaaaaaaaeaaa=b5b5b5b5b5bjaqaaaaaaaaaaafaaaJb5b5b5b5b5b5aJaaafaaaaaaaaaaaaaaaaaaaaaaaaaaaaaaaaaaaaaaaaaaaaaaaaaaaaaaaaaaaaaaaaaaaaaaaaaaaaaaaaaaaaaaaaaaaaaaaaaaaaaaaaaaaaaaaaaaaaaaaaaaaaaaaaaaaaaaaaaaaaaaaaaaaaaaaz                    ",
"                    aAaaaaaaaaaaaaaaaaaaaaaaaaaaaaaaaaaaaaaaaaaaaaaaaaaaaaaaaaaaaaaaaaaaaaaaaaaaaaaaaaaaaaaaaaahaaaHbCcgb)b*b&b)b)b}b}b}b}b:b;b;b;b~b_b_b_cccdcdcecececechchchcfchcjcacfckcfa4araaaibjcscrcscscrcsclafaeacaaaaafaaascmcscscscscscsa=aaanaaaaaaaoaabjcscrcscscrcsclaaaiaaaaaaafaaaycncscscscscscsaNaaalaaaaaaanaacicscrcscscrcsciaaalaaaaaaaaaaaaaaaaaaaaaaaaaaaaaaaaaaaaaaaaaaaaaaaaaaaaaaaaaaaaaaaaaaaaaaaaaaaaaaaaaaaaaaaaaaaaaaaaaaaaaaaaaaaaaaaaaaaaaaaaaaaaaaaaaaaaaaaaaaaaaaaaaaaaaaaA                    ",
"                    aCaaaaaaaaaaaaaaaaaaaaaaaaaaaaaaaaaaaaaaaaaaaaaaaaaaaaaaaaaaaaaaaaaaaaaaaaaaaaaaaaaaaaaaaaaaahaaapaQb-cgb}b!b#b}b}b}b:b;b;b~b`b_b_b_cccdcdcecececechchchcfchcacjckckbgaIaaaaaoaabjcrcmcmcmcmcqclaiaaacaaaaafaaasclcpcmcmcmcmcra=aaanaaaaaaaoaab5crcmcmcmcmcqclaaafaaaaaaafaaaDcmcocmcmcmcmcqaNaaalaaaaaaanaacicrcmcmcmcmcrciaaalaaaaaaaaaaaaaaaaaaaaaaaaaaaaaaaaaaaaaaaaaaaaaaaaaaaaaaaaaaaaaaaaaaaaaaaaaaaaaaaaaaaaaaaaaaaaaaaaaaaaaaaaaaaaaaaaaaaaaaaaaaaaaaaaaaaaaaaaaaaaaaaaaaaaaaaC                    ",
"                      aaaaaaaaaaaaaaaaaaaaaaaaaaaaaaaaaaaaaaaaaaaaaaaaaaaaaaaaaaaaaaaaaaaaaaaaaaaaaaaaaaaaaaaaaaaaaeaaaaaHa_b7ckcgb{b/b{b{b;b;b`b_b_b_cccdcdcecececechchcacacfckckcjbgaKaaaaaiacaoaabjcscmcpcpcncrclaiaaacaaaaafaaasclcqcocpcpcncra=aaanaaaaaaaoaab5cscmcpcpcncrclaaafaaaaaaafaaaDcmcqcocpcpcocqaNaaalaaaaaaanaacicscmcpcpcmcrciaaalaaaaaaaaaaaaaaaaaaaaaaaaaaaaaaaaaaaaaaaaaaaaaaaaaaaaaaaaaaaaaaaaaaaaaaaaaaaaaaaaaaaaaaaaaaaaaaaaaaaaaaaaaaaaaaaaaaaaaaaaaaaaaaaaaaaaaaaaaaaaaaaaaaaaaa                      ",
"                      asaaafaaaaaaaaaaaaaaaaaaaaaaaaaaaaaaaaaaaaaaaaaaaaaaaaaaaaaaaaaaaaaaaaaaaaaaaaaaaaaaaaaaaaaaaaacaiaaaaaHaQbQb:ckcgcbb;b|b|b|b|b_b?b_b_b_b_b?b?cachckckckb7a_aJaaaaahaeaaaaaoaabjcscmcpcpcncrclaiaaacaaaaafaaasclcqcocpcpcncra=aaanaaaaaaaoaab5cscmcpcpcncrclaaafaaaaaaafaaaDcmcqcocpcpcocqaNaaalaaaaaaanaacicscmcpcpcmcrciaaalaaaaaaaaaaaaaaaaaaaaaaaaaaaaaaaaaaaaaaaaaaaaaaaaaaaaaaaaaaaaaaaaaaaaaaaaaaaaaaaaaaaaaaaaaaaaaaaaaaaaaaaaaaaaaaaaaaaaaaaaaaaaaaaaaaaaaaaaaaaaaaaaafaaas                      ",
"                      azaaaaaaaaaaaaaaaaaaaaaaaaaaaaaaaaaaaaaaaaaaaaaaaaaaaaaaaaaaaaaaaaaaaaaaaaaaaaaaaaaaaaaaaaaaaaaaaaaeaiaaaaaeaJaQbgb1ccckckckckckckcjckckckckckckcebXa_aMaraaaaaeahaaaaaaaaaoaabjcscmcpcpcncrclaiaaacaaaaafaaasclcqcocpcpcncra=aaanaaaaaaaoaab5cscmcpcpcncrclaaafaaaaaaafaaaDcmcqcocpcpcocqaNaaalaaaaaaanaacicscmcpcpcmcrciaaalaaaaaaaaaaaaaaaaaaaaaaaaaaaaaaaaaaaaaaaaaaaaaaaaaaaaaaaaaaaaaaaaaaaaaaaaaaaaaaaaaaaaaaaaaaaaaaaaaaaaaaaaaaaaaaaaaaaaaaaaaaaaaaaaaaaaaaaaaaaaaaaaaaaaaz                      ",
"                      azaaaaaaaaaaaaaaaaaaaaaaaaaaaaaaaaaaaaaaaaaaaaaaaaaaaaaaaaaaaaaaaaaaaaaaaaaaaaaaaaaaaaaaaaaaaaaaaaaaaaaealaaaaaaaaataJaMaQa_bCbCbQbVbVbCbCa_aQaMaHalaaaaaaaiahaaaaaaaaaaaaaoaabjcscmcpcpcncrclaiaaacaaaaafaaasclcqcocpcpcncra=aaanaaaaaaaoaab5cscmcpcpcncrclaaafaaaaaaafaaaDcmcqcocpcpcocqaNaaalaaaaaaanaacicscmcpcpcmcrciaaalaaaaaaaaaaaaaaaaaaaaaaaaaaaaaaaaaaaaaaaaaaaaaaaaaaaaaaaaaaaaaaaaaaaaaaaaaaaaaaaaaaaaaaaaaaaaaaaaaaaaaaaaaaaaaaaaaaaaaaaaaaaaaaaaaaaaaaaaaaaaaaaaaaaaaz                      ",
"                      aCaaaaaaaaaaaaaaaaaaaaaaaaaaaaaaaaaaaaaaaaaaaaaaaaaaaaaaaaaaaaaaaaaaaaaaaaaaaaaaaaaaaaaaaaaaaaaaaaaaaaaaaaaaahalaeaaaaaaaaaaaaaaaeahahaaaaaaaaaaaaaaaiaiacaaaaaaaaaaaaaaaaaoaabjcscmcpcpcncrclaiaaacaaaaafaaasclcqcocpcpcncra=aaanaaaaaaaoaab5cscmcpcpcncrclaaafaaaaaaafaaaDcmcqcocpcpcocqaNaaalaaaaaaanaacicscmcpcpcmcrciaaalaaaaaaaaaaaaaaaaaaaaaaaaaaaaaaaaaaaaaaaaaaaaaaaaaaaaaaaaaaaaaaaaaaaaaaaaaaaaaaaaaaaaaaaaaaaaaaaaaaaaaaaaaaaaaaaaaaaaaaaaaaaaaaaaaaaaaaaaaaaaaaaaaaaaaC                      ",
"                        afaaaaaaaaaaaaaaaaaaaaaaaaaaaaaaaaaaaaaaaaaaaaaaaaaaaaaaaaaaaaaaaaaaaaaaaaaaaaaaaaaaaaaaaaaaaaaaaaaaaaaaaaaaaaaaacahalalaiahaaaaaaaaaaaeaialaiahaaaaaaaaaaaaaaaaaaaaaaaaaoaabjcscmcpcpcncrclaiaaacaaaaafaaasclcqcocpcpcncra=aaanaaaaaaaoaab5cscmcpcpcncrclaaafaaaaaaafaaaDcmcqcocpcpcocqaNaaalaaaaaaanaacicscmcpcpcmcrciaaalaaaaaaaaaaaaaaaaaaaaaaaaaaaaaaaaaaaaaaaaaaaaaaaaaaaaaaaaaaaaaaaaaaaaaaaaaaaaaaaaaaaaaaaaaaaaaaaaaaaaaaaaaaaaaaaaaaaaaaaaaaaaaaaaaaaaaaaaaaaaaaaaaaaf                        ",
"                        awaaaaaaaaaaaaaaaaaaaaaaaaaaaaaaaaaaaaaaaaaaaaaaaaaaaaaaaaaaaaaaaaaaaaaaaaaaaaaaaaaaaaaaaaaaaaaaaaaaaaaaaaaaaaaaaaaaaaaaaaaaaaaaaaaaaaaaaaaaaaaaaaaaaaaaaaaaaaaaaaaaaaaaaoaabjcscmcpcpcncrclaiaaacaaaaafaaasclcqcocpcpcncra=aaanaaaaaaaoaab5cscmcpcpcncrclaaafaaaaaaafaaaDcmcqcocpcpcocqaNaaalaaaaaaanaacicscmcpcpcmcrciaaalaaaaaaaaaaaaaaaaaaaaaaaaaaaaaaaaaaaaaaaaaaaaaaaaaaaaaaaaaaaaaaaaaaaaaaaaaaaaaaaaaaaaaaaaaaaaaaaaaaaaaaaaaaaaaaaaaaaaaaaaaaaaaaaaaaaaaaaaaaaaaaaaaaaw                        ",
"                        aCaaaaaaaaaaaaaaaaaaaaaaaaaaaaaaaaaaaaaaaaaaaaaaaaaaaaaaaaaaaaaaaaaaaaaaaaaaaaaaaaaaaaaaaaaaaaaaaaaaaaaaaaaaaaaaaaaaaaaaaaaaaaaaaaaaaaaaaaaaaaaaaaaaaaaaaaaaaaaaaaaaaaaaaoaabjcscmcpcpcncrclaiaaacaaaaafaaasclcqcocpcpcncra=aaanaaaaaaaoaab5cscmcpcpcncrclaaafaaaaaaafaaaDcmcqcocpcpcocqaNaaalaaaaaaanaacicscmcpcpcmcrciaaalaaaaaaaaaaaaaaaaaaaaaaaaaaaaaaaaaaaaaaaaaaaaaaaaaaaaaaaaaaaaaaaaaaaaaaaaaaaaaaaaaaaaaaaaaaaaaaaaaaaaaaaaaaaaaaaaaaaaaaaaaaaaaaaaaaaaaaaaaaaaaaaaaaaC                        ",
"                        aCaaaaaaaaaaaaaaaaaaaaaaaaaaaaaaaaaaaaaaaaaaaaaaaaaaaaaaaaaaaaaaaaaaaaaaaaaaaaaaaaaaaaaaaaaaaaaaaaaaaaaaaaaaaaaaaaaaaaaaaaaaaaaaaaaaaaaaaaaaaaaaaaaaaaaaaaaaaaaaaaaaaaaaaoaabjcscmcncncmcqclaiaaacaaaaafaaascmcqcmcncncmcra=aaanaaaaaaaoaab5cscmcncncmcrclaaafaaaaaaafaaaDcmcpcmcncncmcraNaaalaaaaaaanaacicrcmcncncmcrciaaalaaaaaaaaaaaaaaaaaaaaaaaaaaaaaaaaaaaaaaaaaaaaaaaaaaaaaaaaaaaaaaaaaaaaaaaaaaaaaaaaaaaaaaaaaaaaaaaaaaaaaaaaaaaaaaaaaaaaaaaaaaaaaaaaaaaaaaaaaaaaaaaaaaaC                        ",
"                          asaaaaaaaaaaaaaaaaaaaaaaaaaaaaaaaaaaaaaaaaaaaaaaaaaaaaaaaaaaaaaaaaaaaaaaaaaaaaaaaaaaaaaaaaaaaaaaaaaaaaaaaaaaaaaaaaaaaaaaaaaaaaaaaaaaaaaaaaaaaaaaaaaaaaaaaaaaaaaaaaaaaaanaaa=cscrcrcrcqcsclaeafaaaaaaaeaeaqclcscqcrcrcrcraNaaalaaaaaaaoaabjcscqcrcrcqcsciaaalaaaaaaafaaavclcscqcrcrcrcpaJaaaiaaaaaaanaabjcscqcrcrcqcsciaaanaaaaaaaaaaaaaaaaaaaaaaaaaaaaaaaaaaaaaaaaaaaaaaaaaaaaaaaaaaaaaaaaaaaaaaaaaaaaaaaaaaaaaaaaaaaaaaaaaaaaaaaaaaaaaaaaaaaaaaaaaaaaaaaaaaaaaaaaaaaaaaaaas                          ",
"                          aAaaaaaaaaaaaaaaaaaaaaaaaaaaaaaaaaaaaaaaaaaaaaaaaaaaaaaaaaaaaaaaaaaaaaaaaaaaaaaaaaaaaaaaaaaaaaaaaaaaaaaaaaaaaaaaaaaaaaaaaaaaaaaaaaaaaaaaaaaaaaaaaaaaaaaaaaaaaaaaaaaaaaaaaaafaNaNaNaNaNaNayaaafaaaaaaaaaeaaaDaNaNaNaNaNaNaaaaaaaaaaaaaaaaaoaNaNaNaNaNaNavaaafaaaaaaaaaeaaaJaNaNaNaNaNaJaaaaaaaaaaaaaaaaasaNaNaNaNaNaNasaaaeaaaaaaaaaaaaaaaaaaaaaaaaaaaaaaaaaaaaaaaaaaaaaaaaaaaaaaaaaaaaaaaaaaaaaaaaaaaaaaaaaaaaaaaaaaaaaaaaaaaaaaaaaaaaaaaaaaaaaaaaaaaaaaaaaaaaaaaaaaaaaaaaaA                          ",
"                          aCaaaaaaaaaaaaaaaaaaaaaaaaaaaaaaaaaaaaaaaaaaaaaaaaaaaaaaaaaaaaaaaaaaaaaaaaaaaaaaaaaaaaaaaaaaaaaaaaaaaaaaaaaaaaaaaaaaaaaaaaaaaaaaaaaaaaaaaaaaaaaaaaaaaaaaaaaaaaaaaaaaaaaaaaaaaaaaaaaaaaaaaaaaaaaaaaaaaaaaaaaaaaaaaaaaaaaaaaaaaaaaaaaaaaaaaaaaaaaaaaaaaaaaaaaaaaaaaaaaaaaaaaaaaaaaaaaaaaaaaaaaaaaaaaaaaaaaaaaaaaaaaaaaaaaaaaaaaaaaaaaaaaaaaaaaaaaaaaaaaaaaaaaaaaaaaaaaaaaaaaaaaaaaaaaaaaaaaaaaaaaaaaaaaaaaaaaaaaaaaaaaaaaaaaaaaaaaaaaaaaaaaaaaaaaaaaaaaaaaaaaaaaaaaaaaaaaaaaaC                          ",
"                            asaaaaaaaaaaaaaaaaaaaaaaaaaaaaaaaaaaaaaaaaaaaaaaaaaaaaaaaaaaaaaaaaaaaaaaaaaaaaaaaaaaaaaaaaaaaaaaaaaaaaaaaaaaaaaaaaaaaaaaaaaaaaaaaaaaaaaaaaaaaaaaaaaaaaaaaaaaaaaaaaaaaaaaaaalalalalalanafaaaaaaaaaaaaaaaaafanalalalanalaaaaaaaaaaaaaaaaaaalalalalalanafaaaaaaaaaaaaaaaaaianalalalanalaaaaaaaaaaaaaaaaaealalalalalalafaaaaaaaaaaaaaaaaaaaaaaaaaaaaaaaaaaaaaaaaaaaaaaaaaaaaaaaaaaaaaaaaaaaaaaaaaaaaaaaaaaaaaaaaaaaaaaaaaaaaaaaaaaaaaaaaaaaaaaaaaaaaaaaaaaaaaaaaaaaaaaaaaaas                            ",
"                            aCaaaaaaaaaaaaaaaaaaaaaaaaaaaaaaaaaaaaaaaaaaaaaaaaaaaaaaaaaaaaaaaaaaaaaaaaaaaaaaaaaaaaaaaaaaaaaaaaaaaaaaaaaaaaaaaaaaaaaaaaaaaaaaaaaaaaaaaaaaaaaaaaaaaaaaaaaaaaaaaaaaaaaaaaaaaaaaaaaaaaaaaaaaaaaaaaaaaaaaaaaaaaaaaaaaaaaaaaaaaaaaaaaaaaaaaaaaaaaaaaaaaaaaaaaaaaaaaaaaaaaaaaaaaaaaaaaaaaaaaaaaaaaaaaaaaaaaaaaaaaaaaaaaaaaaaaaaaaaaaaaaaaaaaaaaaaaaaaaaaaaaaaaaaaaaaaaaaaaaaaaaaaaaaaaaaaaaaaaaaaaaaaaaaaaaaaaaaaaaaaaaaaaaaaaaaaaaaaaaaaaaaaaaaaaaaaaaaaaaaaaaaaaaaaaaaaaC                            ",
"                            aCaaaaaaaaaaaaaaaaaaaaaaaaaaaaaaaaaaaaaaaaaaaaaaaaaaaaaaaaaaaaaaaaaaaaaaaaaaaaaaaaaaaaaaaaaaaaaaaaaaaaaaaaaaaaaaaaaaaaaaaaaaaaaaaaaaaaaaaaaaaaaaaaaaaaaaaaaaaaaaaaaaaaaaaaaaaaaaaaaaaaaaaaaaaaaaaaaaaaaaaaaaaaaaaaaaaaaaaaaaaaaaaaaaaaaaaaaaaaaaaaaaaaaaaaaaaaaaaaaaaaaaaaaaaaaaaaaaaaaaaaaaaaaaaaaaaaaaaaaaaaaaaaaaaaaaaaaaaaaaaaaaaaaaaaaaaaaaaaaaaaaaaaaaaaaaaaaaaaaaaaaaaaaaaaaaaaaaaaaaaaaaaaaaaaaaaaaaaaaaaaaaaaaaaaaaaaaaaaaaaaaaaaaaaaaaaaaaaaaaaaaaaaaaaaaaaaaC                            ",
"                              awaaaaaaaaaaaaaaaaaaaaaaaaaaaaaaaaaaaaaaaaaaaaaaaaaaaaaaaaaaaaaaaaaaaaaaaaaaaaaaaaaaaaaaaaaaaaaaaaaaaaaaaaaaaaaaaaaaaaaaaaaaaaaaaaaaaaaaaaaaaaaaaaaaaaaaaaaaaaaaaaaaaaaaaaaaaaaaaaaaaaaaaaaaaaaaaaaaaaaaaaaaaaaaaaaaaaaaaaaaaaaaaaaaaaaaaaaaaaaaaaaaaaaaaaaaaaaaaaaaaaaaaaaaaaaaaaaaaaaaaaaaaaaaaaaaaaaaaaaaaaaaaaaaaaaaaaaaaaaaaaaaaaaaaaaaaaaaaaaaaaaaaaaaaaaaaaaaaaaaaaaaaaaaaaaaaaaaaaaaaaaaaaaaaaaaaaaaaaaaaaaaaaaaaaaaaaaaaaaaaaaaaaaaaaaaaaaaaaaaaaaaaaaaaaaw                              ",
"                              aCaaaaaaaaaaaaaaaaaaaaaaaaaaaaaaaaaaaaaaaaaaaaaaaaaaaaaaaaaaaaaaaaaaaaaaaaaaaaaaaaaaaaaaaaaaaaaaaaaaaaaaaaaaaaaaaaaaaaaaaaaaaaaaaaaaaaaaaaaaaaaaaaaaaaaaaaaaaaaaaaaaaaaaaaaaaaaaaaaaaaaaaaaaaaaaaaaaaaaaaaaaaaaaaaaaaaaaaaaaaaaaaaaaaaaaaaaaaaaaaaaaaaaaaaaaaaaaaaaaaaaaaaaaaaaaaaaaaaaaaaaaaaaaaaaaaaaaaaaaaaaaaaaaaaaaaaaaaaaaaaaaaaaaaaaaaaaaaaaaaaaaaaaaaaaaaaaaaaaaaaaaaaaaaaaaaaaaaaaaaaaaaaaaaaaaaaaaaaaaaaaaaaaaaaaaaaaaaaaaaaaaaaaaaaaaaaaaaaaaaaaaaaaaaaaC                              ",
"                                avaaaaaaaaaaaaaaaaaaaaaaaaaaaaaaaaaaaaaaaaaaaaaaaaaaaaaaaaaaaaaaaaaaaaaaaaaaaaaaaaaaaaaaaaaaaaaaaaaaaaaaaaaaaaaaaaaaaaaaaaaaaaaaaaaaaaaaaaaaaaaaaaaaaaaaaaaaaaaaaaaaaaaaaaaaaaaaaaaaaaaaaaaaaaaaaaaaaaaaaaaaaaaaaaaaaaaaaaaaaaaaaaaaaaaaaaaaaaaaaaaaaaaaaaaaaaaaaaaaaaaaaaaaaaaaaaaaaaaaaaaaaaaaaaaaaaaaaaaaaaaaaaaaaaaaaaaaaaaaaaaaaaaaaaaaaaaaaaaaaaaaaaaaaaaaaaaaaaaaaaaaaaaaaaaaaaaaaaaaaaaaaaaaaaaaaaaaaaaaaaaaaaaaaaaaaaaaaaaaaaaaaaaaaaaaaaaaaaaaaaaaaaav                                ",
"                                aCaaaaaaaaaaaaaaaaaaaaaaaaaaaaaaaaaaaaaaaaaaaaaaaaaaaaaaaaaaaaaaaaaaaaaaaaaaaaaaaaaaaaaaaaaaaaaaaaaaaaaaaaaaaaaaaaaaaaaaaaaaaaaaaaaaaaaaaaaaaaaaaaaaaaaaaaaaaaaaaaaaaaaaaaaaaaaaaaaaaaaaaaaaaaaaaaaaaaaaaaaaaaaaaaaaaaaaaaaaaaaaaaaaaaaaaaaaaaaaaaaaaaaaaaaaaaaaaaaaaaaaaaaaaaaaaaaaaaaaaaaaaaaaaaaaaaaaaaaaaaaaaaaaaaaaaaaaaaaaaaaaaaaaaaaaaaaaaaaaaaaaaaaaaaaaaaaaaaaaaaaaaaaaaaaaaaaaaaaaaaaaaaaaaaaaaaaaaaaaaaaaaaaaaaaaaaaaaaaaaaaaaaaaaaaaaaaaaaaaaaaaaaaC                                ",
"                                  avaaaaaaaaaaaaaaaaaaaaaaaaaaaaaaaaaaaaaaaaaaaaaaaaaaaaaaaaaaaaaaaaaaaaaaaaaaaaaaaaaaaaaaaaaaaaaaaaaaaaaaaaaaaaaaaaaaaaaaaaaaaaaaaaaaaaaaaaaaaaaaaaaaaaaaaaaaaaaaaaaaaaaaaaaaaaaaaaaaaaaaaaaaaaaaaaaaaaaaaaaaaaaaaaaaaaaaaaaaaaaaaaaaaaaaaaaaaaaaaaaaaaaaaaaaaaaaaaaaaaaaaaaaaaaaaaaaaaaaaaaaaaaaaaaaaaaaaaaaaaaaaaaaaaaaaaaaaaaaaaaaaaaaaaaaaaaaaaaaaaaaaaaaaaaaaaaaaaaaaaaaaaaaaaaaaaaaaaaaaaaaaaaaaaaaaaaaaaaaaaaaaaaaaaaaaaaaaaaaaaaaaaaaaaaaaaaaaaaaaaav                                  ",
"                                  aCaaaaaaaaaaaaaaaaaaaaaaaaaaaaaaaaaaaaaaaaaaaaaaaaaaaaaaaaaaaaaaaaaaaaaaaaaaaaaaaaaaaaaaaaaaaaaaaaaaaaaaaaaaaaaaaaaaaaaaaaaaaaaaaaaaaaaaaaaaaaaaaaaaaaaaaaaaaaaaaaaaaaaaaaaaaaaaaaaaaaaaaaaaaaaaaaaaaaaaaaaaaaaaaaaaaaaaaaaaaaaaaaaaaaaaaaaaaaaaaaaaaaaaaaaaaaaaaaaaaaaaaaaaaaaaaaaaaaaaaaaaaaaaaaaaaaaaaaaaaaaaaaaaaaaaaaaaaaaaaaaaaaaaaaaaaaaaaaaaaaaaaaaaaaaaaaaaaaaaaaaaaaaaaaaaaaaaaaaaaaaaaaaaaaaaaaaaaaaaaaaaaaaaaaaaaaaaaaaaaaaaaaaaaaaaaaaaaaaaaaaC                                  ",
"                                    azaaaaaaaaaaaaaaaaaaaaaaaaaaaaaaaaaaaaaaaaaaaaaaaaaaaaaaaaaaaaaaaaaaaaaaaaaaaaaaaaaaaaaaaaaaaaaaaaaaaaaaaaaaaaaaaaaaaaaaaaaaaaaaaaaaaaaaaaaaaaaaaaaaaaaaaaaaaaaaaaaaaaaaaaaaaaaaaaaaaaaaaaaaaaaaaaaaaaaaaaaaaaaaaaaaaaaaaaaaaaaaaaaaaaaaaaaaaaaaaaaaaaaaaaaaaaaaaaaaaaaaaaaaaaaaaaaaaaaaaaaaaaaaaaaaaaaaaaaaaaaaaaaaaaaaaaaaaaaaaaaaaaaaaaaaaaaaaaaaaaaaaaaaaaaaaaaaaaaaaaaaaaaaaaaaaaaaaaaaaaaaaaaaaaaaaaaaaaaaaaaaaaaaaaaaaaaaaaaaaaaaaaaaaaaaaaaaaaaz                                    ",
"                                      aqaaaaaaaaaaaaaaaaaaaaaaaaaaaaaaaaaaaaaaaaaaaaaaaaaaaaaaaaaaaaaaaaaaaaaaaaaaaaaaaaaaaaaaaaaaaaaaaaaaaaaaaaaaaaaaaaaaaaaaaaaaaaaaaaaaaaaaaaaaaaaaaaaaaaaaaaaaaaaaaaaaaaaaaaaaaaaaaaaaaaaaaaaaaaaaaaaaaaaaaaaaaaaaaaaaaaaaaaaaaaaaaaaaaaaaaaaaaaaaaaaaaaaaaaaaaaaaaaaaaaaaaaaaaaaaaaaaaaaaaaaaaaaaaaaaaaaaaaaaaaaaaaaaaaaaaaaaaaaaaaaaaaaaaaaaaaaaaaaaaaaaaaaaaaaaaaaaaaaaaaaaaaaaaaaaaaaaaaaaaaaaaaaaaaaaaaaaaaaaaaaaaaaaaaaaaaaaaaaaaaaaaaaaaaaaaaaq                                      ",
"                                      aDaaaaaaaaaaaaaaaaaaaaaaaaaaaaaaaaaaaaaaaaaaaaaaaaaaaaaaaaaaaaaaaaaaaaaaaaaaaaaaaaaaaaaaaaaaaaaaaaaaaaaaaaaaaaaaaaaaaaaaaaaaaaaaaaaaaaaaaaaaaaaaaaaaaaaaaaaaaaaaaaaaaaaaaaaaaaaaaaaaaaaaaaaaaaaaaaaaaaaaaaaaaaaaaaaaaaaaaaaaaaaaaaaaaaaaaaaaaaaaaaaaaaaaaaaaaaaaaaaaaaaaaaaaaaaaaaaaaaaaaaaaaaaaaaaaaaaaaaaaaaaaaaaaaaaaaaaaaaaaaaaaaaaaaaaaaaaaaaaaaaaaaaaaaaaaaaaaaaaaaaaaaaaaaaaaaaaaaaaaaaaaaaaaaaaaaaaaaaaaaaaaaaaaaaaaaaaaaaaaaaaaaaaaaaaaaaaD                                      ",
"                                        aAaaaaaaaaaaaaaaaaaaaaaaaaaaaaaaaaaaaaaaaaaaaaaaaaaaaaaaaaaaaaaaaaaaaaaaaaaaaaaaaaaaaaaaaaaaaaaaaaaaaaaaaaaaaaaaaaaaaaaaaaaaaaaaaaaaaaaaaaaaaaaaaaaaaaaaaaaaaaaaaaaaaaaaaaaaaaaaaaaaaaaaaaaaaaaaaaaaaaaaaaaaaaaaaaaaaaaaaaaaaaaaaaaaaaaaaaaaaaaaaaaaaaaaaaaaaaaaaaaaaaaaaaaaaaaaaaaaaaaaaaaaaaaaaaaaaaaaaaaaaaaaaaaaaaaaaaaaaaaaaaaaaaaaaaaaaaaaaaaaaaaaaaaaaaaaaaaaaaaaaaaaaaaaaaaaaaaaaaaaaaaaaaaaaaaaaaaaaaaaaaaaaaaaaaaaaaaaaaaaaaaaaaaaaaaA                                        ",
"                                          avalaaaaaaaaaaaaaaaaaaaaaaaaaaaaaaaaaaaaaaaaaaaaaaaaaaaaaaaaaaaaaaaaaaaaaaaaaaaaaaaaaaaaaaaaaaaaaaaaaaaaaaaaaaaaaaaaaaaaaaaaaaaaaaaaaaaaaaaaaaaaaaaaaaaaaaaaaaaaaaaaaaaaaaaaaaaaaaaaaaaaaaaaaaaaaaaaaaaaaaaaaaaaaaaaaaaaaaaaaaaaaaaaaaaaaaaaaaaaaaaaaaaaaaaaaaaaaaaaaaaaaaaaaaaaaaaaaaaaaaaaaaaaaaaaaaaaaaaaaaaaaaaaaaaaaaaaaaaaaaaaaaaaaaaaaaaaaaaaaaaaaaaaaaaaaaaaaaaaaaaaaaaaaaaaaaaaaaaaaaaaaaaaaaaaaaaaaaaaaaaaaaaaaaaaaaaaaaaaaaaaalav                                          ",
"                                            asalaaaaaaaaaaaaaaaaaaaaaaaaaaaaaaaaaaaaaaaaaaaaaaaaaaaaaaaaaaaaaaaaaaaaaaaaaaaaaaaaaaaaaaaaaaaaaaaaaaaaaaaaaaaaaaaaaaaaaaaaaaaaaaaaaaaaaaaaaaaaaaaaaaaaaaaaaaaaaaaaaaaaaaaaaaaaaaaaaaaaaaaaaaaaaaaaaaaaaaaaaaaaaaaaaaaaaaaaaaaaaaaaaaaaaaaaaaaaaaaaaaaaaaaaaaaaaaaaaaaaaaaaaaaaaaaaaaaaaaaaaaaaaaaaaaaaaaaaaaaaaaaaaaaaaaaaaaaaaaaaaaaaaaaaaaaaaaaaaaaaaaaaaaaaaaaaaaaaaaaaaaaaaaaaaaaaaaaaaaaaaaaaaaaaaaaaaaaaaaaaaaaaaaaaaaaaaaaaalas                                            ",
"                                              aqalaaaaaaaaaaaaaaaaaaaaaaaaaaaaaaaaaaaaaaaaaaaaaaaaaaaaaaaaaaaaaaaaaaaaaaaaaaaaaaaaaaaaaaaaaaaaaaaaaaaaaaaaaaaaaaaaaaaaaaaaaaaaaaaaaaaaaaaaaaaaaaaaaaaaaaaaaaaaaaaaaaaaaaaaaaaaaaaaaaaaaaaaaaaaaaaaaaaaaaaaaaaaaaaaaaaaaaaaaaaaaaaaaaaaaaaaaaaaaaaaaaaaaaaaaaaaaaaaaaaaaaaaaaaaaaaaaaaaaaaaaaaaaaaaaaaaaaaaaaaaaaaaaaaaaaaaaaaaaaaaaaaaaaaaaaaaaaaaaaaaaaaaaaaaaaaaaaaaaaaaaaaaaaaaaaaaaaaaaaaaaaaaaaaaaaaaaaaaaaaaaaaaaaaaaaaaalaq                                              ",
"                                                aqanaaaaaaaaaaaaaaaaaaaaaaaaaaaaaaaaaaaaaaaaaaaaaaaaaaaaaaaaaaaaaaaaaaaaaaaaaaaaaaaaaaaaaaaaaaaaaaaaaaaaaaaaaaaaaaaaaaaaaaaaaaaaaaaaaaaaaaaaaaaaaaaaaaaaaaaaaaaaaaaaaaaaaaaaaaaaaaaaaaaaaaaaaaaaaaaaaaaaaaaaaaaaaaaaaaaaaaaaaaaaaaaaaaaaaaaaaaaaaaaaaaaaaaaaaaaaaaaaaaaaaaaaaaaaaaaaaaaaaaaaaaaaaaaaaaaaaaaaaaaaaaaaaaaaaaaaaaaaaaaaaaaaaaaaaaaaaaaaaaaaaaaaaaaaaaaaaaaaaaaaaaaaaaaaaaaaaaaaaaaaaaaaaaaaaaaaaaaaaaaaaaaaaaaaanaq                                                ",
"                                                  asanaaaaaaaaaaaaaaaaaaaaaaaaaaaaaaaaaaaaaaaaaaaaaaaaaaaaaaaaaaaaaaaaaaaaaaaaaaaaaaaaaaaaaaaaaaaaaaaaaaaaaaaaaaaaaaaaaaaaaaaaaaaaaaaaaaaaaaaaaaaaaaaaaaaaaaaaaaaaaaaaaaaaaaaaaaaaaaaaaaaaaaaaaaaaaaaaaaaaaaaaaaaaaaaaaaaaaaaaaaaaaaaaaaaaaaaaaaaaaaaaaaaaaaaaaaaaaaaaaaaaaaaaaaaaaaaaaaaaaaaaaaaaaaaaaaaaaaaaaaaaaaaaaaaaaaaaaaaaaaaaaaaaaaaaaaaaaaaaaaaaaaaaaaaaaaaaaaaaaaaaaaaaaaaaaaaaaaaaaaaaaaaaaaaaaaaaaaaaaaaaaaaaanas                                                  ",
"                                                    avaaaaaaaaaaaaaaaaaaaaaaaaaaaaaaaaaaaaaaaaaaaaaaaaaaaaaaaaaaaaaaaaaaaaaaaaaaaaaaaaaaaaaaaaaaaaaaaaaaaaaaaaaaaaaaaaaaaaaaaaaaaaaaaaaaaaaaaaaaaaaaaaaaaaaaaaaaaaaaaaaaaaaaaaaaaaaaaaaaaaaaaaaaaaaaaaaaaaaaaaaaaaaaaaaaaaaaaaaaaaaaaaaaaaaaaaaaaaaaaaaaaaaaaaaaaaaaaaaaaaaaaaaaaaaaaaaaaaaaaaaaaaaaaaaaaaaaaaaaaaaaaaaaaaaaaaaaaaaaaaaaaaaaaaaaaaaaaaaaaaaaaaaaaaaaaaaaaaaaaaaaaaaaaaaaaaaaaaaaaaaaaaaaaaaaaaaaaaaaaaaaaaav                                                    ",
"                                                      avaaalaaaaaaaaaaaaaaaaaaaaaaaaaaaaaaaaaaaaaaaaaaaaaaaaaaaaaaaaaaaaaaaaaaaaaaaaaaaaaaaaaaaaaaaaaaaaaaaaaaaaaaaaaaaaaaaaaaaaaaaaaaaaaaaaaaaaaaaaaaaaaaaaaaaaaaaaaaaaaaaaaaaaaaaaaaaaaaaaaaaaaaaaaaaaaaaaaaaaaaaaaaaaaaaaaaaaaaaaaaaaaaaaaaaaaaaaaaaaaaaaaaaaaaaaaaaaaaaaaaaaaaaaaaaaaaaaaaaaaaaaaaaaaaaaaaaaaaaaaaaaaaaaaaaaaaaaaaaaaaaaaaaaaaaaaaaaaaaaaaaaaaaaaaaaaaaaaaaaaaaaaaaaaaaaaaaaaaaaaaaaaaaaaaaaaaaaalaaav                                                      ",
"                                                        awaqaaaaaaaaaaaaaaaaaaaaaaaaaaaaaaaaaaaaaaaaaaaaaaaaaaaaaaaaaaaaaaaaaaaaaaaaaaaaaaaaaaaaaaaaaaaaaaaaaaaaaaaaaaaaaaaaaaaaaaaaaaaaaaaaaaaaaaaaaaaaaaaaaaaaaaaaaaaaaaaaaaaaaaaaaaaaaaaaaaaaaaaaaaaaaaaaaaaaaaaaaaaaaaaaaaaaaaaaaaaaaaaaaaaaaaaaaaaaaaaaaaaaaaaaaaaaaaaaaaaaaaaaaaaaaaaaaaaaaaaaaaaaaaaaaaaaaaaaaaaaaaaaaaaaaaaaaaaaaaaaaaaaaaaaaaaaaaaaaaaaaaaaaaaaaaaaaaaaaaaaaaaaaaaaaaaaaaaaaaaaaaaaaaaaaaaaaqaw                                                        ",
"                                                            avaaalaaaaaaaaaaaaaaaaaaaaaaaaaaaaaaaaaaaaaaaaaaaaaaaaaaaaaaaaaaaaaaaaaaaaaaaaaaaaaaaaaaaaaaaaaaaaaaaaaaaaaaaaaaaaaaaaaaaaaaaaaaaaaaaaaaaaaaaaaaaaaaaaaaaaaaaaaaaaaaaaaaaaaaaaaaaaaaaaaaaaaaaaaaaaaaaaaaaaaaaaaaaaaaaaaaaaaaaaaaaaaaaaaaaaaaaaaaaaaaaaaaaaaaaaaaaaaaaaaaaaaaaaaaaaaaaaaaaaaaaaaaaaaaaaaaaaaaaaaaaaaaaaaaaaaaaaaaaaaaaaaaaaaaaaaaaaaaaaaaaaaaaaaaaaaaaaaaaaaaaaaaaaaaaaaaaaaaaaaaaaalaaav                                                            ",
"                                                              awavaaalaaaaaaaaaaaaaaaaaaaaaaaaaaaaaaaaaaaaaaaaaaaaaaaaaaaaaaaaaaaaaaaaaaaaaaaaaaaaaaaaaaaaaaaaaaaaaaaaaaaaaaaaaaaaaaaaaaaaaaaaaaaaaaaaaaaaaaaaaaaaaaaaaaaaaaaaaaaaaaaaaaaaaaaaaaaaaaaaaaaaaaaaaaaaaaaaaaaaaaaaaaaaaaaaaaaaaaaaaaaaaaaaaaaaaaaaaaaaaaaaaaaaaaaaaaaaaaaaaaaaaaaaaaaaaaaaaaaaaaaaaaaaaaaaaaaaaaaaaaaaaaaaaaaaaaaaaaaaaaaaaaaaaaaaaaaaaaaaaaaaaaaaaaaaaaaaaaaaaaaaaaaaaaaaaaaaalaaavaw                                                              ",
"                                                                  awavaaaaaaaaaaaaaaaaaaaaaaaaaaaaaaaaaaaaaaaaaaaaaaaaaaaaaaaaaaaaaaaaaaaaaaaaaaaaaaaaaaaaaaaaaaaaaaaaaaaaaaaaaaaaaaaaaaaaaaaaaaaaaaaaaaaaaaaaaaaaaaaaaaaaaaaaaaaaaaaaaaaaaaaaaaaaaaaaaaaaaaaaaaaaaaaaaaaaaaaaaaaaaaaaaaaaaaaaaaaaaaaaaaaaaaaaaaaaaaaaaaaaaaaaaaaaaaaaaaaaaaaaaaaaaaaaaaaaaaaaaaaaaaaaaaaaaaaaaaaaaaaaaaaaaaaaaaaaaaaaaaaaaaaaaaaaaaaaaaaaaaaaaaaaaaaaaaaaaaaaaaaaaaaaaaaaavaw                                                                  ",
"                                                                      awavaaaaaaaaaaaaaaaaaaaaaaaaaaaaaaaaaaaaaaaaaaaaaaaaaaaaaaaaaaaaaaaaaaaaaaaaaaaaaaaaaaaaaaaaaaaaaaaaaaaaaaaaaaaaaaaaaaaaaaaaaaaaaaaaaaaaaaaaaaaaaaaaaaaaaaaaaaaaaaaaaaaaaaaaaaaaaaaaaaaaaaaaaaaaaaaaaaaaaaaaaaaaaaaaaaaaaaaaaaaaaaaaaaaaaaaaaaaaaaaaaaaaaaaaaaaaaaaaaaaaaaaaaaaaaaaaaaaaaaaaaaaaaaaaaaaaaaaaaaaaaaaaaaaaaaaaaaaaaaaaaaaaaaaaaaaaaaaaaaaaaaaaaaaaaaaaaaaaaaaaaaaaavaw                                                                      ",
"                                                                            awasaaaaaaaaaaaaaaaaaaaaaaaaaaaaaaaaaaaaaaaaaaaaaaaaaaaaaaaaaaaaaaaaaaaaaaaaaaaaaaaaaaaaaaaaaaaaaaaaaaaaaaaaaaaaaaaaaaaaaaaaaaaaaaaaaaaaaaaaaaaaaaaaaaaaaaaaaaaaaaaaaaaaaaaaaaaaaaaaaaaaaaaaaaaaaaaaaaaaaaaaaaaaaaaaaaaaaaaaaaaaaaaaaaaaaaaaaaaaaaaaaaaaaaaaaaaaaaaaaaaaaaaaaaaaaaaaaaaaaaaaaaaaaaaaaaaaaaaaaaaaaaaaaaaaaaaaaaaaaaaaaaaaaaaaaaaaaaaaaaaaaaaaaaaaaaaaasaw                                                                            ",
"                                                                                azawasaaaaaaaaaaaaaaafaaaaaaaaaaaaaaaaaaaaaaaaaaaaaaaaaaaaaaaaaaaaaaaaaaaaaaaaaaaaaaaaaaaaaaaaaaaaaaaaaaaaaaaaaaaaaaaaaaaaaaaaaaaaaaaaaaaaaaaaaaaaaaaaaaaaaaaaaaaaaaaaaaaaaaaaaaaaaaaaaaaaaaaaaaaaaaaaaaaaaaaaaaaaaaaaaaaaaaaaaaaaaaaaaaaaaaaaaaaaaaaaaaaaaaaaaaaaaaaaaaaaaaaaaaaaaaaaaaaaaaaaaaaaaaaaaaaaaaaaaaaaaaaaaaaaaaaaaaaaaaaaaaaaafaaaaaaaaaaaaaaasawaz                                                                                ",
"                                                                                      azazawafaaaaaaaaaaaaaaaaaaaaaaaaaaaaaaaaaaaaaaaaaaaaaaaaaaaaaaaaaaaaaaaaaaaaaaaaaaaaaaaaaaaaaaaaaaaaaaaaaaaaaaaaaaaaaaaaaaaaaaaaaaaaaaaaaaaaaaaaaaaaaaaaaaaaaaaaaaaaaaaaaaaaaaaaaaaaaaaaaaaaaaaaaaaaaaaaaaaaaaaaaaaaaaaaaaaaaaaaaaaaaaaaaaaaaaaaaaaaaaaaaaaaaaaaaaaaaaaaaaaaaaaaaaaaaaaaaaaaaaaaaaaaaaaaaaaaaaaaaaaaaaaaaaaaaaaaaaaaaaaaaaaaafawazaz                                                                                      ",
"                                                                                              aCaAawavaaaaaaaaaaaaaaaaaaaaaaaaaaaaaaaaafaaaaaaaaaaaaaaaaaaaaaaaaaaaaaaaaaaaaaaaaaaaaaaaaaaaaaaaaaaaaaaaaaaaaaaaaaaaaaaaaaaaaaaaaaaaaaaaaaaaaaaaaaaaaaaaaaaaaaaaaaaaaaaaaaaaaaaaaaaaaaaaaaaaaaaaaaaaaaaaaaaaaaaaaaaaaaaaaaaaaaaaaaaaaaaaaaaaaaaaaaaaaaaaaaaaaaaaaaaaaaaaaaaaaaaaaaaaaaaaaafaaaaaaaaaaaaaaaaaaaaaaaaaaaaaaaaavawaAaC                                                                                              ",
"                                                                                                        aCazazawavanaaaaaaaaaaaaaaaaaaaaaaaaaaaaaaaaaaaaaaaaaaaaaaaaaaaaaaaaaaaaaaaaaaaaaaaaaaaaaaaaaaaaaaaaaaaaaaaaaaaaaaaaaaaaaaaaaaaaaaaaaaaaaaaaaaaaaaaaaaaaaaaaaaaaaaaaaaaaaaaaaaaaaaaaaaaaaaaaaaaaaaaaaaaaaaaaaaaaaaaaaaaaaaaaaaaaaaaaaaaaaaaaaaaaaaaaaaaaaaaaaaaaaaaaaaaaaaaaaaaaaaaaaaaaaaaaaaaaaaaaanavawazazaC                                                                                                        ",
"                                                                                                                      aCaCaAawawawavavaoaaaaaaaaaaaaaaaaaaaaaaaaaaaaaaaaaaaaaaaaaaaaaaaaaaaaaaaaaaaaaaaaaaaaaaaaaaaaaaaaaaaaaaaaaaaaaaaaaaaaaaaaaaaaaaaaaaaaaaaaaaaaaaaaaaaaaaaaaaaaaaaaaaaaaaaaaaaaaaaaaaaaaaaaaaaaaaaaaaaaaaaaaaaaaaaaaaaaaaaaaaaaaaaaaaaaaaaaaaaaaaaaaaaaaaaaaaaaaaaaaoavavawawawaAaCaC                                                                                                                      ",
"                                                                                                                                                  aAaAazazaAawawawawavasasasasaqaoaoaoananaoalaaaaaaaaaaaaaaaaaaaaaaaaaaaaaaaaaaaaaaaaaaaaaaaaaaaaaaaaaaaaaaaaaaaaaaaaaaaaaaaaaaaaaaaaaaaaaaaaaaaaaaaaaaaaaaaaaaaaaaaaaaaaaaaaaaaaalaoananaoaoaoaqasasasasavawawawawaAazazaAaA                                                                                                                                                  ",
"                                                                                                                                                                                                                                                                                                                                                                                                                                                                                                                                ",
"                                                                                                                                                                                                                                                                                                                                                                                                                                                                                                                                ",
"                                                                                                                                                                                                                                                                                                                                                                                                                                                                                                                                ",
"                                                                                                                                                                                                                                                                                                                                                                                                                                                                                                                                ",
"                                                                                                                                                                                                                                                                                                                                                                                                                                                                                                                                ",
"                                                                                                                                                                                                                                                                                                                                                                                                                                                                                                                                ",
"                                                                                                                                                                                                                                                                                                                                                                                                                                                                                                                                ",
"                                                                                                                                                                                                                                                                                                                                                                                                                                                                                                                                "
};
